;FLAVOR:Marlin
;TIME:34758
;Filament used: 23.4067m
;Layer height: 0.16
;MINX:25.2
;MINY:121.362
;MINZ:0.2
;MAXX:199.8
;MAXY:174.282
;MAXZ:56.52
;Generated with Creality Slicer 4.8.2-205
M140 S70
M105
M190 S70
M104 S220
M105
M109 S220
M82 ;absolute extrusion mode

G28 ;Home

G92 E0 ;Reset Extruder
G1 Z2.0 F3000 ;Move Z Axis up
G1 X10.1 Y20 Z0.28 F5000.0 ;Move to start position
G1 X10.1 Y200.0 Z0.28 F1500.0 E15 ;Draw the first line
G1 X10.4 Y200.0 Z0.28 F5000.0 ;Move to side a little
G1 X10.4 Y20 Z0.28 F1500.0 E30 ;Draw the second line
G92 E0 ;Reset Extruder
G1 Z2.0 F3000 ;Move Z Axis up

G92 E0
G92 E0
G1 F1500 E-6
;LAYER_COUNT:317
;LAYER:0
M107
G1 F300 Z0.4
G0 F6000 X35.385 Y138.064 Z0.4
;TYPE:SKIRT
G1 F300 Z0.2
G1 F1500 E0
G1 F1200 X36.613 Y137.828 E0.06239
G1 X37.848 Y137.651 E0.12463
G1 X38.47 Y137.57 E0.15592
G1 X40.909 Y137.183 E0.27913
G1 X43.296 Y136.735 E0.4003
G1 X45.692 Y136.215 E0.52262
G1 X48.05 Y135.633 E0.64379
G1 X50.436 Y134.972 E0.76731
G1 X52.764 Y134.254 E0.88885
G1 X55.124 Y133.454 E1.01317
G1 X57.413 Y132.605 E1.13497
G1 X59.653 Y131.701 E1.25549
G1 X61.923 Y130.708 E1.3791
G1 X64.143 Y129.664 E1.50149
G1 X66.333 Y128.555 E1.62396
G1 X68.511 Y127.374 E1.74757
G1 X70.6 Y126.164 E1.86801
G1 X72.672 Y124.886 E1.98946
G1 X74.584 Y123.629 E2.10362
G1 X75.101 Y123.307 E2.13401
G1 X75.224 Y123.234 E2.14114
G1 X76.131 Y122.742 E2.19262
G1 X77.073 Y122.322 E2.24408
G1 X78.044 Y121.977 E2.29549
G1 X79.04 Y121.707 E2.34697
G1 X80.053 Y121.516 E2.3984
G1 X81.078 Y121.404 E2.44984
G1 X81.636 Y121.376 E2.47772
G1 X81.954 Y121.367 E2.49359
G1 X82.33 Y121.362 E2.51235
G1 X142.293 Y121.362 E5.50392
G1 X143.186 Y121.373 E5.54847
G1 X144.216 Y121.428 E5.59993
G1 X145.238 Y121.562 E5.65136
G1 X146.247 Y121.775 E5.7028
G1 X147.237 Y122.066 E5.75429
G1 X148.201 Y122.432 E5.80573
G1 X149.134 Y122.872 E5.85719
G1 X150.286 Y123.547 E5.92381
G1 X151.372 Y124.259 E5.98859
G1 X153.473 Y125.593 E6.11276
G1 X155.602 Y126.861 E6.23638
G1 X157.739 Y128.055 E6.35851
G1 X159.921 Y129.193 E6.48129
G1 X162.114 Y130.26 E6.60296
G1 X164.347 Y131.269 E6.72521
G1 X166.629 Y132.223 E6.84861
G1 X168.945 Y133.117 E6.97246
G1 X171.194 Y133.91 E7.09144
G1 X173.555 Y134.668 E7.21515
G1 X175.91 Y135.354 E7.33752
G1 X178.279 Y135.97 E7.45964
G1 X180.678 Y136.523 E7.58247
G1 X183.088 Y137.008 E7.70512
G1 X185.478 Y137.416 E7.82608
G1 X187.994 Y137.774 E7.95287
G1 X188.185 Y137.799 E7.96248
G1 X189.202 Y137.97 E8.01393
G1 X190.203 Y138.219 E8.06539
G1 X191.181 Y138.545 E8.11682
G1 X192.131 Y138.946 E8.16827
G1 X193.048 Y139.419 E8.21974
G1 X193.925 Y139.962 E8.2712
G1 X194.757 Y140.571 E8.32264
G1 X195.539 Y141.243 E8.37409
G1 X196.267 Y141.974 E8.42556
G1 X196.937 Y142.758 E8.47701
G1 X197.543 Y143.592 E8.52844
G1 X198.083 Y144.471 E8.57991
G1 X198.554 Y145.389 E8.63138
G1 X198.951 Y146.34 E8.6828
G1 X199.274 Y147.32 E8.73428
G1 X199.52 Y148.321 E8.7857
G1 X199.688 Y149.339 E8.83718
G1 X199.786 Y150.618 E8.90117
G1 X199.795 Y150.939 E8.9172
G1 X199.8 Y151.312 E8.93581
G1 X199.799 Y160.411 E9.38976
G1 X199.79 Y161.138 E9.42603
G1 X199.737 Y162.168 E9.47748
G1 X199.605 Y163.19 E9.5289
G1 X199.394 Y164.2 E9.58037
G1 X199.105 Y165.19 E9.63183
G1 X198.74 Y166.155 E9.6833
G1 X198.302 Y167.088 E9.73472
G1 X197.793 Y167.985 E9.78617
G1 X197.215 Y168.839 E9.83762
G1 X196.573 Y169.647 E9.88911
G1 X195.871 Y170.402 E9.94054
G1 X195.112 Y171.1 E9.99199
G1 X194.302 Y171.738 E10.04343
G1 X193.444 Y172.311 E10.0949
G1 X192.545 Y172.815 E10.14632
G1 X191.609 Y173.249 E10.19779
G1 X190.642 Y173.609 E10.24927
G1 X189.651 Y173.892 E10.30069
G1 X188.64 Y174.098 E10.35217
G1 X187.617 Y174.225 E10.40359
G1 X186.864 Y174.268 E10.44122
G1 X186.543 Y174.277 E10.45724
G1 X186.17 Y174.282 E10.47586
G1 X133.517 Y174.281 E13.10272
G1 X132.816 Y174.271 E13.1377
G1 X131.786 Y174.216 E13.18916
G1 X130.568 Y174.047 E13.25051
G1 X129.789 Y173.9 E13.29006
G1 X128.368 Y173.615 E13.36237
G1 X125.906 Y173.194 E13.48698
G1 X123.491 Y172.85 E13.60868
G1 X121.051 Y172.573 E13.73119
G1 X118.641 Y172.369 E13.85186
G1 X116.166 Y172.229 E13.97553
G1 X113.711 Y172.16 E14.09806
G1 X111.282 Y172.16 E14.21925
G1 X108.81 Y172.231 E14.34263
G1 X106.351 Y172.37 E14.4655
G1 X103.94 Y172.575 E14.58622
G1 X101.471 Y172.857 E14.7102
G1 X99.066 Y173.199 E14.83139
G1 X96.59 Y173.624 E14.95673
G1 X95.266 Y173.88 E15.02401
G1 X94.615 Y174.011 E15.05714
G1 X93.597 Y174.176 E15.10859
G1 X92.364 Y174.268 E15.17027
G1 X92.044 Y174.277 E15.18624
G1 X91.67 Y174.282 E15.2049
G1 X39.036 Y174.281 E17.83082
G1 X38.338 Y174.272 E17.86565
G1 X37.308 Y174.219 E17.91711
G1 X36.285 Y174.086 E17.96857
G1 X35.276 Y173.874 E18.02001
G1 X34.286 Y173.585 E18.07146
G1 X33.321 Y173.219 E18.12295
G1 X32.388 Y172.781 E18.17438
G1 X31.491 Y172.271 E18.22586
G1 X30.637 Y171.693 E18.2773
G1 X29.83 Y171.051 E18.32875
G1 X29.075 Y170.348 E18.38022
G1 X28.377 Y169.589 E18.43166
G1 X27.74 Y168.778 E18.48311
G1 X27.168 Y167.92 E18.53456
G1 X26.663 Y167.021 E18.586
G1 X26.23 Y166.085 E18.63745
G1 X25.871 Y165.118 E18.68892
G1 X25.588 Y164.126 E18.74038
G1 X25.383 Y163.116 E18.7918
G1 X25.256 Y162.092 E18.84328
G1 X25.214 Y161.332 E18.88125
G1 X25.205 Y160.999 E18.89787
G1 X25.2 Y160.64 E18.91578
G1 X25.2 Y151.656 E19.364
G1 X25.212 Y150.792 E19.40711
G1 X25.267 Y149.762 E19.45857
G1 X25.402 Y148.739 E19.51005
G1 X25.616 Y147.731 E19.56146
G1 X25.908 Y146.741 E19.61295
G1 X26.275 Y145.778 E19.66437
G1 X26.716 Y144.845 E19.71585
G1 X27.227 Y143.95 E19.76727
G1 X27.807 Y143.097 E19.81873
G1 X28.451 Y142.291 E19.8702
G1 X29.155 Y141.538 E19.92163
G1 X29.916 Y140.842 E19.97308
G1 X30.728 Y140.206 E20.02454
G1 X31.587 Y139.636 E20.07597
G1 X32.488 Y139.133 E20.12745
G1 X33.425 Y138.702 E20.17891
G1 X34.393 Y138.345 E20.23038
G1 X35.385 Y138.064 E20.28182
G0 F6000 X35.907 Y138.562
G1 F1200 X36.699 Y138.422 E20.32195
G1 X37.926 Y138.246 E20.38379
G1 X38.567 Y138.163 E20.41603
G1 X40.969 Y137.782 E20.53737
G1 X43.429 Y137.32 E20.66224
G1 X45.826 Y136.799 E20.78462
G1 X48.209 Y136.211 E20.90708
G1 X50.603 Y135.548 E21.03101
G1 X52.987 Y134.813 E21.15547
G1 X55.284 Y134.034 E21.27648
G1 X57.623 Y133.166 E21.40095
G1 X59.907 Y132.245 E21.52381
G1 X62.179 Y131.251 E21.64754
G1 X64.415 Y130.199 E21.77082
G1 X66.608 Y129.089 E21.89345
G1 X68.773 Y127.915 E22.01632
G1 X70.933 Y126.664 E22.14085
G1 X73.008 Y125.384 E22.26249
G1 X74.914 Y124.131 E22.37628
G1 X75.407 Y123.823 E22.40529
G1 X75.53 Y123.75 E22.41242
G1 X76.417 Y123.27 E22.46274
G1 X77.338 Y122.862 E22.51299
G1 X78.289 Y122.529 E22.56326
G1 X79.264 Y122.272 E22.61357
G1 X80.255 Y122.093 E22.66381
G1 X81.653 Y121.976 E22.7338
G1 X81.971 Y121.967 E22.74967
G1 X82.33 Y121.962 E22.76758
G1 X142.293 Y121.962 E25.75915
G1 X143.177 Y121.973 E25.80326
G1 X144.184 Y122.028 E25.85357
G1 X145.183 Y122.161 E25.90385
G1 X146.168 Y122.374 E25.95413
G1 X147.133 Y122.664 E26.0044
G1 X148.072 Y123.03 E26.05468
G1 X148.979 Y123.469 E26.10495
G1 X149.957 Y124.049 E26.16168
G1 X150.99 Y124.726 E26.2233
G1 X153.194 Y126.126 E26.35356
G1 X155.285 Y127.371 E26.47497
G1 X157.452 Y128.582 E26.59882
G1 X159.65 Y129.728 E26.72249
G1 X161.874 Y130.81 E26.84588
G1 X164.122 Y131.826 E26.96896
G1 X166.392 Y132.775 E27.09171
G1 X168.729 Y133.677 E27.21668
G1 X170.991 Y134.474 E27.33634
G1 X173.393 Y135.246 E27.46221
G1 X175.761 Y135.935 E27.58525
G1 X178.104 Y136.545 E27.70604
G1 X180.562 Y137.111 E27.83188
G1 X182.973 Y137.597 E27.95458
G1 X185.403 Y138.011 E28.07756
G1 X187.907 Y138.368 E28.20375
G1 X188.108 Y138.394 E28.21386
G1 X189.102 Y138.562 E28.26416
G1 X190.079 Y138.808 E28.31442
G1 X191.034 Y139.131 E28.36472
G1 X191.96 Y139.529 E28.415
G1 X192.852 Y139.999 E28.4653
G1 X193.703 Y140.538 E28.51556
G1 X194.509 Y141.142 E28.56581
G1 X195.265 Y141.809 E28.61611
G1 X195.965 Y142.534 E28.66638
G1 X196.606 Y143.312 E28.71668
G1 X197.183 Y144.138 E28.76694
G1 X197.693 Y145.007 E28.81721
G1 X198.132 Y145.914 E28.86749
G1 X198.498 Y146.853 E28.91777
G1 X198.788 Y147.818 E28.96804
G1 X199.001 Y148.803 E29.01831
G1 X199.135 Y149.802 E29.0686
G1 X199.186 Y150.635 E29.11024
G1 X199.195 Y150.956 E29.12626
G1 X199.2 Y151.312 E29.14402
G1 X199.199 Y160.403 E29.59757
G1 X199.19 Y161.13 E29.63385
G1 X199.138 Y162.137 E29.68415
G1 X199.006 Y163.136 E29.73443
G1 X198.795 Y164.121 E29.78468
G1 X198.506 Y165.087 E29.83499
G1 X198.142 Y166.027 E29.88528
G1 X197.705 Y166.934 E29.93551
G1 X197.197 Y167.805 E29.98581
G1 X196.622 Y168.632 E30.03606
G1 X195.982 Y169.411 E30.08636
G1 X195.283 Y170.137 E30.13664
G1 X194.529 Y170.806 E30.18693
G1 X193.724 Y171.412 E30.2372
G1 X192.874 Y171.953 E30.28747
G1 X191.983 Y172.424 E30.33775
G1 X191.058 Y172.824 E30.38803
G1 X190.104 Y173.148 E30.43829
G1 X189.127 Y173.396 E30.48858
G1 X188.134 Y173.566 E30.53884
G1 X186.847 Y173.668 E30.60325
G1 X186.526 Y173.677 E30.61927
G1 X186.17 Y173.682 E30.63704
G1 X133.526 Y173.681 E33.26346
G1 X132.825 Y173.671 E33.29843
G1 X131.819 Y173.616 E33.3487
G1 X130.678 Y173.457 E33.40617
G1 X129.906 Y173.312 E33.44536
G1 X128.442 Y173.019 E33.51985
G1 X126.017 Y172.604 E33.64259
G1 X123.577 Y172.256 E33.76556
G1 X121.13 Y171.979 E33.88842
G1 X118.656 Y171.769 E34.01229
G1 X116.182 Y171.629 E34.13591
G1 X113.728 Y171.56 E34.25839
G1 X111.265 Y171.56 E34.38127
G1 X108.795 Y171.631 E34.50455
G1 X106.301 Y171.772 E34.62918
G1 X103.857 Y171.98 E34.75155
G1 X101.428 Y172.257 E34.87352
G1 X98.95 Y172.61 E34.99839
G1 X96.511 Y173.028 E35.12185
G1 X95.168 Y173.288 E35.1901
G1 X94.497 Y173.423 E35.22424
G1 X93.502 Y173.583 E35.27452
G1 X92.347 Y173.668 E35.3323
G1 X92.027 Y173.677 E35.34827
G1 X91.67 Y173.682 E35.36609
G1 X39.043 Y173.681 E37.99166
G1 X38.345 Y173.672 E38.02648
G1 X37.339 Y173.619 E38.07674
G1 X36.34 Y173.486 E38.12702
G1 X35.355 Y173.275 E38.17728
G1 X34.389 Y172.986 E38.22758
G1 X33.449 Y172.622 E38.27787
G1 X32.542 Y172.184 E38.32813
G1 X31.672 Y171.675 E38.37841
G1 X30.845 Y171.1 E38.42866
G1 X30.066 Y170.46 E38.47896
G1 X29.34 Y169.761 E38.52924
G1 X28.672 Y169.006 E38.57954
G1 X28.066 Y168.201 E38.62981
G1 X27.526 Y167.35 E38.68009
G1 X27.055 Y166.459 E38.73037
G1 X26.656 Y165.534 E38.78063
G1 X26.332 Y164.579 E38.83094
G1 X26.084 Y163.603 E38.88118
G1 X25.915 Y162.609 E38.93148
G1 X25.814 Y161.316 E38.99619
G1 X25.805 Y160.983 E39.01281
G1 X25.8 Y160.64 E39.02992
G1 X25.801 Y151.465 E39.48766
G1 X25.811 Y150.801 E39.5208
G1 X25.867 Y149.794 E39.57111
G1 X26.001 Y148.796 E39.62135
G1 X26.215 Y147.811 E39.67164
G1 X26.506 Y146.846 E39.72192
G1 X26.872 Y145.907 E39.7722
G1 X27.312 Y145.001 E39.82245
G1 X27.822 Y144.132 E39.87272
G1 X28.4 Y143.306 E39.92302
G1 X29.041 Y142.528 E39.97331
G1 X29.742 Y141.804 E40.02359
G1 X30.498 Y141.138 E40.07385
G1 X31.305 Y140.534 E40.12414
G1 X32.157 Y139.995 E40.17444
G1 X33.049 Y139.526 E40.22472
G1 X33.975 Y139.129 E40.27498
G1 X34.93 Y138.807 E40.32526
G1 X35.907 Y138.562 E40.37552
G0 F6000 X35.462 Y139.282
G1 F1200 X36.784 Y139.016 E40.44279
G1 X38.003 Y138.841 E40.50423
G1 X38.633 Y138.759 E40.53593
G1 X41.103 Y138.367 E40.6607
G1 X43.522 Y137.913 E40.78349
G1 X45.993 Y137.377 E40.90964
G1 X48.334 Y136.799 E41.02994
G1 X50.793 Y136.117 E41.15725
G1 X53.155 Y135.389 E41.28056
G1 X55.506 Y134.592 E41.40441
G1 X57.816 Y133.735 E41.52733
G1 X60.161 Y132.789 E41.65348
G1 X62.407 Y131.807 E41.77578
G1 X64.673 Y130.74 E41.90074
G1 X66.882 Y129.622 E42.02425
G1 X69.078 Y128.432 E42.14886
G1 X71.225 Y127.188 E42.27266
G1 X73.328 Y125.891 E42.39593
G1 X75.243 Y124.632 E42.51027
G1 X75.713 Y124.339 E42.5379
G1 X75.836 Y124.266 E42.54503
G1 X76.702 Y123.798 E42.59414
G1 X77.603 Y123.403 E42.64323
G1 X78.533 Y123.082 E42.69231
G1 X79.485 Y122.838 E42.74134
G1 X80.455 Y122.672 E42.79044
G1 X81.67 Y122.576 E42.85124
G1 X81.988 Y122.567 E42.86711
G1 X82.33 Y122.562 E42.88418
G1 X142.293 Y122.562 E45.87574
G1 X143.169 Y122.573 E45.91945
G1 X144.151 Y122.627 E45.96852
G1 X145.126 Y122.761 E46.01762
G1 X146.086 Y122.973 E46.06667
G1 X147.026 Y123.263 E46.11574
G1 X147.94 Y123.628 E46.16485
G1 X148.82 Y124.065 E46.21386
G1 X149.629 Y124.551 E46.26095
G1 X150.721 Y125.266 E46.32607
G1 X152.849 Y126.618 E46.45185
G1 X155.009 Y127.905 E46.57729
G1 X157.164 Y129.109 E46.70045
G1 X159.378 Y130.263 E46.82501
G1 X161.618 Y131.353 E46.94929
G1 X163.854 Y132.363 E47.0717
G1 X166.198 Y133.344 E47.19847
G1 X168.495 Y134.23 E47.3213
G1 X170.851 Y135.06 E47.44592
G1 X173.178 Y135.808 E47.56786
G1 X175.589 Y136.51 E47.69314
G1 X177.99 Y137.134 E47.81691
G1 X180.421 Y137.694 E47.94137
G1 X182.891 Y138.192 E48.06708
G1 X185.292 Y138.602 E48.1886
G1 X187.882 Y138.971 E48.31912
G1 X188.032 Y138.99 E48.32666
G1 X189.002 Y139.154 E48.37574
G1 X189.955 Y139.397 E48.42481
G1 X190.885 Y139.717 E48.47388
G1 X191.786 Y140.111 E48.52294
G1 X192.653 Y140.577 E48.57204
G1 X193.478 Y141.112 E48.6211
G1 X194.258 Y141.712 E48.67019
G1 X194.986 Y142.374 E48.71929
G1 X195.657 Y143.092 E48.76832
G1 X196.269 Y143.863 E48.81743
G1 X196.815 Y144.681 E48.86649
G1 X197.294 Y145.54 E48.91556
G1 X197.701 Y146.436 E48.96466
G1 X198.034 Y147.361 E49.0137
G1 X198.29 Y148.311 E49.06279
G1 X198.469 Y149.278 E49.11185
G1 X198.586 Y150.652 E49.18065
G1 X198.595 Y150.973 E49.19667
G1 X198.6 Y151.312 E49.21359
G1 X198.599 Y160.396 E49.66679
G1 X198.59 Y161.123 E49.70306
G1 X198.538 Y162.105 E49.75212
G1 X198.406 Y163.08 E49.80121
G1 X198.196 Y164.041 E49.85029
G1 X197.908 Y164.981 E49.89934
G1 X197.544 Y165.895 E49.94842
G1 X197.108 Y166.777 E49.9975
G1 X196.602 Y167.62 E50.04656
G1 X196.028 Y168.42 E50.09568
G1 X195.392 Y169.17 E50.14474
G1 X194.697 Y169.866 E50.19381
G1 X193.947 Y170.503 E50.2429
G1 X193.148 Y171.077 E50.29198
G1 X192.306 Y171.584 E50.34102
G1 X191.425 Y172.021 E50.39008
G1 X190.511 Y172.386 E50.43918
G1 X189.571 Y172.675 E50.48825
G1 X188.61 Y172.886 E50.53733
G1 X187.635 Y173.019 E50.58643
G1 X186.83 Y173.068 E50.62666
G1 X186.509 Y173.077 E50.64268
G1 X186.17 Y173.082 E50.6596
G1 X133.534 Y173.081 E53.28562
G1 X132.833 Y173.071 E53.3206
G1 X131.851 Y173.017 E53.36966
G1 X130.788 Y172.867 E53.42322
G1 X130.024 Y172.723 E53.46201
G1 X128.591 Y172.436 E53.53492
G1 X126.092 Y172.009 E53.6614
G1 X123.66 Y171.662 E53.78397
G1 X121.182 Y171.381 E53.90839
G1 X118.702 Y171.17 E54.03256
G1 X116.198 Y171.029 E54.15768
G1 X113.745 Y170.96 E54.28011
G1 X111.247 Y170.96 E54.40474
G1 X108.78 Y171.031 E54.52787
G1 X106.252 Y171.174 E54.65419
G1 X103.808 Y171.382 E54.77656
G1 X101.345 Y171.662 E54.90024
G1 X98.874 Y172.015 E55.02477
G1 X96.387 Y172.441 E55.15065
G1 X95.053 Y172.699 E55.21844
G1 X94.378 Y172.835 E55.25279
G1 X93.407 Y172.99 E55.30185
G1 X92.33 Y173.068 E55.35572
G1 X92.01 Y173.077 E55.37169
G1 X91.67 Y173.082 E55.38865
G1 X39.051 Y173.081 E58.01383
G1 X38.353 Y173.072 E58.04865
G1 X37.371 Y173.019 E58.09772
G1 X36.396 Y172.887 E58.1468
G1 X35.435 Y172.676 E58.19589
G1 X34.495 Y172.388 E58.24494
G1 X33.581 Y172.024 E58.29402
G1 X32.699 Y171.587 E58.34313
G1 X31.857 Y171.08 E58.39216
G1 X31.058 Y170.506 E58.44125
G1 X30.308 Y169.87 E58.49031
G1 X29.612 Y169.174 E58.53941
G1 X28.975 Y168.424 E58.58851
G1 X28.402 Y167.625 E58.63756
G1 X27.895 Y166.782 E58.68664
G1 X27.458 Y165.901 E58.7357
G1 X27.094 Y164.987 E58.78478
G1 X26.806 Y164.047 E58.83383
G1 X26.595 Y163.086 E58.88292
G1 X26.463 Y162.111 E58.932
G1 X26.413 Y161.3 E58.97254
G1 X26.404 Y160.967 E58.98916
G1 X26.4 Y160.64 E59.00548
G1 X26.401 Y151.474 E59.46277
G1 X26.411 Y150.81 E59.4959
G1 X26.466 Y149.828 E59.54497
G1 X26.601 Y148.853 E59.59408
G1 X26.814 Y147.893 E59.64314
G1 X27.104 Y146.953 E59.69221
G1 X27.47 Y146.04 E59.74129
G1 X27.908 Y145.16 E59.79033
G1 X28.417 Y144.318 E59.83942
G1 X28.993 Y143.52 E59.88852
G1 X29.631 Y142.772 E59.93756
G1 X30.328 Y142.077 E59.98667
G1 X31.079 Y141.442 E60.03574
G1 X31.88 Y140.87 E60.08484
G1 X32.724 Y140.365 E60.13391
G1 X33.606 Y139.93 E60.18298
G1 X34.521 Y139.569 E60.23205
G1 X35.462 Y139.282 E60.28113
G0 F6000 X35.987 Y139.772
G1 F1200 X36.87 Y139.61 E60.32592
G1 X38.081 Y139.436 E60.38696
G1 X38.73 Y139.352 E60.41961
G1 X41.204 Y138.959 E60.54458
G1 X43.649 Y138.5 E60.66869
G1 X46.093 Y137.97 E60.79346
