;FLAVOR:Marlin
;TIME:32219
;Filament used: 22.3779m
;Layer height: 0.16
;MINX:25.2
;MINY:58.292
;MINZ:0.2
;MAXX:199.8
;MAXY:108.898
;MAXZ:57.96
;Generated with Creality Slicer 4.8.2-205
M140 S70
M105
M190 S70
M104 S220
M105
M109 S220
M82 ;absolute extrusion mode

G28 ;Home

G92 E0 ;Reset Extruder
G1 Z2.0 F3000 ;Move Z Axis up
G1 X10.1 Y20 Z0.28 F5000.0 ;Move to start position
G1 X10.1 Y200.0 Z0.28 F1500.0 E15 ;Draw the first line
G1 X10.4 Y200.0 Z0.28 F5000.0 ;Move to side a little
G1 X10.4 Y20 Z0.28 F1500.0 E30 ;Draw the second line
G92 E0 ;Reset Extruder
G1 Z2.0 F3000 ;Move Z Axis up

G92 E0
G92 E0
G1 F1500 E-6
;LAYER_COUNT:315
;LAYER:0
M107
G1 F300 Z0.4
G0 F6000 X33.405 Y73.325 Z0.4
;TYPE:SKIRT
G1 F300 Z0.2
G1 F1500 E0
G1 F1200 X34.372 Y72.967 E0.05144
G1 X35.364 Y72.684 E0.10291
G1 X36.375 Y72.479 E0.15437
G1 X37.369 Y72.356 E0.20434
G1 X37.754 Y72.323 E0.22362
G1 X40.311 Y72.067 E0.35183
G1 X42.757 Y71.75 E0.47488
G1 X45.158 Y71.371 E0.59615
G1 X47.568 Y70.92 E0.71847
G1 X49.942 Y70.406 E0.83966
G1 X52.351 Y69.813 E0.96343
G1 X54.707 Y69.161 E1.08539
G1 X57.036 Y68.445 E1.20695
G1 X59.408 Y67.642 E1.33189
G1 X61.664 Y66.807 E1.4519
G1 X63.936 Y65.891 E1.57412
G1 X66.224 Y64.893 E1.69865
G1 X68.412 Y63.865 E1.81926
G1 X70.589 Y62.764 E1.94097
G1 X72.785 Y61.576 E2.06554
G1 X74.947 Y60.325 E2.19015
G1 X75.208 Y60.17 E2.2053
G1 X76.114 Y59.678 E2.25673
G1 X77.056 Y59.257 E2.30821
G1 X78.027 Y58.911 E2.35964
G1 X79.023 Y58.641 E2.41112
G1 X80.036 Y58.449 E2.46256
G1 X81.574 Y58.31 E2.5396
G1 X81.884 Y58.3 E2.55508
G1 X82.313 Y58.293 E2.57648
G1 X142.292 Y58.292 E5.56885
G1 X143.206 Y58.305 E5.61445
G1 X144.236 Y58.361 E5.66591
G1 X145.258 Y58.496 E5.71735
G1 X146.267 Y58.711 E5.76881
G1 X147.256 Y59.003 E5.82026
G1 X148.219 Y59.37 E5.87168
G1 X149.152 Y59.812 E5.92318
G1 X149.644 Y60.082 E5.95118
G1 X150.699 Y60.692 E6.01198
G1 X151.334 Y61.07 E6.04885
G1 X153.513 Y62.283 E6.17327
G1 X155.66 Y63.4 E6.29401
G1 X157.849 Y64.461 E6.41538
G1 X160.132 Y65.488 E6.54027
G1 X162.378 Y66.425 E6.66168
G1 X164.671 Y67.306 E6.78423
G1 X166.99 Y68.12 E6.90685
G1 X169.291 Y68.857 E7.02739
G1 X171.657 Y69.541 E7.15027
G1 X174.037 Y70.157 E7.27292
G1 X176.452 Y70.711 E7.39653
G1 X178.868 Y71.194 E7.51945
G1 X181.233 Y71.594 E7.63912
G1 X183.671 Y71.939 E7.76196
G1 X186.131 Y72.216 E7.88547
G1 X186.924 Y72.284 E7.92517
G1 X187.814 Y72.373 E7.9698
G1 X188.836 Y72.515 E8.02128
G1 X189.843 Y72.736 E8.07271
G1 X190.83 Y73.035 E8.12416
G1 X191.791 Y73.409 E8.17561
G1 X192.721 Y73.856 E8.22709
G1 X193.612 Y74.374 E8.27851
G1 X194.461 Y74.96 E8.32997
G1 X195.262 Y75.609 E8.38141
G1 X196.011 Y76.319 E8.4329
G1 X196.702 Y77.085 E8.48436
G1 X197.331 Y77.901 E8.53576
G1 X197.896 Y78.765 E8.58727
G1 X198.392 Y79.669 E8.63871
G1 X198.816 Y80.609 E8.69016
G1 X199.166 Y81.579 E8.74161
G1 X199.44 Y82.573 E8.79305
G1 X199.636 Y83.586 E8.84452
G1 X199.754 Y84.61 E8.89595
G1 X199.786 Y85.234 E8.92712
G1 X199.795 Y85.555 E8.94314
G1 X199.8 Y85.928 E8.96175
G1 X199.799 Y95.027 E9.4157
G1 X199.79 Y95.754 E9.45198
G1 X199.737 Y96.784 E9.50343
G1 X199.605 Y97.806 E9.55484
G1 X199.394 Y98.816 E9.60632
G1 X199.105 Y99.806 E9.65777
G1 X198.74 Y100.771 E9.70924
G1 X198.302 Y101.704 E9.76067
G1 X197.793 Y102.601 E9.81212
G1 X197.215 Y103.455 E9.86357
G1 X196.573 Y104.263 E9.91506
G1 X195.871 Y105.018 E9.96649
G1 X195.112 Y105.716 E10.01793
G1 X194.302 Y106.354 E10.06937
G1 X193.444 Y106.927 E10.12085
G1 X192.545 Y107.431 E10.17227
G1 X191.609 Y107.865 E10.22374
G1 X190.642 Y108.225 E10.27522
G1 X189.651 Y108.508 E10.32664
G1 X188.64 Y108.714 E10.37811
G1 X187.617 Y108.841 E10.42954
G1 X186.864 Y108.884 E10.46717
G1 X186.543 Y108.893 E10.48319
G1 X186.17 Y108.898 E10.5018
G1 X133.517 Y108.896 E13.12867
G1 X132.815 Y108.886 E13.1637
G1 X131.785 Y108.831 E13.21516
G1 X130.578 Y108.664 E13.27595
G1 X129.8 Y108.518 E13.31544
G1 X128.354 Y108.228 E13.38902
G1 X125.904 Y107.809 E13.51302
G1 X123.49 Y107.466 E13.63467
G1 X121.02 Y107.187 E13.75868
G1 X118.621 Y106.983 E13.8788
G1 X116.163 Y106.845 E14.00162
G1 X113.697 Y106.776 E14.1247
G1 X111.267 Y106.776 E14.24593
G1 X108.771 Y106.848 E14.37051
G1 X106.383 Y106.984 E14.48984
G1 X103.914 Y107.195 E14.61347
G1 X101.457 Y107.475 E14.73684
G1 X99.055 Y107.817 E14.85789
G1 X96.57 Y108.244 E14.98368
G1 X95.29 Y108.492 E15.04873
G1 X94.594 Y108.631 E15.08414
G1 X93.576 Y108.794 E15.13557
G1 X92.364 Y108.884 E15.19621
G1 X92.045 Y108.893 E15.21213
G1 X91.67 Y108.898 E15.23084
G1 X39.036 Y108.897 E17.85676
G1 X38.338 Y108.888 E17.89159
G1 X37.308 Y108.835 E17.94304
G1 X36.285 Y108.702 E17.99451
G1 X35.276 Y108.49 E18.04595
G1 X34.286 Y108.201 E18.0974
G1 X33.321 Y107.835 E18.14889
G1 X32.388 Y107.397 E18.20031
G1 X31.491 Y106.887 E18.25179
G1 X30.637 Y106.309 E18.30324
G1 X29.83 Y105.667 E18.35469
G1 X29.075 Y104.964 E18.40615
G1 X28.377 Y104.205 E18.4576
G1 X27.74 Y103.394 E18.50905
G1 X27.168 Y102.536 E18.56049
G1 X26.663 Y101.637 E18.61194
G1 X26.23 Y100.701 E18.66339
G1 X25.871 Y99.734 E18.71485
G1 X25.588 Y98.742 E18.76632
G1 X25.383 Y97.732 E18.81773
G1 X25.256 Y96.708 E18.86921
G1 X25.214 Y95.948 E18.90719
G1 X25.205 Y95.615 E18.9238
G1 X25.2 Y95.256 E18.94172
G1 X25.201 Y86.092 E19.39891
G1 X25.21 Y85.427 E19.43209
G1 X25.264 Y84.397 E19.48355
G1 X25.398 Y83.374 E19.53502
G1 X25.61 Y82.365 E19.58646
G1 X25.9 Y81.376 E19.63788
G1 X26.266 Y80.411 E19.68937
G1 X26.705 Y79.478 E19.74081
G1 X27.216 Y78.582 E19.79227
G1 X27.794 Y77.728 E19.84372
G1 X28.437 Y76.922 E19.89516
G1 X29.14 Y76.167 E19.94663
G1 X29.899 Y75.47 E19.99804
G1 X30.711 Y74.833 E20.04953
G1 X31.569 Y74.261 E20.10097
G1 X32.469 Y73.758 E20.15241
G1 X33.405 Y73.325 E20.20386
G0 F6000 X33.956 Y73.751
G1 F1200 X34.91 Y73.428 E20.25411
G1 X35.887 Y73.181 E20.30439
G1 X36.881 Y73.012 E20.35469
G1 X37.421 Y72.954 E20.38179
G1 X37.792 Y72.922 E20.40037
G1 X40.377 Y72.663 E20.52998
G1 X42.823 Y72.346 E20.65303
G1 X45.286 Y71.958 E20.77742
G1 X47.667 Y71.512 E20.89828
G1 X50.109 Y70.983 E21.02294
G1 X52.476 Y70.401 E21.14454
G1 X54.864 Y69.74 E21.26816
G1 X57.258 Y69.004 E21.39312
G1 X59.566 Y68.223 E21.51468
G1 X61.885 Y67.364 E21.63805
G1 X64.19 Y66.435 E21.76204
G1 X66.466 Y65.442 E21.88593
G1 X68.67 Y64.406 E22.00743
G1 X70.892 Y63.283 E22.13164
G1 X73.047 Y62.117 E22.25388
G1 X75.283 Y60.824 E22.38274
G1 X75.514 Y60.686 E22.39617
G1 X76.4 Y60.206 E22.44644
G1 X77.322 Y59.797 E22.49676
G1 X78.273 Y59.463 E22.54705
G1 X79.247 Y59.206 E22.5973
G1 X80.239 Y59.026 E22.6476
G1 X81.594 Y58.91 E22.71545
G1 X81.904 Y58.9 E22.73092
G1 X82.313 Y58.893 E22.75133
G1 X142.292 Y58.892 E25.7437
G1 X143.197 Y58.905 E25.78885
G1 X144.203 Y58.96 E25.83912
G1 X145.201 Y59.095 E25.88936
G1 X146.186 Y59.309 E25.93965
G1 X147.151 Y59.601 E25.98995
G1 X148.09 Y59.968 E26.04025
G1 X149.344 Y60.602 E26.11035
G1 X150.393 Y61.208 E26.17079
G1 X151.034 Y61.589 E26.20799
G1 X153.227 Y62.81 E26.33322
G1 X155.376 Y63.928 E26.45407
G1 X157.639 Y65.025 E26.57954
G1 X159.865 Y66.027 E26.70133
G1 X162.155 Y66.982 E26.82511
G1 X164.467 Y67.871 E26.94869
G1 X166.787 Y68.684 E27.07134
G1 X169.152 Y69.442 E27.19524
G1 X171.477 Y70.114 E27.31598
G1 X173.898 Y70.741 E27.44075
G1 X176.312 Y71.295 E27.56432
G1 X178.754 Y71.783 E27.68856
G1 X181.153 Y72.189 E27.80995
G1 X183.625 Y72.538 E27.9345
G1 X186.052 Y72.811 E28.05635
G1 X186.865 Y72.881 E28.09706
G1 X187.755 Y72.97 E28.14168
G1 X188.753 Y73.11 E28.19196
G1 X189.736 Y73.329 E28.2422
G1 X190.7 Y73.625 E28.29251
G1 X191.637 Y73.996 E28.34279
G1 X192.541 Y74.441 E28.39306
G1 X193.407 Y74.956 E28.44333
G1 X194.23 Y75.537 E28.49359
G1 X195.004 Y76.183 E28.54389
G1 X195.725 Y76.887 E28.59416
G1 X196.387 Y77.647 E28.64444
G1 X196.987 Y78.457 E28.69473
G1 X197.521 Y79.311 E28.74498
G1 X197.985 Y80.206 E28.79528
G1 X198.377 Y81.134 E28.84554
G1 X198.695 Y82.091 E28.89585
G1 X198.935 Y83.069 E28.94609
G1 X199.097 Y84.064 E28.99639
G1 X199.186 Y85.251 E29.05577
G1 X199.195 Y85.572 E29.07179
G1 X199.2 Y85.928 E29.08956
G1 X199.199 Y95.019 E29.54311
G1 X199.19 Y95.746 E29.57938
G1 X199.138 Y96.753 E29.62969
G1 X199.006 Y97.752 E29.67996
G1 X198.795 Y98.737 E29.73022
G1 X198.506 Y99.703 E29.78052
G1 X198.142 Y100.643 E29.83081
G1 X197.705 Y101.55 E29.88104
G1 X197.197 Y102.421 E29.93134
G1 X196.622 Y103.248 E29.9816
G1 X195.982 Y104.027 E30.0319
G1 X195.283 Y104.753 E30.08218
G1 X194.529 Y105.422 E30.13246
G1 X193.724 Y106.028 E30.18273
G1 X192.874 Y106.569 E30.233
G1 X191.983 Y107.04 E30.28328
G1 X191.058 Y107.44 E30.33356
G1 X190.104 Y107.764 E30.38383
G1 X189.127 Y108.012 E30.43411
G1 X188.134 Y108.182 E30.48438
G1 X186.847 Y108.284 E30.54879
G1 X186.526 Y108.293 E30.56481
G1 X186.17 Y108.298 E30.58257
G1 X133.525 Y108.296 E33.20904
G1 X132.823 Y108.286 E33.24407
G1 X131.817 Y108.231 E33.29433
G1 X130.688 Y108.074 E33.3512
G1 X129.917 Y107.93 E33.39033
G1 X128.428 Y107.632 E33.46609
G1 X126.02 Y107.22 E33.58797
G1 X123.533 Y106.866 E33.7133
G1 X121.139 Y106.596 E33.83349
G1 X118.636 Y106.383 E33.95882
G1 X116.178 Y106.245 E34.08164
G1 X113.714 Y106.176 E34.20462
G1 X111.25 Y106.176 E34.32755
G1 X108.756 Y106.247 E34.45203
G1 X106.333 Y106.386 E34.57311
G1 X103.83 Y106.6 E34.69844
G1 X101.414 Y106.875 E34.81975
G1 X98.934 Y107.228 E34.94473
G1 X96.49 Y107.648 E35.06845
G1 X95.248 Y107.889 E35.13157
G1 X94.477 Y108.043 E35.17079
G1 X93.481 Y108.201 E35.2211
G1 X92.347 Y108.284 E35.27783
G1 X92.028 Y108.293 E35.29375
G1 X91.67 Y108.298 E35.31161
G1 X39.043 Y108.297 E37.93719
G1 X38.345 Y108.288 E37.97201
G1 X37.339 Y108.235 E38.02227
G1 X36.34 Y108.102 E38.07255
G1 X35.355 Y107.891 E38.12281
G1 X34.389 Y107.602 E38.17311
G1 X33.449 Y107.238 E38.2234
G1 X32.542 Y106.8 E38.27365
G1 X31.672 Y106.291 E38.32394
G1 X30.845 Y105.716 E38.37419
G1 X30.066 Y105.076 E38.42449
G1 X29.34 Y104.377 E38.47477
G1 X28.672 Y103.622 E38.52506
G1 X28.066 Y102.817 E38.57533
G1 X27.526 Y101.966 E38.62562
G1 X27.055 Y101.075 E38.6759
G1 X26.656 Y100.15 E38.72616
G1 X26.332 Y99.195 E38.77647
G1 X26.084 Y98.219 E38.82671
G1 X25.915 Y97.225 E38.87701
G1 X25.814 Y95.932 E38.94172
G1 X25.805 Y95.599 E38.95833
G1 X25.8 Y95.256 E38.97545
G1 X25.801 Y86.1 E39.43224
G1 X25.81 Y85.435 E39.46542
G1 X25.864 Y84.429 E39.51569
G1 X25.997 Y83.43 E39.56597
G1 X26.209 Y82.445 E39.61623
G1 X26.498 Y81.479 E39.66654
G1 X26.864 Y80.54 E39.71682
G1 X27.302 Y79.633 E39.76707
G1 X27.811 Y78.763 E39.81735
G1 X28.387 Y77.936 E39.86764
G1 X29.027 Y77.158 E39.9179
G1 X29.727 Y76.433 E39.96817
G1 X30.482 Y75.765 E40.01847
G1 X31.288 Y75.16 E40.06875
G1 X32.139 Y74.62 E40.11903
G1 X33.03 Y74.15 E40.16929
G1 X33.956 Y73.751 E40.21959
G0 F6000 X33.588 Y74.553
G1 F1200 X34.502 Y74.19 E40.26866
G1 X35.443 Y73.902 E40.31775
G1 X36.404 Y73.692 E40.36683
G1 X37.472 Y73.551 E40.42057
G1 X37.899 Y73.514 E40.44196
G1 X40.452 Y73.258 E40.56996
G1 X42.914 Y72.94 E40.69381
G1 X45.351 Y72.555 E40.81691
G1 X47.834 Y72.091 E40.94293
G1 X50.234 Y71.571 E41.06544
G1 X52.61 Y70.986 E41.18752
G1 X55.054 Y70.309 E41.31404
G1 X57.426 Y69.581 E41.43783
G1 X59.776 Y68.785 E41.56162
G1 X62.107 Y67.922 E41.68563
G1 X64.413 Y66.992 E41.80968
G1 X66.707 Y65.991 E41.93455
G1 X68.927 Y64.948 E42.05692
G1 X71.179 Y63.81 E42.1828
G1 X73.365 Y62.627 E42.30681
G1 X75.503 Y61.39 E42.43004
G1 X75.821 Y61.201 E42.44849
G1 X76.686 Y60.734 E42.49754
G1 X77.587 Y60.338 E42.54664
G1 X78.516 Y60.016 E42.59569
G1 X79.469 Y59.771 E42.64478
G1 X80.438 Y59.605 E42.69383
G1 X81.613 Y59.509 E42.75265
G1 X81.923 Y59.499 E42.76812
G1 X82.313 Y59.493 E42.78758
G1 X142.48 Y59.493 E45.78932
G1 X143.187 Y59.504 E45.8246
G1 X144.169 Y59.56 E45.87367
G1 X145.144 Y59.695 E45.92278
G1 X146.104 Y59.908 E45.97184
G1 X147.044 Y60.199 E46.02093
G1 X147.957 Y60.565 E46.07
G1 X149.045 Y61.122 E46.13098
G1 X150.086 Y61.723 E46.19095
G1 X150.771 Y62.13 E46.23071
G1 X152.913 Y63.323 E46.35303
G1 X155.119 Y64.47 E46.47707
G1 X157.384 Y65.569 E46.60267
G1 X159.628 Y66.579 E46.72544
G1 X161.931 Y67.539 E46.84992
G1 X164.271 Y68.439 E46.975
G1 X166.563 Y69.242 E47.09617
G1 X168.972 Y70.014 E47.22237
G1 X171.347 Y70.701 E47.34572
G1 X173.75 Y71.323 E47.46956
G1 X176.205 Y71.886 E47.59522
G1 X178.635 Y72.372 E47.71885
G1 X181.044 Y72.779 E47.84074
G1 X183.544 Y73.133 E47.96671
G1 X186.005 Y73.41 E48.09026
G1 X186.805 Y73.478 E48.13032
G1 X187.695 Y73.567 E48.17494
G1 X188.669 Y73.705 E48.22402
G1 X189.629 Y73.921 E48.27312
G1 X190.567 Y74.214 E48.32214
G1 X191.479 Y74.583 E48.37123
G1 X192.358 Y75.025 E48.42031
G1 X193.199 Y75.536 E48.46941
G1 X193.994 Y76.114 E48.51844
G1 X194.741 Y76.755 E48.56755
G1 X195.432 Y77.455 E48.61662
G1 X196.065 Y78.208 E48.6657
G1 X196.634 Y79.01 E48.71476
G1 X197.137 Y79.856 E48.76387
G1 X197.569 Y80.739 E48.81291
G1 X197.928 Y81.655 E48.86199
G1 X198.211 Y82.597 E48.91106
G1 X198.416 Y83.559 E48.96014
G1 X198.543 Y84.535 E49.00924
G1 X198.586 Y85.268 E49.04587
G1 X198.595 Y85.589 E49.06189
G1 X198.6 Y85.928 E49.07881
G1 X198.599 Y95.012 E49.53201
G1 X198.59 Y95.739 E49.56828
G1 X198.538 Y96.721 E49.61734
G1 X198.406 Y97.696 E49.66643
G1 X198.196 Y98.657 E49.71551
G1 X197.908 Y99.597 E49.76455
G1 X197.544 Y100.511 E49.81364
G1 X197.108 Y101.393 E49.86272
G1 X196.602 Y102.236 E49.91177
G1 X196.028 Y103.036 E49.9609
G1 X195.392 Y103.786 E50.00996
G1 X194.697 Y104.482 E50.05903
G1 X193.947 Y105.119 E50.10812
G1 X193.148 Y105.693 E50.1572
G1 X192.306 Y106.2 E50.20624
G1 X191.425 Y106.637 E50.2553
G1 X190.511 Y107.002 E50.3044
G1 X189.571 Y107.291 E50.35347
G1 X188.61 Y107.502 E50.40255
G1 X187.635 Y107.635 E50.45165
G1 X186.83 Y107.684 E50.49188
G1 X186.509 Y107.693 E50.5079
G1 X186.17 Y107.698 E50.52482
G1 X133.534 Y107.696 E53.15084
G1 X132.832 Y107.686 E53.18587
G1 X131.849 Y107.632 E53.23498
G1 X130.797 Y107.484 E53.28798
G1 X130.035 Y107.341 E53.32666
G1 X128.577 Y107.049 E53.40085
G1 X126.096 Y106.625 E53.52642
G1 X123.619 Y106.273 E53.65124
G1 X121.186 Y105.997 E53.7734
G1 X118.682 Y105.785 E53.89877
G1 X116.194 Y105.645 E54.0231
G1 X113.731 Y105.576 E54.14602
G1 X111.233 Y105.576 E54.27065
G1 X108.74 Y105.647 E54.39508
G1 X106.283 Y105.788 E54.51786
G1 X103.781 Y106.001 E54.64313
G1 X101.331 Y106.28 E54.76616
G1 X98.858 Y106.633 E54.89078
G1 X96.365 Y107.061 E55.01698
G1 X95.13 Y107.301 E55.07975
G1 X94.359 Y107.455 E55.11897
G1 X93.387 Y107.608 E55.16806
G1 X92.33 Y107.684 E55.22093
G1 X92.011 Y107.693 E55.23685
G1 X91.67 Y107.698 E55.25387
G1 X39.051 Y107.697 E57.87904
G1 X38.353 Y107.688 E57.91387
G1 X37.371 Y107.635 E57.96293
G1 X36.396 Y107.503 E58.01202
G1 X35.435 Y107.292 E58.0611
G1 X34.495 Y107.004 E58.11015
G1 X33.581 Y106.64 E58.15924
G1 X32.699 Y106.203 E58.20834
G1 X31.857 Y105.696 E58.25738
G1 X31.058 Y105.122 E58.30646
G1 X30.308 Y104.486 E58.35552
G1 X29.612 Y103.79 E58.40463
G1 X28.975 Y103.04 E58.45372
G1 X28.402 Y102.241 E58.50277
G1 X27.895 Y101.398 E58.55185
G1 X27.458 Y100.517 E58.60091
G1 X27.094 Y99.603 E58.65
G1 X26.806 Y98.663 E58.69905
G1 X26.595 Y97.702 E58.74813
G1 X26.463 Y96.727 E58.79722
G1 X26.413 Y95.916 E58.83776
G1 X26.404 Y95.583 E58.85438
G1 X26.4 Y95.256 E58.87069
G1 X26.401 Y86.108 E59.32709
G1 X26.41 Y85.443 E59.36027
G1 X26.463 Y84.461 E59.40933
G1 X26.596 Y83.486 E59.45842
G1 X26.808 Y82.526 E59.50747
G1 X27.097 Y81.585 E59.55658
G1 X27.461 Y80.672 E59.60562
G1 X27.899 Y79.791 E59.65471
G1 X28.406 Y78.948 E59.70378
G1 X28.98 Y78.149 E59.75287
G1 X29.618 Y77.4 E59.80195
G1 X30.314 Y76.705 E59.85102
G1 X31.064 Y76.069 E59.90008
G1 X31.863 Y75.495 E59.94917
G1 X32.706 Y74.989 E59.99822
G1 X33.588 Y74.553 E60.0473
G0 F6000 X34.142 Y74.968
G1 F1200 X35.044 Y74.642 E60.09515
G1 X35.969 Y74.391 E60.14297
G1 X36.913 Y74.218 E60.19085
G1 X37.524 Y74.149 E60.22153
G1 X37.937 Y74.113 E60.24221
G1 X40.519 Y73.855 E60.37167
G1 X43.015 Y73.532 E60.49723
G1 X45.451 Y73.147 E60.62027
G1 X47.927 Y72.684 E60.74594
G1 X50.359 Y72.157 E60.87009
G1 X52.808 Y71.554 E60.99592
G1 X55.189 Y70.895 E61.11918
G1 X57.605 Y70.153 E61.24527
G1 X60.009 Y69.339 E61.37189
G1 X62.299 Y68.491 E61.49372
G1 X64.655 Y67.542 E61.62044
G1 X66.949 Y66.541 E61.74531
G1 X69.213 Y65.477 E61.87012
