;FLAVOR:Marlin
;TIME:17841
;Filament used: 16.7412m
;Layer height: 0.16
;MINX:1.228
;MINY:2.788
;MINZ:0.2
;MAXX:209.287
;MAXY:210.858
;MAXZ:7.2
;Generated with Cura_SteamEngine 5.4.0
M140 S70
M105
M190 S70
M104 S215
M105
M109 S215
M82 ;absolute extrusion mode
M201 X500.00 Y500.00 Z100.00 E5000.00 ;Setup machine max acceleration
M203 X500.00 Y500.00 Z10.00 E50.00 ;Setup machine max feedrate
M204 P500.00 R1000.00 T500.00 ;Setup Print/Retract/Travel acceleration
M205 X8.00 Y8.00 Z0.40 E5.00 ;Setup Jerk
M220 S100 ;Reset Feedrate
M221 S100 ;Reset Flowrate

G28 ;Home

G92 E0 ;Reset Extruder
G1 Z2.0 F3000 ;Move Z Axis up
G1 X10.1 Y20 Z0.28 F5000.0 ;Move to start position
G1 X10.1 Y200.0 Z0.28 F1500.0 E15 ;Draw the first line
G1 X10.4 Y200.0 Z0.28 F5000.0 ;Move to side a little
G1 X10.4 Y20 Z0.28 F1500.0 E30 ;Draw the second line
G92 E0 ;Reset Extruder
G1 Z2.0 F3000 ;Move Z Axis up

G92 E0
G92 E0
G1 F1500 E-5
;LAYER_COUNT:41
;LAYER:0
M107
G0 F6000 X19.287 Y19.23 Z0.2
;TYPE:SKIRT
G1 F1500 E0
G1 F1200 X21.079 Y17.336 E0.13008
G1 X22.403 Y15.893 E0.22779
G1 X23.114 Y15.162 E0.27866
G1 X31.022 Y7.251 E0.83672
G1 X31.712 Y6.583 E0.88463
G1 X32.573 Y5.831 E0.94167
G1 X33.45 Y5.187 E0.99595
G1 X34.966 Y4.301 E1.08355
G1 X35.31 Y4.132 E1.10267
G1 X36.31 Y3.695 E1.15712
G1 X37.463 Y3.304 E1.21786
G1 X38.447 Y3.061 E1.26843
G1 X39.825 Y2.853 E1.33796
G1 X40.95 Y2.788 E1.39418
G1 X41.779 Y2.798 E1.43554
G1 X43.003 Y2.891 E1.49678
G1 X44.213 Y3.092 E1.55797
G1 X45.194 Y3.343 E1.60849
G1 X46.427 Y3.776 E1.67369
G1 X47.875 Y4.459 E1.75356
G1 X48.962 Y5.111 E1.8168
G1 X49.999 Y5.87 E1.88092
G1 X50.763 Y6.538 E1.93155
G1 X51.693 Y7.437 E1.99608
G1 X78.794 Y34.538 E3.9082
G1 X80.612 Y36.303 E4.03461
G1 X82.494 Y38.033 E4.16215
G1 X84.273 Y39.578 E4.2797
G1 X86.177 Y41.137 E4.40248
G1 X88.183 Y42.688 E4.52898
G1 X90.108 Y44.088 E4.64773
G1 X92.195 Y45.521 E4.77403
G1 X94.235 Y46.839 E4.8952
G1 X96.261 Y48.068 E5.01343
G1 X98.408 Y49.287 E5.1366
G1 X100.624 Y50.466 E5.26183
G1 X102.83 Y51.56 E5.38468
G1 X104.994 Y52.555 E5.50351
G1 X107.332 Y53.553 E5.63033
G1 X109.575 Y54.436 E5.75059
G1 X111.814 Y55.248 E5.86942
G1 X114.232 Y56.047 E5.99647
G1 X116.507 Y56.726 E6.11492
G1 X118.885 Y57.363 E6.23774
G1 X121.378 Y57.961 E6.36564
G1 X123.712 Y58.445 E6.48456
G1 X126.092 Y58.874 E6.60522
G1 X128.513 Y59.234 E6.72733
G1 X131.004 Y59.54 E6.85254
G1 X133.404 Y59.759 E6.97277
G1 X135.855 Y59.916 E7.0953
G1 X138.319 Y60.004 E7.21831
G1 X141.847 Y60.015 E7.39432
G1 X153.205 Y60.018 E7.96098
G1 X154.071 Y60.039 E8.0042
G1 X154.977 Y60.099 E8.04949
G1 X156.292 Y60.3 E8.11586
G1 X157.528 Y60.611 E8.17945
G1 X158.443 Y60.926 E8.22773
G1 X158.897 Y61.107 E8.25211
G1 X159.977 Y61.594 E8.31122
G1 X160.772 Y62.032 E8.3565
G1 X161.964 Y62.839 E8.42832
G1 X162.67 Y63.411 E8.47365
G1 X163.644 Y64.348 E8.54108
G1 X164.174 Y64.946 E8.58094
G1 X166.556 Y67.781 E8.76568
G1 X168.231 Y69.652 E8.89097
G1 X169.889 Y71.403 E9.01127
G1 X171.678 Y73.187 E9.13732
G1 X173.395 Y74.81 E9.25519
G1 X175.295 Y76.501 E9.38209
G1 X177.149 Y78.061 E9.50297
G1 X178.019 Y78.768 E9.5589
G1 X178.773 Y79.441 E9.60933
G1 X179.613 Y80.332 E9.67042
G1 X180.426 Y81.37 E9.7362
G1 X180.687 Y81.748 E9.75911
G1 X181.299 Y82.727 E9.81672
G1 X181.719 Y83.531 E9.86197
G1 X182.27 Y84.864 E9.93393
G1 X182.585 Y85.885 E9.98724
G1 X182.832 Y87.03 E10.04568
G1 X182.985 Y88.262 E10.10761
G1 X183.024 Y89.053 E10.14712
G1 X183.04 Y90.092 E10.19897
G1 X183.036 Y104.29 E10.90731
G1 X183.109 Y106.782 E11.03169
G1 X183.241 Y109.099 E11.14747
G1 X183.461 Y111.668 E11.27611
G1 X183.725 Y113.993 E11.39285
G1 X184.086 Y116.52 E11.5202
G1 X184.485 Y118.855 E11.63838
G1 X184.974 Y121.281 E11.76185
G1 X185.508 Y123.605 E11.88082
G1 X186.162 Y126.113 E12.01013
G1 X186.816 Y128.37 E12.12736
G1 X187.567 Y130.699 E12.24945
G1 X188.389 Y133.029 E12.37271
G1 X189.291 Y135.37 E12.49787
G1 X190.226 Y137.603 E12.61865
G1 X191.254 Y139.876 E12.74311
G1 X192.298 Y142.02 E12.86208
G1 X193.465 Y144.255 E12.98787
G1 X194.653 Y146.385 E13.10955
G1 X195.877 Y148.439 E13.22884
G1 X197.191 Y150.506 E13.35103
G1 X198.607 Y152.604 E13.47731
G1 X200.007 Y154.552 E13.597
G1 X201.463 Y156.464 E13.71689
G1 X203.066 Y158.453 E13.84434
G1 X204.635 Y160.288 E13.96479
G1 X205.849 Y161.647 E14.05571
G1 X206.571 Y162.541 E14.11304
G1 X207.224 Y163.514 E14.1715
G1 X207.768 Y164.496 E14.22751
G1 X207.969 Y164.908 E14.25038
G1 X208.335 Y165.738 E14.29563
G1 X208.799 Y167.113 E14.36803
G1 X209.063 Y168.247 E14.42612
G1 X209.211 Y169.25 E14.4767
G1 X209.287 Y170.544 E14.54137
G1 X209.271 Y171.355 E14.58184
G1 X209.245 Y171.812 E14.60468
G1 X209.115 Y173.017 E14.66514
G1 X208.848 Y174.32 E14.7315
G1 X208.556 Y175.408 E14.7877
G1 X207.894 Y177.998 E14.92107
G1 X207.379 Y180.293 E15.03842
G1 X206.895 Y182.758 E15.16375
G1 X206.49 Y185.183 E15.28641
G1 X206.01 Y188.78 E15.46745
G1 X205.806 Y189.887 E15.52361
G1 X205.46 Y191.126 E15.58779
G1 X205.047 Y192.214 E15.64585
G1 X204.611 Y193.128 E15.69637
G1 X204.022 Y194.135 E15.75457
G1 X203.245 Y195.221 E15.82119
G1 X202.574 Y196.005 E15.87268
G1 X202.01 Y196.597 E15.91347
G1 X195.193 Y203.406 E16.39416
G1 X194.529 Y204.046 E16.44017
G1 X193.767 Y204.714 E16.49073
G1 X192.739 Y205.47 E16.55439
G1 X191.683 Y206.103 E16.61582
G1 X190.633 Y206.61 E16.67399
G1 X189.69 Y206.974 E16.72442
G1 X188.446 Y207.333 E16.78901
G1 X187.237 Y207.56 E16.85038
G1 X185.894 Y207.735 E16.91795
G1 X183.257 Y208.107 E17.05082
G1 X180.934 Y208.505 E17.1684
G1 X178.52 Y208.987 E17.29121
G1 X176.101 Y209.541 E17.41502
G1 X172.543 Y210.461 E17.59837
G1 X171.656 Y210.652 E17.64364
G1 X170.224 Y210.829 E17.71562
G1 X169.085 Y210.858 E17.77247
G1 X167.764 Y210.772 E17.83851
G1 X167.202 Y210.703 E17.86676
G1 X166.308 Y210.551 E17.912
G1 X164.911 Y210.181 E17.9841
G1 X163.813 Y209.775 E18.04251
G1 X162.799 Y209.297 E18.09843
G1 X161.785 Y208.704 E18.15704
G1 X160.77 Y207.979 E18.21927
G1 X159.828 Y207.169 E18.28125
G1 X158.807 Y206.183 E18.35206
G1 X139.615 Y186.991 E19.70616
G1 X137.808 Y185.237 E19.8318
G1 X135.963 Y183.542 E19.95679
G1 X134.079 Y181.907 E20.08125
G1 X132.266 Y180.424 E20.1981
G1 X130.274 Y178.884 E20.32372
G1 X128.331 Y177.471 E20.44358
G1 X126.244 Y176.038 E20.56988
G1 X124.204 Y174.72 E20.69105
G1 X122.178 Y173.491 E20.80927
G1 X120.031 Y172.272 E20.93245
G1 X117.792 Y171.081 E21.05897
G1 X115.598 Y169.995 E21.18111
G1 X113.445 Y169.004 E21.29935
G1 X111.107 Y168.006 E21.42618
G1 X108.869 Y167.123 E21.54621
G1 X106.618 Y166.309 E21.66563
G1 X104.207 Y165.512 E21.79232
G1 X101.932 Y164.833 E21.91076
G1 X99.554 Y164.196 E22.03359
G1 X97.061 Y163.598 E22.16149
G1 X94.727 Y163.114 E22.28041
G1 X92.347 Y162.685 E22.40106
G1 X89.926 Y162.325 E22.52318
G1 X87.435 Y162.019 E22.64839
G1 X85.035 Y161.8 E22.76862
G1 X82.584 Y161.643 E22.89115
G1 X80.12 Y161.555 E23.01416
G1 X77.337 Y161.546 E23.153
G1 X65.405 Y161.546 E23.74829
G1 X64.433 Y161.53 E23.79679
G1 X63.272 Y161.452 E23.85485
G1 X62.374 Y161.319 E23.90014
G1 X60.97 Y160.979 E23.97221
G1 X59.908 Y160.614 E24.02823
G1 X58.843 Y160.142 E24.08635
G1 X58.339 Y159.886 E24.11455
G1 X57.416 Y159.359 E24.16758
G1 X56.45 Y158.692 E24.22615
G1 X55.473 Y157.878 E24.28959
G1 X54.826 Y157.241 E24.33489
G1 X54.292 Y156.642 E24.37492
G1 X52.077 Y154.006 E24.5467
G1 X50.431 Y152.157 E24.6702
G1 X48.706 Y150.327 E24.79567
G1 X47.039 Y148.654 E24.9135
G1 X45.214 Y146.925 E25.03892
G1 X43.419 Y145.316 E25.15918
G1 X41.381 Y143.592 E25.29236
G1 X40.447 Y142.825 E25.35266
G1 X39.608 Y142.06 E25.4093
G1 X38.635 Y140.997 E25.4812
G1 X38.384 Y140.682 E25.50129
G1 X37.725 Y139.783 E25.5569
G1 X37.142 Y138.826 E25.61281
G1 X36.559 Y137.636 E25.67892
G1 X36.039 Y136.232 E25.75362
G1 X35.687 Y134.863 E25.82414
G1 X35.497 Y133.685 E25.88367
G1 X35.417 Y132.539 E25.94098
G1 X35.401 Y131.482 E25.99372
G1 X35.397 Y117.459 E26.69333
G1 X35.322 Y114.893 E26.8214
G1 X35.186 Y112.526 E26.93969
G1 X34.969 Y110.009 E27.06573
G1 X34.694 Y107.594 E27.18699
G1 X34.345 Y105.168 E27.30927
G1 X33.925 Y102.726 E27.43289
G1 X33.454 Y100.407 E27.55095
G1 X32.893 Y97.967 E27.67586
G1 X32.271 Y95.593 E27.79829
G1 X31.588 Y93.248 E27.92015
G1 X30.85 Y90.964 E28.0399
G1 X30.011 Y88.594 E28.16533
G1 X29.112 Y86.269 E28.28969
G1 X28.204 Y84.103 E28.40687
G1 X27.162 Y81.798 E28.53307
G1 X26.118 Y79.657 E28.6519
G1 X24.95 Y77.422 E28.77772
G1 X23.762 Y75.301 E28.899
G1 X22.487 Y73.165 E29.02311
G1 X21.172 Y71.098 E29.14533
G1 X19.809 Y69.086 E29.26658
G1 X18.417 Y67.149 E29.38558
G1 X16.901 Y65.161 E29.51031
G1 X15.349 Y63.24 E29.63352
G1 X13.775 Y61.404 E29.75417
G1 X12.155 Y59.615 E29.87458
G1 X9.914 Y57.29 E30.03568
G1 X5.633 Y53.01 E30.3377
G1 X5.072 Y52.432 E30.37788
G1 X4.418 Y51.697 E30.42697
G1 X3.553 Y50.534 E30.49928
G1 X2.989 Y49.599 E30.55375
G1 X2.522 Y48.678 E30.60527
G1 X2.14 Y47.796 E30.65323
G1 X1.751 Y46.643 E30.71393
G1 X1.453 Y45.391 E30.77814
G1 X1.28 Y44.133 E30.84149
G1 X1.228 Y42.854 E30.90536
G1 X1.239 Y42.253 E30.93535
G1 X1.311 Y41.242 E30.98591
G1 X1.511 Y39.977 E31.04981
G1 X1.814 Y38.791 E31.11088
G1 X2.192 Y37.722 E31.16745
G1 X2.711 Y36.586 E31.22976
G1 X2.96 Y36.111 E31.25651
G1 X3.477 Y35.238 E31.30713
G1 X4.266 Y34.142 E31.37451
G1 X4.982 Y33.318 E31.42897
G1 X5.74 Y32.534 E31.48337
G1 X13.693 Y24.58 E32.04454
G1 X14.605 Y23.702 E32.10769
G1 X15.745 Y22.666 E32.18455
G1 X17.642 Y20.875 E32.3147
G1 X19.287 Y19.23 E32.43077
G0 F6000 X19.723 Y19.642
G1 F1200 X21.515 Y17.748 E32.56085
G1 X22.833 Y16.311 E32.65813
G1 X23.538 Y15.586 E32.70858
G1 X31.439 Y7.682 E33.26615
G1 X32.108 Y7.034 E33.31261
G1 X32.928 Y6.315 E33.36702
G1 X33.805 Y5.671 E33.42131
G1 X35.232 Y4.839 E33.50372
G1 X35.55 Y4.682 E33.52141
G1 X36.55 Y4.245 E33.57586
G1 X37.607 Y3.887 E33.63153
G1 X38.591 Y3.644 E33.6821
G1 X39.86 Y3.452 E33.74613
G1 X40.943 Y3.388 E33.80026
G1 X41.772 Y3.398 E33.84162
G1 X42.906 Y3.483 E33.89835
G1 X44.064 Y3.673 E33.9569
G1 X45.045 Y3.924 E34.00742
G1 X46.172 Y4.319 E34.067
G1 X47.566 Y4.974 E34.14384
G1 X48.653 Y5.626 E34.20708
G1 X49.604 Y6.322 E34.26587
G1 X50.368 Y6.99 E34.3165
G1 X51.276 Y7.868 E34.37952
G1 X78.376 Y34.968 E36.29157
G1 X80.206 Y36.745 E36.41883
G1 X82.088 Y38.475 E36.54636
G1 X83.893 Y40.042 E36.66562
G1 X85.81 Y41.612 E36.78924
G1 X87.816 Y43.163 E36.91574
G1 X89.768 Y44.583 E37.03617
G1 X91.855 Y46.016 E37.16247
G1 X93.909 Y47.343 E37.28447
G1 X95.965 Y48.59 E37.40444
G1 X98.126 Y49.817 E37.52842
G1 X100.357 Y51.004 E37.6545
G1 X102.563 Y52.098 E37.77735
G1 X104.758 Y53.107 E37.89787
G1 X107.096 Y54.105 E38.0247
G1 X109.361 Y54.997 E38.14614
G1 X111.626 Y55.818 E38.26634
G1 X114.051 Y56.619 E38.39375
G1 X116.352 Y57.306 E38.51356
G1 X118.745 Y57.947 E38.63715
G1 X121.238 Y58.544 E38.76505
G1 X123.594 Y59.033 E38.88509
G1 X125.996 Y59.466 E39.00686
G1 X128.44 Y59.83 E39.13014
G1 X130.942 Y60.137 E39.2559
G1 X133.349 Y60.357 E39.37649
G1 X135.831 Y60.516 E39.50057
G1 X138.298 Y60.604 E39.62372
G1 X141.845 Y60.615 E39.80069
G1 X153.191 Y60.618 E40.36674
G1 X154.031 Y60.638 E40.40866
G1 X154.937 Y60.698 E40.45396
G1 X156.146 Y60.882 E40.51497
G1 X157.333 Y61.179 E40.57602
G1 X158.222 Y61.484 E40.62291
G1 X158.651 Y61.654 E40.64593
G1 X159.687 Y62.12 E40.7026
G1 X160.482 Y62.558 E40.74789
G1 X161.586 Y63.305 E40.81439
G1 X162.292 Y63.877 E40.85972
G1 X163.195 Y64.746 E40.92224
G1 X163.715 Y65.332 E40.96133
G1 X166.109 Y68.181 E41.14699
G1 X167.795 Y70.064 E41.27308
G1 X169.465 Y71.828 E41.39427
G1 X171.254 Y73.612 E41.52032
G1 X172.996 Y75.258 E41.63989
G1 X174.897 Y76.95 E41.76686
G1 X176.771 Y78.527 E41.88905
G1 X177.619 Y79.216 E41.94356
G1 X178.373 Y79.889 E41.99398
G1 X179.141 Y80.702 E42.04978
G1 X179.933 Y81.712 E42.11381
G1 X180.179 Y82.067 E42.13536
G1 X180.767 Y83.005 E42.19059
G1 X181.187 Y83.809 E42.23585
G1 X181.697 Y85.042 E42.30242
G1 X181.998 Y86.012 E42.35309
G1 X182.245 Y87.157 E42.41153
G1 X182.386 Y88.292 E42.46859
G1 X182.424 Y89.062 E42.50705
G1 X182.44 Y90.092 E42.55844
G1 X182.436 Y104.308 E43.26768
G1 X182.509 Y106.8 E43.39206
G1 X182.643 Y109.15 E43.50949
G1 X182.863 Y111.719 E43.63813
G1 X183.131 Y114.078 E43.75658
G1 X183.492 Y116.605 E43.88393
G1 X183.897 Y118.974 E44.00384
G1 X184.389 Y121.415 E44.12807
G1 X184.927 Y123.756 E44.2479
G1 X185.581 Y126.264 E44.37721
G1 X186.245 Y128.554 E44.49617
G1 X187.001 Y130.899 E44.61909
G1 X187.829 Y133.245 E44.74321
G1 X188.731 Y135.586 E44.86837
G1 X189.679 Y137.85 E44.99082
G1 X190.707 Y140.123 E45.11528
G1 X191.766 Y142.298 E45.23597
G1 X192.933 Y144.533 E45.36176
G1 X194.129 Y146.677 E45.48424
G1 X195.371 Y148.761 E45.60528
G1 X196.694 Y150.842 E45.72831
G1 X198.111 Y152.941 E45.85465
G1 X199.53 Y154.916 E45.97598
G1 X200.996 Y156.841 E46.0967
G1 X202.601 Y158.832 E46.22429
G1 X204.188 Y160.688 E46.34612
G1 X205.382 Y162.024 E46.43551
G1 X206.104 Y162.918 E46.49284
G1 X206.699 Y163.805 E46.54613
G1 X207.243 Y164.787 E46.60214
G1 X207.42 Y165.15 E46.62229
G1 X207.786 Y165.98 E46.66754
G1 X208.215 Y167.25 E46.73442
G1 X208.469 Y168.335 E46.79001
G1 X208.617 Y169.338 E46.8406
G1 X208.687 Y170.533 E46.90032
G1 X208.672 Y171.321 E46.93964
G1 X208.648 Y171.749 E46.96102
G1 X208.527 Y172.897 E47.01861
G1 X208.26 Y174.2 E47.08497
G1 X207.977 Y175.252 E47.13932
G1 X207.313 Y177.849 E47.27306
G1 X206.79 Y180.177 E47.3921
G1 X206.306 Y182.642 E47.51742
G1 X205.898 Y185.084 E47.64094
G1 X205.415 Y188.701 E47.823
G1 X205.228 Y189.727 E47.87503
G1 X204.899 Y190.914 E47.93648
G1 X204.505 Y191.956 E47.99206
G1 X204.069 Y192.87 E48.04258
G1 X203.533 Y193.787 E48.09557
G1 X202.789 Y194.831 E48.15953
G1 X202.139 Y195.591 E48.20942
G1 X201.586 Y196.172 E48.24944
G1 X194.776 Y202.974 E48.72964
G1 X194.133 Y203.595 E48.77424
G1 X193.371 Y204.263 E48.82479
G1 X192.429 Y204.956 E48.88314
G1 X191.421 Y205.563 E48.94184
G1 X190.417 Y206.05 E48.99751
G1 X189.474 Y206.414 E49.04794
G1 X188.335 Y206.743 E49.10709
G1 X187.126 Y206.97 E49.16846
G1 X185.817 Y207.14 E49.23432
G1 X183.173 Y207.513 E49.36753
G1 X180.819 Y207.916 E49.48668
G1 X178.386 Y208.402 E49.61046
G1 X175.962 Y208.957 E49.73453
G1 X172.417 Y209.874 E49.91721
G1 X171.53 Y210.065 E49.96248
G1 X170.207 Y210.229 E50.02899
G1 X169.124 Y210.259 E50.08304
G1 X167.803 Y210.173 E50.14908
G1 X167.303 Y210.111 E50.17422
G1 X166.409 Y209.959 E50.21946
G1 X165.118 Y209.618 E50.28608
G1 X164.068 Y209.232 E50.34189
G1 X163.101 Y208.778 E50.39519
G1 X162.133 Y208.215 E50.45105
G1 X161.161 Y207.524 E50.51055
G1 X160.219 Y206.714 E50.57253
G1 X159.224 Y205.752 E50.64158
G1 X140.039 Y186.567 E51.99519
G1 X138.214 Y184.795 E52.1221
G1 X136.369 Y183.1 E52.24709
G1 X134.472 Y181.454 E52.37239
G1 X132.633 Y179.949 E52.49095
G1 X130.641 Y178.409 E52.61657
G1 X128.671 Y176.976 E52.7381
G1 X126.584 Y175.543 E52.8644
G1 X124.53 Y174.216 E52.9864
G1 X122.474 Y172.969 E53.10637
G1 X120.313 Y171.742 E53.23035
G1 X118.074 Y170.551 E53.35687
G1 X115.864 Y169.457 E53.4799
G1 X113.681 Y168.452 E53.5998
G1 X111.343 Y167.454 E53.72662
G1 X109.082 Y166.562 E53.84789
G1 X106.806 Y165.739 E53.96863
G1 X104.388 Y164.94 E54.09568
G1 X102.087 Y164.253 E54.21549
G1 X99.694 Y163.612 E54.33908
G1 X97.201 Y163.015 E54.46698
G1 X94.845 Y162.526 E54.58702
G1 X92.443 Y162.093 E54.70879
G1 X89.999 Y161.729 E54.83207
G1 X87.497 Y161.422 E54.95783
G1 X85.09 Y161.202 E55.07841
G1 X82.608 Y161.043 E55.2025
G1 X80.141 Y160.955 E55.32565
G1 X77.339 Y160.946 E55.46545
G1 X65.415 Y160.946 E56.06034
G1 X64.472 Y160.931 E56.10739
G1 X63.36 Y160.858 E56.16299
G1 X62.462 Y160.725 E56.20828
G1 X61.164 Y160.411 E56.2749
G1 X60.151 Y160.065 E56.32831
G1 X59.086 Y159.593 E56.38643
G1 X58.636 Y159.365 E56.41159
G1 X57.756 Y158.864 E56.46211
G1 X56.833 Y158.23 E56.51798
G1 X55.894 Y157.45 E56.57888
G1 X55.247 Y156.813 E56.62418
G1 X54.751 Y156.256 E56.66139
G1 X52.525 Y153.607 E56.83401
G1 X50.868 Y151.745 E56.95837
G1 X49.143 Y149.915 E57.08383
G1 X47.452 Y148.218 E57.20335
G1 X45.627 Y146.489 E57.32878
G1 X43.807 Y144.858 E57.4507
G1 X41.769 Y143.134 E57.58388
G1 X40.828 Y142.361 E57.64463
G1 X40.05 Y141.655 E57.69705
G1 X39.104 Y140.622 E57.76693
G1 X38.868 Y140.327 E57.78578
G1 X38.209 Y139.428 E57.84139
