;FLAVOR:Marlin
;TIME:12382
;Filament used: 12.5146m
;Layer height: 0.16
;MINX:1.228
;MINY:2.788
;MINZ:0.2
;MAXX:209.287
;MAXY:210.858
;MAXZ:7.24
;Generated with Cura_SteamEngine 5.4.0
M140 S70
M105
M190 S70
M104 S215
M105
M109 S215
M82 ;absolute extrusion mode
M201 X500.00 Y500.00 Z100.00 E5000.00 ;Setup machine max acceleration
M203 X500.00 Y500.00 Z10.00 E50.00 ;Setup machine max feedrate
M204 P500.00 R1000.00 T500.00 ;Setup Print/Retract/Travel acceleration
M205 X8.00 Y8.00 Z0.40 E5.00 ;Setup Jerk
M220 S100 ;Reset Feedrate
M221 S100 ;Reset Flowrate

G28 ;Home

G92 E0 ;Reset Extruder
G1 Z2.0 F3000 ;Move Z Axis up
G1 X10.1 Y20 Z0.28 F5000.0 ;Move to start position
G1 X10.1 Y200.0 Z0.28 F1500.0 E15 ;Draw the first line
G1 X10.4 Y200.0 Z0.28 F5000.0 ;Move to side a little
G1 X10.4 Y20 Z0.28 F1500.0 E30 ;Draw the second line
G92 E0 ;Reset Extruder
G1 Z2.0 F3000 ;Move Z Axis up

G92 E0
G92 E0
G1 F1500 E-5
;LAYER_COUNT:41
;LAYER:0
M107
G0 F6000 X19.287 Y19.23 Z0.2
;TYPE:SKIRT
G1 F1500 E0
G1 F1200 X21.079 Y17.336 E0.13008
G1 X22.403 Y15.893 E0.22779
G1 X23.114 Y15.162 E0.27866
G1 X31.022 Y7.251 E0.83672
G1 X31.712 Y6.583 E0.88463
G1 X32.573 Y5.831 E0.94167
G1 X33.45 Y5.187 E0.99595
G1 X34.966 Y4.301 E1.08355
G1 X35.31 Y4.132 E1.10267
G1 X36.31 Y3.695 E1.15712
G1 X37.463 Y3.304 E1.21786
G1 X38.447 Y3.061 E1.26843
G1 X39.825 Y2.853 E1.33796
G1 X40.95 Y2.788 E1.39418
G1 X41.779 Y2.798 E1.43554
G1 X43.003 Y2.891 E1.49678
G1 X44.213 Y3.092 E1.55797
G1 X45.194 Y3.343 E1.60849
G1 X46.427 Y3.776 E1.67369
G1 X47.875 Y4.459 E1.75356
G1 X48.962 Y5.111 E1.8168
G1 X49.999 Y5.87 E1.88092
G1 X50.763 Y6.538 E1.93155
G1 X51.755 Y7.498 E2.00042
G1 X204.899 Y160.643 E12.80559
G1 X205.513 Y161.282 E12.8498
G1 X206.274 Y162.153 E12.90751
G1 X206.815 Y162.882 E12.9528
G1 X207.549 Y164.078 E13.02281
G1 X207.962 Y164.887 E13.06812
G1 X208.329 Y165.717 E13.1134
G1 X208.791 Y167.076 E13.18501
G1 X209.007 Y167.958 E13.23031
G1 X209.224 Y169.39 E13.30257
G1 X209.287 Y170.527 E13.35938
G1 X209.271 Y171.352 E13.40055
G1 X209.245 Y171.81 E13.42344
G1 X209.115 Y173.016 E13.48395
G1 X208.848 Y174.32 E13.55036
G1 X208.556 Y175.408 E13.60656
G1 X207.894 Y177.998 E13.73993
G1 X207.379 Y180.293 E13.85728
G1 X206.895 Y182.758 E13.9826
G1 X206.49 Y185.183 E14.10526
G1 X206.01 Y188.78 E14.28631
G1 X205.806 Y189.887 E14.34247
G1 X205.46 Y191.126 E14.40665
G1 X205.047 Y192.214 E14.46471
G1 X204.611 Y193.128 E14.51523
G1 X204.022 Y194.135 E14.57343
G1 X203.245 Y195.221 E14.64005
G1 X202.568 Y196.011 E14.69196
G1 X202.004 Y196.603 E14.73275
G1 X195.193 Y203.406 E15.21302
G1 X194.529 Y204.046 E15.25903
G1 X193.767 Y204.714 E15.30959
G1 X192.739 Y205.47 E15.37325
G1 X191.683 Y206.103 E15.43467
G1 X190.633 Y206.61 E15.49285
G1 X189.69 Y206.974 E15.54327
G1 X188.446 Y207.333 E15.60787
G1 X187.237 Y207.56 E15.66924
G1 X185.894 Y207.735 E15.73681
G1 X183.257 Y208.107 E15.86967
G1 X180.934 Y208.505 E15.98726
G1 X178.52 Y208.987 E16.11007
G1 X176.101 Y209.541 E16.23388
G1 X172.543 Y210.461 E16.41723
G1 X171.656 Y210.652 E16.46249
G1 X170.224 Y210.829 E16.53448
G1 X169.085 Y210.858 E16.59132
G1 X167.764 Y210.772 E16.65737
G1 X167.202 Y210.703 E16.68562
G1 X166.308 Y210.551 E16.73086
G1 X164.911 Y210.181 E16.80296
G1 X163.813 Y209.775 E16.86136
G1 X162.799 Y209.297 E16.91729
G1 X161.785 Y208.704 E16.97589
G1 X160.77 Y207.979 E17.03812
G1 X159.829 Y207.17 E17.10004
G1 X158.768 Y206.145 E17.17364
G1 X5.732 Y53.109 E27.97115
G1 X5.024 Y52.378 E28.02192
G1 X4.24 Y51.482 E28.08132
G1 X3.67 Y50.71 E28.1292
G1 X2.96 Y49.554 E28.19688
G1 X2.601 Y48.85 E28.23631
G1 X2.068 Y47.608 E28.30373
G1 X1.765 Y46.696 E28.35168
G1 X1.453 Y45.39 E28.41867
G1 X1.28 Y44.132 E28.48202
G1 X1.228 Y42.854 E28.54583
G1 X1.239 Y42.253 E28.57582
G1 X1.311 Y41.242 E28.62639
G1 X1.511 Y39.977 E28.69029
G1 X1.814 Y38.791 E28.75136
G1 X2.192 Y37.722 E28.80792
G1 X2.711 Y36.586 E28.87023
G1 X2.96 Y36.111 E28.89699
G1 X3.477 Y35.238 E28.94761
G1 X4.266 Y34.142 E29.01498
G1 X4.982 Y33.318 E29.06945
G1 X5.74 Y32.534 E29.12385
G1 X13.693 Y24.58 E29.68501
G1 X14.605 Y23.702 E29.74817
G1 X15.745 Y22.666 E29.82502
G1 X17.642 Y20.875 E29.95518
G1 X19.287 Y19.23 E30.07125
G0 F6000 X19.723 Y19.642
G1 F1200 X21.515 Y17.748 E30.20133
G1 X22.833 Y16.311 E30.29861
G1 X23.538 Y15.586 E30.34906
G1 X31.439 Y7.682 E30.90663
G1 X32.108 Y7.034 E30.95309
G1 X32.928 Y6.315 E31.0075
G1 X33.805 Y5.671 E31.06178
G1 X35.232 Y4.839 E31.1442
G1 X35.55 Y4.682 E31.16189
G1 X36.55 Y4.245 E31.21633
G1 X37.607 Y3.887 E31.27201
G1 X38.591 Y3.644 E31.32258
G1 X39.86 Y3.452 E31.38661
G1 X40.943 Y3.388 E31.44073
G1 X41.772 Y3.398 E31.4821
G1 X42.906 Y3.483 E31.53883
G1 X44.064 Y3.673 E31.59738
G1 X45.045 Y3.924 E31.64789
G1 X46.172 Y4.319 E31.70747
G1 X47.566 Y4.974 E31.78432
G1 X48.653 Y5.626 E31.84755
G1 X49.604 Y6.322 E31.90635
G1 X50.368 Y6.99 E31.95698
G1 X51.331 Y7.922 E32.02384
G1 X204.467 Y161.059 E42.82845
G1 X205.062 Y161.677 E42.87125
G1 X205.792 Y162.511 E42.92654
G1 X206.333 Y163.24 E42.97183
G1 X207.015 Y164.351 E43.03687
G1 X207.413 Y165.13 E43.08052
G1 X207.78 Y165.96 E43.12579
G1 X208.208 Y167.219 E43.19213
G1 X208.424 Y168.101 E43.23744
G1 X208.625 Y169.424 E43.3042
G1 X208.687 Y170.516 E43.35877
G1 X208.672 Y171.318 E43.39879
G1 X208.648 Y171.747 E43.42022
G1 X208.527 Y172.896 E43.47786
G1 X208.26 Y174.2 E43.54427
G1 X207.977 Y175.252 E43.59862
G1 X207.313 Y177.849 E43.73235
G1 X206.79 Y180.177 E43.85139
G1 X206.306 Y182.642 E43.97672
G1 X205.898 Y185.084 E44.10024
G1 X205.415 Y188.701 E44.28229
G1 X205.228 Y189.727 E44.33433
G1 X204.899 Y190.914 E44.39578
G1 X204.505 Y191.956 E44.45136
G1 X204.069 Y192.87 E44.50188
G1 X203.533 Y193.787 E44.55487
G1 X202.789 Y194.831 E44.61883
G1 X202.133 Y195.597 E44.66914
G1 X201.58 Y196.178 E44.70916
G1 X194.776 Y202.974 E45.18894
G1 X194.133 Y203.595 E45.23353
G1 X193.371 Y204.263 E45.28409
G1 X192.429 Y204.956 E45.34243
G1 X191.421 Y205.563 E45.40114
G1 X190.417 Y206.05 E45.45681
G1 X189.474 Y206.414 E45.50724
G1 X188.335 Y206.743 E45.56639
G1 X187.126 Y206.97 E45.62776
G1 X185.817 Y207.14 E45.69361
G1 X183.173 Y207.513 E45.82683
G1 X180.819 Y207.916 E45.94598
G1 X178.386 Y208.402 E46.06976
G1 X175.962 Y208.957 E46.19382
G1 X172.417 Y209.874 E46.3765
G1 X171.53 Y210.065 E46.42177
G1 X170.207 Y210.229 E46.48828
G1 X169.124 Y210.259 E46.54233
G1 X167.803 Y210.173 E46.60838
G1 X167.303 Y210.111 E46.63351
G1 X166.409 Y209.959 E46.67876
G1 X165.118 Y209.618 E46.74537
G1 X164.068 Y209.232 E46.80119
G1 X163.101 Y208.778 E46.85448
G1 X162.133 Y208.215 E46.91035
G1 X161.161 Y207.524 E46.96985
G1 X160.22 Y206.715 E47.03176
G1 X159.192 Y205.721 E47.1031
G1 X6.163 Y52.691 E57.90016
G1 X5.475 Y51.982 E57.94945
G1 X4.722 Y51.124 E58.0064
G1 X4.181 Y50.395 E58.05169
G1 X3.495 Y49.281 E58.11696
G1 X3.136 Y48.577 E58.15639
G1 X2.637 Y47.417 E58.21939
G1 X2.349 Y46.557 E58.26463
G1 X2.037 Y45.251 E58.33162
G1 X1.88 Y44.108 E58.38918
G1 X1.828 Y42.83 E58.453
G1 X1.838 Y42.294 E58.47974
G1 X1.904 Y41.336 E58.52765
G1 X2.104 Y40.071 E58.59155
G1 X2.38 Y38.99 E58.64721
G1 X2.738 Y37.971 E58.70109
G1 X3.257 Y36.835 E58.7634
G1 X3.477 Y36.416 E58.78701
G1 X3.965 Y35.588 E58.83496
G1 X4.719 Y34.536 E58.89954
G1 X5.435 Y33.712 E58.954
G1 X6.164 Y32.958 E59.00632
G1 X14.109 Y25.012 E59.56692
G1 X15.009 Y24.146 E59.62923
G1 X16.149 Y23.11 E59.70608
G1 X18.054 Y21.311 E59.8368
G1 X19.723 Y19.642 E59.95456
G0 F6000 X20.159 Y20.054
G1 F1200 X21.951 Y18.16 E60.08464
G1 X23.263 Y16.729 E60.1815
G1 X23.962 Y16.01 E60.23153
G1 X31.857 Y8.113 E60.78864
G1 X32.504 Y7.485 E60.83362
G1 X33.324 Y6.766 E60.88803
G1 X34.108 Y6.189 E60.93659
G1 X35.498 Y5.377 E61.01691
G1 X35.816 Y5.22 E61.0346
G1 X36.743 Y4.813 E61.08511
G1 X37.751 Y4.47 E61.13823
G1 X38.735 Y4.227 E61.1888
G1 X39.896 Y4.051 E61.24738
G1 X40.936 Y3.988 E61.29936
G1 X41.765 Y3.998 E61.34073
G1 X42.81 Y4.075 E61.393
G1 X43.915 Y4.254 E61.44885
G1 X44.896 Y4.505 E61.49937
G1 X45.918 Y4.863 E61.55339
G1 X47.257 Y5.489 E61.62714
G1 X48.344 Y6.141 E61.69038
G1 X49.209 Y6.774 E61.74385
G1 X49.973 Y7.442 E61.79448
G1 X50.907 Y8.346 E61.85933
G1 X204.035 Y161.476 E72.66341
G1 X204.611 Y162.073 E72.7048
G1 X205.31 Y162.869 E72.75765
G1 X205.851 Y163.598 E72.80294
G1 X206.481 Y164.624 E72.86301
G1 X206.864 Y165.373 E72.90498
G1 X207.231 Y166.203 E72.95025
G1 X207.625 Y167.362 E73.01132
G1 X207.841 Y168.244 E73.05663
G1 X208.026 Y169.459 E73.11794
G1 X208.087 Y170.505 E73.17022
G1 X208.073 Y171.285 E73.20914
G1 X208.051 Y171.686 E73.22917
G1 X207.939 Y172.776 E73.28384
G1 X207.68 Y174.045 E73.34846
G1 X207.398 Y175.097 E73.40279
G1 X206.732 Y177.7 E73.53684
G1 X206.201 Y180.061 E73.65757
G1 X205.717 Y182.526 E73.7829
G1 X205.306 Y184.985 E73.90728
G1 X204.82 Y188.622 E74.09035
G1 X204.649 Y189.568 E74.13831
G1 X204.337 Y190.703 E74.19703
G1 X203.963 Y191.698 E74.25007
G1 X203.527 Y192.612 E74.30059
G1 X203.044 Y193.44 E74.34841
G1 X202.333 Y194.441 E74.40967
G1 X201.698 Y195.183 E74.45839
G1 X201.145 Y195.764 E74.49841
G1 X194.359 Y202.543 E74.97695
G1 X193.737 Y203.144 E75.0201
G1 X192.975 Y203.812 E75.07066
G1 X192.118 Y204.443 E75.12375
G1 X191.158 Y205.024 E75.17974
G1 X190.201 Y205.49 E75.23284
G1 X189.258 Y205.854 E75.28327
G1 X188.224 Y206.153 E75.33697
G1 X187.015 Y206.38 E75.39834
G1 X185.74 Y206.545 E75.46248
G1 X183.089 Y206.919 E75.59605
G1 X180.711 Y207.326 E75.71641
G1 X178.252 Y207.817 E75.84152
G1 X175.823 Y208.373 E75.96583
G1 X172.291 Y209.287 E76.14785
G1 X171.404 Y209.478 E76.19312
G1 X170.189 Y209.629 E76.2542
G1 X169.163 Y209.66 E76.30541
G1 X167.876 Y209.577 E76.36975
G1 X167.404 Y209.519 E76.39348
G1 X166.51 Y209.367 E76.43872
G1 X165.324 Y209.054 E76.49992
G1 X164.322 Y208.688 E76.55314
G1 X163.403 Y208.259 E76.60373
G1 X162.435 Y207.696 E76.6596
G1 X161.552 Y207.069 E76.71363
G1 X160.637 Y206.283 E76.77381
G1 X159.616 Y205.297 E76.84462
G1 X6.594 Y52.273 E87.64122
G1 X5.906 Y51.564 E87.69051
G1 X5.204 Y50.766 E87.74354
G1 X4.663 Y50.037 E87.78883
G1 X4.03 Y49.008 E87.8491
G1 X3.671 Y48.304 E87.88853
G1 X3.206 Y47.226 E87.9471
G1 X2.918 Y46.366 E87.99235
G1 X2.631 Y45.168 E88.05381
G1 X2.48 Y44.084 E88.10841
G1 X2.428 Y42.806 E88.17222
G1 X2.437 Y42.334 E88.19577
G1 X2.497 Y41.429 E88.24102
G1 X2.686 Y40.218 E88.30217
G1 X2.947 Y39.187 E88.35523
G1 X3.284 Y38.22 E88.40632
G1 X3.789 Y37.113 E88.46702
G1 X3.994 Y36.721 E88.48909
G1 X4.482 Y35.893 E88.53704
G1 X5.172 Y34.93 E88.59615
G1 X5.888 Y34.106 E88.65061
G1 X6.588 Y33.382 E88.70085
G1 X14.525 Y25.444 E89.26089
G1 X15.413 Y24.59 E89.32235
G1 X16.553 Y23.554 E89.3992
G1 X18.466 Y21.747 E89.53049
G1 X20.159 Y20.054 E89.64994
G0 F6000 X20.595 Y20.466
G1 F1200 X22.387 Y18.572 E89.78002
G1 X23.693 Y17.147 E89.87646
G1 X24.386 Y16.434 E89.92606
G1 X32.275 Y8.544 E90.48271
G1 X32.922 Y7.916 E90.52769
G1 X33.68 Y7.249 E90.57807
G1 X34.464 Y6.672 E90.62663
G1 X35.763 Y5.915 E90.70164
G1 X36.059 Y5.769 E90.71811
G1 X36.937 Y5.381 E90.766
G1 X37.895 Y5.053 E90.81652
G1 X38.879 Y4.81 E90.86708
G1 X39.933 Y4.65 E90.92027
G1 X40.929 Y4.588 E90.97006
G1 X41.758 Y4.598 E91.01142
G1 X42.715 Y4.667 E91.05929
G1 X43.768 Y4.836 E91.11249
G1 X44.699 Y5.072 E91.16041
G1 X45.664 Y5.407 E91.21137
G1 X47.003 Y6.033 E91.28512
G1 X47.991 Y6.626 E91.3426
G1 X48.814 Y7.226 E91.39342
G1 X49.578 Y7.894 E91.44405
G1 X50.483 Y8.77 E91.50689
G1 X203.604 Y161.893 E102.31047
G1 X204.161 Y162.469 E102.35045
G1 X204.828 Y163.227 E102.40082
G1 X205.369 Y163.956 E102.44611
G1 X205.947 Y164.897 E102.50121
G1 X206.315 Y165.616 E102.5415
G1 X206.682 Y166.446 E102.58678
G1 X207.042 Y167.505 E102.64258
G1 X207.258 Y168.387 E102.68788
G1 X207.427 Y169.495 E102.7438
G1 X207.487 Y170.495 E102.79378
G1 X207.474 Y171.253 E102.8316
G1 X207.454 Y171.626 E102.85024
G1 X207.351 Y172.656 E102.90188
G1 X207.092 Y173.925 E102.9665
G1 X206.819 Y174.941 E103.01899
G1 X206.151 Y177.551 E103.1534
G1 X205.612 Y179.945 E103.27582
G1 X205.128 Y182.41 E103.40115
G1 X204.714 Y184.886 E103.52639
G1 X204.229 Y188.517 E103.70915
G1 X204.07 Y189.41 E103.75441
G1 X203.775 Y190.493 E103.81041
G1 X203.421 Y191.44 E103.86085
G1 X202.985 Y192.354 E103.91137
G1 X202.526 Y193.137 E103.95665
G1 X201.877 Y194.051 E104.01257
G1 X201.263 Y194.769 E104.05971
G1 X200.71 Y195.35 E104.09972
G1 X193.942 Y202.112 E104.57703
G1 X193.341 Y202.693 E104.61874
G1 X192.579 Y203.361 E104.66929
G1 X191.806 Y203.93 E104.71718
G1 X190.894 Y204.485 E104.77044
G1 X189.985 Y204.93 E104.82093
G1 X189.042 Y205.294 E104.87136
G1 X188.113 Y205.563 E104.91962
G1 X186.904 Y205.79 E104.98099
G1 X185.663 Y205.95 E105.04341
G1 X183.005 Y206.325 E105.17733
G1 X180.596 Y206.737 E105.29927
G1 X178.118 Y207.232 E105.42534
G1 X175.684 Y207.789 E105.54991
G1 X172.165 Y208.7 E105.73126
G1 X171.278 Y208.891 E105.77653
G1 X170.169 Y209.029 E105.83228
G1 X169.202 Y209.061 E105.88055
G1 X167.915 Y208.978 E105.94489
G1 X167.505 Y208.927 E105.96551
G1 X166.611 Y208.775 E106.01075
G1 X165.529 Y208.49 E106.06657
G1 X164.576 Y208.144 E106.11715
G1 X163.657 Y207.715 E106.16775
G1 X162.781 Y207.206 E106.2183
G1 X161.943 Y206.614 E106.26948
G1 X161.028 Y205.828 E106.32966
G1 X160.04 Y204.873 E106.39822
G1 X7.024 Y51.855 E117.19439
G1 X6.356 Y51.167 E117.24224
G1 X5.686 Y50.408 E117.29275
G1 X5.145 Y49.679 E117.33804
G1 X4.565 Y48.735 E117.39331
G1 X4.206 Y48.031 E117.43274
G1 X3.775 Y47.035 E117.48688
G1 X3.487 Y46.175 E117.53213
G1 X3.225 Y45.084 E117.58811
G1 X3.08 Y44.06 E117.6397
G1 X3.028 Y42.782 E117.70352
G1 X3.036 Y42.374 E117.72388
G1 X3.096 Y41.469 E117.76913
G1 X3.268 Y40.364 E117.82492
G1 X3.514 Y39.383 E117.87538
G1 X3.83 Y38.469 E117.92362
G1 X4.335 Y37.362 E117.98433
G1 X4.511 Y37.026 E118.00325
G1 X4.999 Y36.198 E118.0512
G1 X5.625 Y35.324 E118.10484
G1 X6.341 Y34.5 E118.1593
G1 X7.012 Y33.806 E118.20746
G1 X14.941 Y25.876 E118.76693
G1 X15.816 Y25.034 E118.82751
G1 X16.965 Y23.99 E118.90496
G1 X18.878 Y22.183 E119.03625
G1 X20.595 Y20.466 E119.15739
G0 F6000 X21.031 Y20.878
G1 F1200 X22.823 Y18.984 E119.28748
G1 X24.123 Y17.565 E119.38349
G1 X24.81 Y16.858 E119.43267
G1 X32.693 Y8.974 E119.98889
G1 X33.319 Y8.366 E120.03243
G1 X34.038 Y7.731 E120.08029
G1 X34.767 Y7.19 E120.12558
G1 X36.029 Y6.453 E120.19849
G1 X36.302 Y6.318 E120.21369
G1 X37.18 Y5.93 E120.26158
G1 X38.039 Y5.636 E120.30687
G1 X39.023 Y5.393 E120.35744
G1 X39.971 Y5.249 E120.40528
G1 X40.922 Y5.188 E120.45282
G1 X41.716 Y5.197 E120.49244
G1 X42.621 Y5.26 E120.5377
G1 X43.621 Y5.418 E120.5882
G1 X44.552 Y5.654 E120.63612
G1 X45.466 Y5.973 E120.68442
G1 X46.695 Y6.548 E120.75211
G1 X47.639 Y7.112 E120.80697
G1 X48.419 Y7.678 E120.85505
G1 X49.183 Y8.346 E120.90569
G1 X50.059 Y9.194 E120.96651
G1 X203.173 Y162.31 E131.7696
G1 X203.711 Y162.866 E131.8082
G1 X204.346 Y163.585 E131.85606
G1 X204.887 Y164.314 E131.90135
G1 X205.413 Y165.171 E131.95152
G1 X205.766 Y165.859 E131.9901
G1 X206.133 Y166.689 E132.03537
G1 X206.459 Y167.648 E132.08591
G1 X206.675 Y168.53 E132.13121
G1 X206.828 Y169.532 E132.18178
G1 X206.887 Y170.485 E132.22941
G1 X206.875 Y171.222 E132.26619
G1 X206.857 Y171.568 E132.28347
G1 X206.763 Y172.536 E132.332
G1 X206.504 Y173.805 E132.39661
G1 X206.24 Y174.785 E132.44725
G1 X205.57 Y177.402 E132.58202
G1 X205.023 Y179.829 E132.70614
G1 X204.539 Y182.294 E132.83147
G1 X204.122 Y184.787 E132.95757
G1 X203.638 Y188.412 E133.14003
G1 X203.479 Y189.305 E133.18528
G1 X203.213 Y190.284 E133.2359
G1 X202.879 Y191.183 E133.28374
G1 X202.467 Y192.051 E133.33168
G1 X202.008 Y192.834 E133.37696
G1 X201.421 Y193.661 E133.42755
G1 X200.807 Y194.379 E133.47469
G1 X200.286 Y194.926 E133.51238
G1 X193.525 Y201.681 E133.98919
G1 X192.944 Y202.243 E134.02952
G1 X192.223 Y202.878 E134.07745
G1 X191.45 Y203.447 E134.12534
G1 X190.629 Y203.947 E134.17329
G1 X189.768 Y204.371 E134.22118
G1 X188.873 Y204.718 E134.26907
G1 X188.002 Y204.973 E134.31434
G1 X186.793 Y205.2 E134.37572
G1 X185.579 Y205.356 E134.43678
G1 X182.921 Y205.731 E134.5707
G1 X180.481 Y206.148 E134.6942
G1 X177.984 Y206.647 E134.82124
G1 X175.545 Y207.205 E134.94606
G1 X172.039 Y208.113 E135.12675
G1 X171.152 Y208.304 E135.17202
