;FLAVOR:Marlin
;TIME:1985
;Filament used: 1.77753m
;Layer height: 0.16
;MINX:82.57
;MINY:82.568
;MINZ:0.2
;MAXX:137.428
;MAXY:137.44
;MAXZ:11.96
;Generated with Cura_SteamEngine 5.2.1
M140 S70
M105
M190 S70
M104 S215
M105
M109 S215
M82 ;absolute extrusion mode
M201 X500.00 Y500.00 Z100.00 E5000.00 ;Setup machine max acceleration
M203 X500.00 Y500.00 Z10.00 E50.00 ;Setup machine max feedrate
M204 P500.00 R1000.00 T500.00 ;Setup Print/Retract/Travel acceleration
M205 X8.00 Y8.00 Z0.40 E5.00 ;Setup Jerk
M220 S100 ;Reset Feedrate
M221 S100 ;Reset Flowrate

G28 ;Home

G92 E0 ;Reset Extruder
G1 Z2.0 F3000 ;Move Z Axis up
G1 X10.1 Y20 Z0.28 F5000.0 ;Move to start position
G1 X10.1 Y200.0 Z0.28 F1500.0 E15 ;Draw the first line
G1 X10.4 Y200.0 Z0.28 F5000.0 ;Move to side a little
G1 X10.4 Y20 Z0.28 F1500.0 E30 ;Draw the second line
G92 E0 ;Reset Extruder
G1 Z2.0 F3000 ;Move Z Axis up

G92 E0
G92 E0
G1 F1500 E-6
;LAYER_COUNT:70
;LAYER:0
M107
G0 F6000 X90.639 Y90.571 Z0.2
;TYPE:SKIRT
G1 F1500 E0
G1 F1200 X91.249 Y89.977 E0.04248
G1 X91.677 Y89.578 E0.07167
G1 X91.972 Y89.315 E0.09139
G1 X92.515 Y88.857 E0.12683
G1 X93.15 Y88.349 E0.1674
G1 X93.64 Y87.976 E0.19812
G1 X94.207 Y87.564 E0.23309
G1 X94.738 Y87.197 E0.26529
G1 X95.474 Y86.722 E0.30899
G1 X96.153 Y86.312 E0.34857
G1 X96.518 Y86.102 E0.36958
G1 X97.189 Y85.741 E0.40759
G1 X98.176 Y85.246 E0.46268
G1 X99.079 Y84.835 E0.51217
G1 X99.84 Y84.522 E0.55323
G1 X100.395 Y84.308 E0.5829
G1 X101.209 Y84.015 E0.62606
G1 X102.099 Y83.729 E0.6727
G1 X102.772 Y83.539 E0.70759
G1 X103.33 Y83.395 E0.73634
G1 X104.3 Y83.166 E0.78607
G1 X105.081 Y83.006 E0.82584
G1 X105.885 Y82.872 E0.8665
G1 X106.376 Y82.801 E0.89125
G1 X107.004 Y82.725 E0.92281
G1 X107.679 Y82.66 E0.95665
G1 X108.357 Y82.612 E0.99056
G1 X109.091 Y82.579 E1.02721
G1 X109.898 Y82.568 E1.06748
G1 X110.976 Y82.585 E1.12127
G1 X111.769 Y82.618 E1.16086
G1 X112.386 Y82.666 E1.19174
G1 X113.113 Y82.74 E1.2282
G1 X113.822 Y82.832 E1.26387
G1 X114.64 Y82.96 E1.30517
G1 X115.364 Y83.091 E1.34188
G1 X116.014 Y83.233 E1.37507
G1 X117.061 Y83.49 E1.42886
G1 X117.818 Y83.697 E1.46801
G1 X118.361 Y83.866 E1.49638
G1 X119.052 Y84.097 E1.53273
G1 X119.617 Y84.301 E1.5627
G1 X120.149 Y84.506 E1.59115
G1 X120.711 Y84.737 E1.62146
G1 X121.144 Y84.927 E1.64505
G1 X121.73 Y85.201 E1.67732
G1 X122.517 Y85.593 E1.72119
G1 X122.956 Y85.822 E1.74589
G1 X123.605 Y86.176 E1.78277
G1 X124.233 Y86.541 E1.81901
G1 X124.705 Y86.833 E1.8467
G1 X125.311 Y87.232 E1.8829
G1 X125.987 Y87.703 E1.92401
G1 X126.493 Y88.073 E1.95528
G1 X126.987 Y88.453 E1.98637
G1 X127.455 Y88.83 E2.01636
G1 X128.238 Y89.503 E2.06787
G1 X128.92 Y90.13 E2.11409
G1 X129.284 Y90.481 E2.13931
G1 X129.724 Y90.926 E2.17053
G1 X130.127 Y91.353 E2.19983
G1 X130.595 Y91.875 E2.2348
G1 X131.089 Y92.457 E2.27289
G1 X131.422 Y92.866 E2.2992
G1 X131.923 Y93.506 E2.33975
G1 X132.538 Y94.359 E2.39222
G1 X133.164 Y95.304 E2.44877
G1 X133.627 Y96.056 E2.49283
G1 X134.03 Y96.762 E2.53338
G1 X134.416 Y97.478 E2.57396
G1 X134.658 Y97.96 E2.60087
G1 X134.852 Y98.367 E2.62337
G1 X135.128 Y98.987 E2.65723
G1 X135.423 Y99.697 E2.69558
G1 X135.646 Y100.271 E2.72631
G1 X135.939 Y101.08 E2.76923
G1 X136.112 Y101.59 E2.7961
G1 X136.355 Y102.384 E2.83753
G1 X136.593 Y103.269 E2.88325
G1 X136.73 Y103.84 E2.91254
G1 X136.84 Y104.339 E2.93804
G1 X136.946 Y104.87 E2.96505
G1 X137.04 Y105.396 E2.99171
G1 X137.173 Y106.237 E3.03419
G1 X137.278 Y107.031 E3.07415
G1 X137.336 Y107.618 E3.10357
G1 X137.377 Y108.156 E3.13049
G1 X137.408 Y108.75 E3.16017
G1 X137.428 Y109.645 E3.20483
G1 X137.424 Y110.473 E3.24614
G1 X137.406 Y111.108 E3.27783
G1 X137.362 Y111.944 E3.3196
G1 X137.285 Y112.829 E3.36392
G1 X137.121 Y114.134 E3.42954
G1 X137.006 Y114.84 E3.46522
G1 X136.913 Y115.338 E3.4905
G1 X136.749 Y116.12 E3.53036
G1 X136.6 Y116.731 E3.56174
G1 X136.408 Y117.448 E3.59877
G1 X136.232 Y118.051 E3.63011
G1 X136.06 Y118.59 E3.65834
G1 X135.838 Y119.229 E3.69208
G1 X135.536 Y120.032 E3.73489
G1 X135.293 Y120.642 E3.76764
G1 X135.025 Y121.253 E3.80093
G1 X134.713 Y121.921 E3.83771
G1 X134.395 Y122.558 E3.87323
G1 X134.026 Y123.249 E3.91232
G1 X133.589 Y124.007 E3.95597
G1 X133.03 Y124.906 E4.00878
G1 X132.702 Y125.407 E4.03866
G1 X132.455 Y125.767 E4.06044
G1 X132.122 Y126.231 E4.08893
G1 X131.799 Y126.661 E4.11576
G1 X131.302 Y127.282 E4.15545
G1 X130.654 Y128.045 E4.20539
G1 X130.306 Y128.439 E4.23161
G1 X129.848 Y128.937 E4.26537
G1 X129.206 Y129.594 E4.3112
G1 X128.737 Y130.037 E4.34338
G1 X128.085 Y130.623 E4.38712
G1 X127.688 Y130.966 E4.41329
G1 X127.159 Y131.405 E4.44759
G1 X126.451 Y131.958 E4.49241
G1 X125.911 Y132.349 E4.52567
G1 X125.132 Y132.884 E4.57282
G1 X124.58 Y133.248 E4.60581
G1 X124.019 Y133.59 E4.63859
G1 X123.498 Y133.891 E4.66861
G1 X122.993 Y134.169 E4.69737
G1 X122.5 Y134.426 E4.7251
G1 X121.807 Y134.767 E4.76364
G1 X121.083 Y135.097 E4.80333
G1 X119.964 Y135.557 E4.86369
G1 X119.056 Y135.897 E4.91206
G1 X118.6 Y136.053 E4.93611
G1 X117.683 Y136.342 E4.98408
G1 X117.343 Y136.439 E5.00171
G1 X116.59 Y136.63 E5.04047
G1 X115.671 Y136.835 E5.08745
G1 X115.15 Y136.94 E5.11396
G1 X114.329 Y137.089 E5.15559
G1 X113.586 Y137.205 E5.19311
G1 X112.996 Y137.275 E5.22275
G1 X112.342 Y137.338 E5.25553
G1 X111.674 Y137.385 E5.28894
G1 X110.842 Y137.423 E5.33049
G1 X110.155 Y137.44 E5.36478
G1 X109.58 Y137.436 E5.39346
G1 X108.882 Y137.416 E5.4283
G1 X108.239 Y137.381 E5.46043
G1 X107.54 Y137.327 E5.49541
G1 X106.846 Y137.256 E5.53021
G1 X106.255 Y137.179 E5.55994
G1 X105.737 Y137.101 E5.58608
G1 X104.922 Y136.962 E5.62733
G1 X103.97 Y136.763 E5.67585
G1 X103.083 Y136.544 E5.72143
G1 X102.614 Y136.419 E5.74565
G1 X101.681 Y136.144 E5.79417
G1 X101.011 Y135.919 E5.82943
G1 X100.122 Y135.59 E5.87673
G1 X99.465 Y135.326 E5.91205
G1 X98.928 Y135.096 E5.9412
G1 X98.037 Y134.683 E5.99019
G1 X97.48 Y134.406 E6.02123
G1 X96.992 Y134.151 E6.0487
G1 X96.392 Y133.821 E6.08286
G1 X95.622 Y133.363 E6.12756
G1 X94.755 Y132.807 E6.17894
G1 X94.036 Y132.317 E6.22235
G1 X93.459 Y131.891 E6.25813
G1 X92.795 Y131.372 E6.30018
G1 X92.228 Y130.902 E6.33692
G1 X91.628 Y130.377 E6.3767
G1 X91.119 Y129.908 E6.41123
G1 X90.7 Y129.501 E6.44037
G1 X90.168 Y128.954 E6.47844
G1 X89.376 Y128.091 E6.53688
G1 X88.724 Y127.324 E6.5871
G1 X88.188 Y126.643 E6.63034
G1 X87.722 Y126.02 E6.66915
G1 X87.391 Y125.549 E6.69787
G1 X86.853 Y124.734 E6.74659
G1 X86.475 Y124.121 E6.78252
G1 X86.198 Y123.651 E6.80974
G1 X85.905 Y123.127 E6.83969
G1 X85.597 Y122.546 E6.8725
G1 X85.345 Y122.046 E6.90043
G1 X85.007 Y121.321 E6.94034
G1 X84.649 Y120.484 E6.98576
G1 X84.35 Y119.734 E7.02604
G1 X84.039 Y118.87 E7.07185
G1 X83.794 Y118.106 E7.11188
G1 X83.653 Y117.638 E7.13627
G1 X83.467 Y116.975 E7.17062
G1 X83.26 Y116.129 E7.21407
G1 X83.108 Y115.409 E7.25079
G1 X83.007 Y114.876 E7.27785
G1 X82.904 Y114.266 E7.30871
G1 X82.829 Y113.765 E7.33399
G1 X82.739 Y113.072 E7.36885
G1 X82.672 Y112.442 E7.40046
G1 X82.639 Y112.038 E7.42068
G1 X82.603 Y111.41 E7.45207
G1 X82.571 Y110.476 E7.49869
G1 X82.57 Y109.587 E7.54304
G1 X82.602 Y108.607 E7.59196
G1 X82.658 Y107.713 E7.63665
G1 X82.727 Y107.035 E7.67065
G1 X82.821 Y106.302 E7.70752
G1 X82.894 Y105.807 E7.73248
G1 X83.031 Y104.985 E7.77406
G1 X83.176 Y104.224 E7.81271
G1 X83.401 Y103.279 E7.86117
G1 X83.714 Y102.15 E7.91962
G1 X83.948 Y101.384 E7.95958
G1 X84.195 Y100.679 E7.99685
G1 X84.513 Y99.845 E8.04138
G1 X84.796 Y99.159 E8.0784
G1 X85.089 Y98.503 E8.11425
G1 X85.395 Y97.855 E8.15
G1 X85.682 Y97.293 E8.18148
G1 X86.009 Y96.688 E8.21579
G1 X86.286 Y96.199 E8.24383
G1 X86.552 Y95.753 E8.26974
G1 X86.911 Y95.185 E8.30326
G1 X87.37 Y94.497 E8.34452
G1 X87.656 Y94.085 E8.36955
G1 X88.077 Y93.517 E8.40482
G1 X88.704 Y92.711 E8.45576
G1 X89.252 Y92.047 E8.49872
G1 X89.713 Y91.534 E8.53313
G1 X90.256 Y90.96 E8.57255
G1 X90.639 Y90.571 E8.59978
G0 F6000 X91.058 Y91.001
G1 F1200 X91.668 Y90.407 E8.64226
G1 X92.077 Y90.026 E8.67015
G1 X92.372 Y89.763 E8.68986
G1 X92.889 Y89.326 E8.72364
G1 X93.524 Y88.818 E8.76421
G1 X93.993 Y88.461 E8.79361
G1 X94.56 Y88.049 E8.82858
G1 X95.067 Y87.699 E8.85932
G1 X95.788 Y87.234 E8.90212
G1 X96.453 Y86.832 E8.94089
G1 X96.818 Y86.622 E8.9619
G1 X97.458 Y86.278 E8.99815
G1 X98.445 Y85.783 E9.05323
G1 X99.307 Y85.39 E9.1005
G1 X100.068 Y85.077 E9.14155
G1 X100.598 Y84.873 E9.16988
G1 X101.412 Y84.58 E9.21304
G1 X102.262 Y84.307 E9.25758
G1 X102.935 Y84.117 E9.29247
G1 X103.468 Y83.979 E9.31994
G1 X104.438 Y83.75 E9.36967
G1 X105.184 Y83.597 E9.40766
G1 X105.616 Y83.522 E9.42953
G1 X106.461 Y83.395 E9.47216
G1 X107.062 Y83.322 E9.50237
G1 X107.737 Y83.257 E9.5362
G1 X108.384 Y83.212 E9.56856
G1 X109.118 Y83.179 E9.60521
G1 X109.888 Y83.168 E9.64363
G1 X110.966 Y83.185 E9.69742
G1 X111.736 Y83.217 E9.73587
G1 X112.325 Y83.263 E9.76534
G1 X113.052 Y83.337 E9.8018
G1 X113.729 Y83.425 E9.83586
G1 X114.547 Y83.553 E9.87717
G1 X115.25 Y83.68 E9.91281
G1 X115.871 Y83.816 E9.94452
G1 X116.918 Y84.073 E9.99831
G1 X117.652 Y84.274 E10.03628
G1 X118.171 Y84.435 E10.06339
G1 X118.862 Y84.666 E10.09974
G1 X119.401 Y84.86 E10.12832
G1 X119.933 Y85.065 E10.15676
G1 X120.47 Y85.286 E10.18573
G1 X120.903 Y85.476 E10.20932
G1 X121.462 Y85.738 E10.24012
G1 X122.249 Y86.13 E10.28399
G1 X122.668 Y86.349 E10.30757
G1 X123.317 Y86.703 E10.34446
G1 X123.918 Y87.052 E10.37913
G1 X124.39 Y87.344 E10.40682
G1 X124.968 Y87.724 E10.44133
G1 X125.644 Y88.195 E10.48244
G1 X126.127 Y88.549 E10.51231
G1 X126.621 Y88.929 E10.54341
G1 X127.068 Y89.288 E10.57201
G1 X127.835 Y89.947 E10.62246
G1 X128.504 Y90.562 E10.66779
G1 X128.868 Y90.913 E10.69302
G1 X129.288 Y91.338 E10.72283
G1 X129.691 Y91.765 E10.75213
G1 X130.137 Y92.264 E10.78552
G1 X130.631 Y92.846 E10.8236
G1 X130.949 Y93.236 E10.84871
G1 X131.45 Y93.876 E10.88926
G1 X132.038 Y94.69 E10.93935
G1 X132.664 Y95.635 E10.99591
G1 X133.106 Y96.353 E11.03797
G1 X133.509 Y97.059 E11.07853
G1 X133.885 Y97.758 E11.11813
G1 X134.31 Y98.625 E11.1663
G1 X134.574 Y99.217 E11.19864
G1 X134.869 Y99.927 E11.23699
G1 X135.082 Y100.475 E11.26633
G1 X135.375 Y101.284 E11.30925
G1 X135.54 Y101.771 E11.33491
G1 X135.777 Y102.545 E11.37529
G1 X136.01 Y103.409 E11.41994
G1 X136.147 Y103.98 E11.44923
G1 X136.357 Y104.988 E11.5006
G1 X136.447 Y105.49 E11.52605
G1 X136.58 Y106.331 E11.56852
G1 X136.682 Y107.103 E11.60737
G1 X136.737 Y107.664 E11.6355
G1 X136.778 Y108.202 E11.66242
G1 X136.809 Y108.768 E11.6907
G1 X136.828 Y109.642 E11.73431
G1 X136.824 Y110.47 E11.77562
G1 X136.806 Y111.076 E11.80587
G1 X136.762 Y111.912 E11.84763
G1 X136.69 Y112.758 E11.88999
G1 X136.586 Y113.625 E11.93356
G1 X136.484 Y114.329 E11.96905
G1 X136.323 Y115.227 E12.01456
G1 X136.162 Y115.993 E12.05361
G1 X136.021 Y116.576 E12.08354
G1 X135.829 Y117.293 E12.12057
G1 X135.66 Y117.869 E12.15052
G1 X135.488 Y118.408 E12.17874
G1 X135.276 Y119.018 E12.21096
G1 X134.974 Y119.821 E12.25376
G1 X134.737 Y120.415 E12.28567
G1 X134.482 Y120.999 E12.31746
G1 X134.17 Y121.667 E12.35425
G1 X133.866 Y122.275 E12.38816
G1 X133.497 Y122.966 E12.42724
G1 X133.079 Y123.69 E12.46895
G1 X132.52 Y124.589 E12.52176
G1 X132.207 Y125.068 E12.55031
G1 X131.96 Y125.428 E12.57209
G1 X131.642 Y125.871 E12.5993
G1 X131.319 Y126.301 E12.62613
G1 X130.845 Y126.894 E12.664
G1 X130.197 Y127.657 E12.71395
G1 X129.865 Y128.033 E12.73897
G1 X129.407 Y128.531 E12.77273
G1 X128.784 Y129.168 E12.81718
G1 X128.335 Y129.591 E12.84795
G1 X127.683 Y130.177 E12.89169
G1 X127.304 Y130.504 E12.91666
G1 X126.775 Y130.943 E12.95096
G1 X126.087 Y131.481 E12.99453
G1 X125.572 Y131.855 E13.02629
G1 X124.793 Y132.39 E13.07343
G1 X124.254 Y132.744 E13.10561
G1 X123.719 Y133.071 E13.13689
G1 X123.198 Y133.372 E13.16691
G1 X122.716 Y133.637 E13.19435
G1 X122.223 Y133.894 E13.22209
G1 X121.546 Y134.227 E13.25973
G1 X120.839 Y134.548 E13.29846
G1 X119.739 Y135.001 E13.35782
G1 X119.318 Y135.163 E13.38032
G1 X118.416 Y135.483 E13.42807
G1 X117.943 Y135.636 E13.45287
G1 X117.178 Y135.862 E13.49267
G1 X116.459 Y136.044 E13.52967
G1 X115.54 Y136.249 E13.57665
G1 X115.043 Y136.35 E13.60195
G1 X114.222 Y136.499 E13.64358
G1 X113.502 Y136.611 E13.67993
G1 X112.939 Y136.677 E13.70821
G1 X112.285 Y136.74 E13.74099
G1 X111.646 Y136.786 E13.77295
G1 X110.814 Y136.824 E13.8145
G1 X110.146 Y136.84 E13.84784
G1 X109.597 Y136.836 E13.87523
G1 X108.899 Y136.816 E13.91007
G1 X108.285 Y136.783 E13.94075
G1 X107.586 Y136.729 E13.97572
G1 X106.923 Y136.661 E14.00897
G1 X106.332 Y136.584 E14.03871
G1 X105.838 Y136.509 E14.06364
G1 X105.023 Y136.37 E14.10488
G1 X104.114 Y136.181 E14.1512
G1 X103.227 Y135.962 E14.19678
G1 X102.3 Y135.705 E14.24478
G1 X101.867 Y135.573 E14.26736
G1 X101.214 Y135.355 E14.30171
G1 X100.346 Y135.033 E14.3479
G1 X99.689 Y134.769 E14.38322
G1 X99.176 Y134.55 E14.41105
G1 X98.711 Y134.339 E14.43652
G1 X97.747 Y133.868 E14.49005
G1 X97.282 Y133.625 E14.51623
G1 X96.682 Y133.295 E14.55039
G1 X95.946 Y132.858 E14.5931
G1 X95.079 Y132.302 E14.64448
G1 X94.379 Y131.825 E14.68674
G1 X93.829 Y131.418 E14.72088
G1 X93.165 Y130.899 E14.76292
G1 X92.623 Y130.451 E14.798
G1 X92.023 Y129.926 E14.83778
G1 X91.537 Y129.478 E14.87076
G1 X91.118 Y129.071 E14.8999
G1 X90.61 Y128.548 E14.93627
G1 X89.818 Y127.685 E14.99471
G1 X89.195 Y126.953 E15.04267
G1 X88.659 Y126.272 E15.0859
G1 X88.205 Y125.665 E15.12372
G1 X87.89 Y125.215 E15.15113
G1 X87.361 Y124.415 E15.19897
G1 X86.992 Y123.816 E15.23407
G1 X86.715 Y123.346 E15.26129
G1 X86.435 Y122.846 E15.28988
G1 X86.127 Y122.265 E15.32269
G1 X85.887 Y121.788 E15.34933
G1 X85.557 Y121.081 E15.38825
G1 X85.206 Y120.262 E15.43271
G1 X84.907 Y119.512 E15.47299
G1 X84.611 Y118.687 E15.51672
G1 X84.366 Y117.923 E15.55675
G1 X84.231 Y117.475 E15.58009
G1 X84.045 Y116.812 E15.61445
G1 X83.847 Y116.005 E15.6559
G1 X83.695 Y115.285 E15.69261
G1 X83.598 Y114.776 E15.71846
G1 X83.495 Y114.166 E15.74933
G1 X83.424 Y113.688 E15.77344
G1 X83.334 Y112.995 E15.8083
G1 X83.27 Y112.393 E15.8385
G1 X83.237 Y111.989 E15.85873
G1 X83.202 Y111.39 E15.88866
G1 X83.17 Y110.456 E15.93529
G1 X83.17 Y109.607 E15.97764
G1 X83.202 Y108.627 E16.02656
G1 X83.256 Y107.759 E16.06995
G1 X83.322 Y107.112 E16.1024
G1 X83.416 Y106.379 E16.13927
G1 X83.486 Y105.906 E16.16312
G1 X83.623 Y105.084 E16.2047
G1 X83.765 Y104.341 E16.24244
G1 X83.98 Y103.439 E16.2887
G1 X84.293 Y102.31 E16.34715
G1 X84.52 Y101.566 E16.38596
G1 X84.755 Y100.892 E16.42157
G1 X85.073 Y100.058 E16.4661
G1 X85.344 Y99.404 E16.50142
G1 X85.637 Y98.748 E16.53726
G1 X85.936 Y98.115 E16.57219
G1 X86.21 Y97.578 E16.60226
G1 X86.537 Y96.973 E16.63657
G1 X86.802 Y96.507 E16.66332
G1 X87.068 Y96.061 E16.68923
G1 X87.41 Y95.518 E16.72124
G1 X87.869 Y94.83 E16.76251
G1 X88.143 Y94.436 E16.78645
G1 X88.551 Y93.885 E16.82065
G1 X89.178 Y93.079 E16.8716
G1 X89.709 Y92.436 E16.9132
G1 X90.149 Y91.946 E16.94606
G1 X90.692 Y91.372 E16.98548
G1 X91.058 Y91.001 E17.01148
G0 F6000 X91.476 Y91.431
G1 F1200 X92.086 Y90.837 E17.05396
G1 X92.771 Y90.211 E17.10025
G1 X93.264 Y89.794 E17.13247
G1 X93.899 Y89.286 E17.17304
G1 X94.345 Y88.946 E17.20102
G1 X94.912 Y88.534 E17.23599
G1 X95.396 Y88.201 E17.2653
G1 X96.101 Y87.745 E17.30718
G1 X96.465 Y87.522 E17.32848
G1 X97.117 Y87.142 E17.36613
G1 X97.727 Y86.814 E17.40068
G1 X98.714 Y86.319 E17.45577
G1 X99.535 Y85.945 E17.50078
G1 X100.296 Y85.632 E17.54183
G1 X100.801 Y85.437 E17.56884
G1 X101.615 Y85.144 E17.612
G1 X102.425 Y84.884 E17.65444
G1 X103.098 Y84.694 E17.68933
G1 X103.606 Y84.563 E17.71551
G1 X104.576 Y84.334 E17.76523
G1 X105.286 Y84.188 E17.80139
G1 X105.718 Y84.113 E17.82327
G1 X106.547 Y83.989 E17.86509
G1 X107.119 Y83.92 E17.89383
G1 X107.794 Y83.855 E17.92766
G1 X108.411 Y83.811 E17.95852
G1 X109.145 Y83.778 E17.99518
G1 X109.879 Y83.768 E18.0318
G1 X110.957 Y83.785 E18.08559
G1 X111.703 Y83.816 E18.12284
G1 X112.264 Y83.86 E18.15092
G1 X112.991 Y83.934 E18.18737
G1 X113.637 Y84.017 E18.21987
G1 X114.455 Y84.145 E18.26117
G1 X115.137 Y84.269 E18.29576
G1 X115.727 Y84.399 E18.3259
G1 X116.774 Y84.656 E18.37968
G1 X117.486 Y84.851 E18.41651
G1 X117.98 Y85.004 E18.44231
G1 X118.671 Y85.235 E18.47866
G1 X119.186 Y85.42 E18.50597
