;FLAVOR:Marlin
;TIME:30915
;Filament used: 33.9932m
;Layer height: 0.16
;MINX:0
;MINY:0
;MINZ:0.2
;MAXX:220
;MAXY:220
;MAXZ:6.88
;Generated with Cura_SteamEngine 5.4.0
M140 S70
M105
M190 S70
M104 S215
M105
M109 S215
M82 ;absolute extrusion mode
M201 X500.00 Y500.00 Z100.00 E5000.00 ;Setup machine max acceleration
M203 X500.00 Y500.00 Z10.00 E50.00 ;Setup machine max feedrate
M204 P500.00 R1000.00 T500.00 ;Setup Print/Retract/Travel acceleration
M205 X8.00 Y8.00 Z0.40 E5.00 ;Setup Jerk
M220 S100 ;Reset Feedrate
M221 S100 ;Reset Flowrate

G28 ;Home

G92 E0 ;Reset Extruder
G1 Z2.0 F3000 ;Move Z Axis up
G1 X10.1 Y20 Z0.28 F5000.0 ;Move to start position
G1 X10.1 Y200.0 Z0.28 F1500.0 E15 ;Draw the first line
G1 X10.4 Y200.0 Z0.28 F5000.0 ;Move to side a little
G1 X10.4 Y20 Z0.28 F1500.0 E30 ;Draw the second line
G92 E0 ;Reset Extruder
G1 Z2.0 F3000 ;Move Z Axis up

G92 E0
G92 E0
G1 F1500 E-5
;LAYER_COUNT:38
;LAYER:0
M107
G0 F6000 X0.00 Y27.494 Z0.2
;TYPE:SKIRT
G1 F1500 E0
G1 F1200 X0.146 Y27.125 E0.0198
G1 X0.867 Y25.408 E0.11271
G1 X1.665 Y23.702 E0.20667
G1 X2.326 Y22.407 E0.27921
G1 X2.556 Y21.978 E0.30349
G1 X3.489 Y20.336 E0.39771
G1 X4.46 Y18.771 E0.4896
G1 X5.275 Y17.552 E0.56275
G1 X5.548 Y17.161 E0.58655
G1 X6.416 Y15.97 E0.66007
G1 X7.536 Y14.535 E0.75089
G1 X7.838 Y14.171 E0.77448
G1 X9.076 Y12.735 E0.86908
G1 X10.027 Y11.706 E0.93898
G1 X10.363 Y11.361 E0.96301
G1 X11.747 Y9.989 E1.06023
G1 X12.807 Y9.012 E1.13215
G1 X14.19 Y7.822 E1.22318
G1 X14.597 Y7.489 E1.24941
G1 X16.072 Y6.34 E1.34269
G1 X17.598 Y5.243 E1.43646
G1 X18.854 Y4.406 E1.51176
G1 X20.402 Y3.448 E1.60258
G1 X20.805 Y3.213 E1.62585
G1 X22.084 Y2.5 E1.69891
G1 X23.75 Y1.642 E1.7924
G1 X24.169 Y1.439 E1.81563
G1 X25.509 Y0.824 E1.88919
G1 X27.234 Y0.102 E1.98248
G1 X27.507 Y0.00 E1.99702
G1 F1500 E-3.00298
G0 F6000 X29.223 Y0.00
G1 F1500 E1.99702
G1 F1200 X27.444 Y0.664 E2.09176
G1 X25.741 Y1.377 E2.18387
G1 X24.42 Y1.984 E2.2564
G1 X24.011 Y2.182 E2.27907
G1 X22.359 Y3.033 E2.37178
G1 X21.097 Y3.737 E2.44387
G1 X20.705 Y3.966 E2.46652
G1 X19.17 Y4.916 E2.55658
G1 X17.931 Y5.742 E2.63087
G1 X16.422 Y6.827 E2.7236
G1 X14.966 Y7.962 E2.8157
G1 X14.581 Y8.277 E2.84052
G1 X13.198 Y9.467 E2.93154
G1 X12.154 Y10.43 E3.0024
G1 X10.785 Y11.787 E3.09857
G1 X10.457 Y12.124 E3.12203
G1 X9.517 Y13.142 E3.19116
G1 X8.292 Y14.563 E3.28476
G1 X7.998 Y14.918 E3.30776
G1 X6.889 Y16.339 E3.39769
G1 X6.033 Y17.514 E3.47022
G1 X5.767 Y17.895 E3.4934
G1 X4.959 Y19.104 E3.56595
G1 X3.999 Y20.652 E3.65682
G1 X3.078 Y22.274 E3.74988
G1 X2.855 Y22.69 E3.77343
G1 X2.199 Y23.975 E3.84541
G1 X1.41 Y25.662 E3.93832
G1 X0.699 Y27.357 E4.03002
G1 X0.528 Y27.79 E4.05325
G1 X0.00 Y29.24 E4.13024
G1 F1500 E-0.86976
G0 F6000 X0.00 Y31.139
G1 F1500 E4.13024
G1 F1200 X0.456 Y29.741 E4.2036
G1 X1.086 Y28.01 E4.2955
G1 X1.252 Y27.589 E4.31808
G1 X1.954 Y25.916 E4.4086
G1 X2.734 Y24.248 E4.50046
G1 X3.384 Y22.973 E4.57186
G1 X3.6 Y22.57 E4.59467
G1 X4.509 Y20.968 E4.68657
G1 X5.458 Y19.437 E4.77643
G1 X6.259 Y18.238 E4.84837
G1 X6.518 Y17.867 E4.87095
G1 X7.362 Y16.708 E4.94247
G1 X8.461 Y15.3 E5.03159
G1 X8.746 Y14.955 E5.05391
G1 X9.958 Y13.549 E5.14652
G1 X10.888 Y12.542 E5.21491
G1 X11.207 Y12.213 E5.23777
G1 X12.561 Y10.871 E5.33288
G1 X13.589 Y9.922 E5.40268
G1 X14.972 Y8.732 E5.4937
G1 X15.335 Y8.435 E5.5171
G1 X16.772 Y7.314 E5.60803
G1 X18.264 Y6.241 E5.69972
G1 X19.486 Y5.426 E5.773
G1 X21.008 Y4.484 E5.8623
G1 X21.389 Y4.261 E5.88432
G1 X22.634 Y3.566 E5.95546
G1 X24.272 Y2.722 E6.04739
G1 X24.671 Y2.529 E6.0695
G1 X25.973 Y1.93 E6.141
G1 X27.654 Y1.226 E6.23193
G1 X29.382 Y0.58 E6.32396
G1 X29.8 Y0.435 E6.34604
G1 X31.142 Y0.00 E6.41642
G1 F1500 E1.41642
G0 F6000 X33.345 Y0.00
G1 F1500 E6.41642
G1 F1200 X33.069 Y0.071 E6.43064
G1 X31.329 Y0.57 E6.52095
G1 X29.985 Y1.006 E6.59144
G1 X29.579 Y1.147 E6.61288
G1 X27.864 Y1.788 E6.70422
G1 X26.205 Y2.483 E6.79396
G1 X24.922 Y3.074 E6.86443
G1 X24.534 Y3.262 E6.88594
G1 X22.909 Y4.099 E6.97714
G1 X21.682 Y4.785 E7.04727
G1 X21.312 Y5.002 E7.06867
G1 X19.802 Y5.936 E7.15725
G1 X18.597 Y6.74 E7.22952
G1 X17.122 Y7.801 E7.32017
G1 X15.704 Y8.908 E7.40992
G1 X15.363 Y9.187 E7.4319
G1 X13.98 Y10.377 E7.52293
G1 X12.968 Y11.312 E7.59167
G1 X11.629 Y12.639 E7.68572
G1 X11.32 Y12.959 E7.70791
G1 X10.399 Y13.956 E7.77563
G1 X9.2 Y15.347 E7.86725
G1 X8.924 Y15.682 E7.8889
G1 X7.835 Y17.077 E7.97719
G1 X7.003 Y18.22 E8.04772
G1 X6.751 Y18.581 E8.06969
G1 X5.957 Y19.77 E8.14102
G1 X5.019 Y21.284 E8.22987
G1 X4.122 Y22.866 E8.32061
G1 X3.913 Y23.256 E8.34268
G1 X3.269 Y24.52 E8.41345
G1 X2.498 Y26.17 E8.50432
G1 X1.805 Y27.821 E8.59365
G1 X1.645 Y28.229 E8.61551
G1 X1.02 Y29.946 E8.70667
G1 X0.579 Y31.299 E8.77767
G1 X0.457 Y31.704 E8.79877
G1 X0.00 Y33.346 E8.8838
G1 F1500 E3.8838
G0 F6000 X0.00 Y36.051
G1 F1500 E8.8838
G1 F1200 X0.222 Y34.974 E8.93867
G1 X0.553 Y33.597 E9.00932
G1 X1.031 Y31.878 E9.09834
G1 X1.15 Y31.485 E9.11882
G1 X1.584 Y30.151 E9.18881
G1 X2.204 Y28.447 E9.27928
G1 X2.358 Y28.053 E9.30038
G1 X3.042 Y26.424 E9.38852
G1 X3.804 Y24.792 E9.47838
G1 X4.442 Y23.539 E9.54853
G1 X4.644 Y23.162 E9.56987
G1 X5.529 Y21.6 E9.65944
G1 X6.456 Y20.103 E9.74728
G1 X7.243 Y18.924 E9.81801
G1 X7.488 Y18.573 E9.83936
G1 X8.308 Y17.446 E9.9089
G1 X9.388 Y16.063 E9.99644
G1 X9.654 Y15.739 E10.01735
G1 X10.84 Y14.363 E10.10798
G1 X11.753 Y13.375 E10.1751
G1 X12.051 Y13.065 E10.19655
G1 X13.375 Y11.753 E10.28954
G1 X14.371 Y10.832 E10.35722
G1 X15.754 Y9.642 E10.44825
G1 X16.073 Y9.381 E10.46881
G1 X17.472 Y8.288 E10.55738
G1 X18.93 Y7.239 E10.64699
G1 X20.118 Y6.446 E10.71825
G1 X21.615 Y5.52 E10.80607
G1 X21.975 Y5.309 E10.82689
G1 X23.184 Y4.632 E10.89602
G1 X24.795 Y3.802 E10.98644
G1 X25.173 Y3.619 E11.00739
G1 X26.445 Y3.033 E11.07726
G1 X26.823 Y2.868 E11.09784
G1 X28.074 Y2.35 E11.16539
G1 X29.776 Y1.714 E11.25603
G1 X30.17 Y1.577 E11.27685
G1 X31.495 Y1.147 E11.34634
G1 X33.219 Y0.652 E11.43583
G1 X33.629 Y0.546 E11.45696
G1 X35.396 Y0.131 E11.54751
G1 X36.055 Y0.00 E11.58103
G1 F1500 E6.58103
G0 F6000 X39.96 Y0.00
G1 F1500 E11.58103
G1 F1200 X38.619 Y0.167 E11.64845
G1 X36.81 Y0.461 E11.73989
G1 X35.513 Y0.719 E11.80586
G1 X33.766 Y1.13 E11.8954
G1 X33.37 Y1.233 E11.91582
G1 X32.055 Y1.604 E11.98398
G1 X31.669 Y1.721 E12.0041
G1 X30.355 Y2.148 E12.07303
G1 X29.973 Y2.281 E12.09322
G1 X28.284 Y2.912 E12.18317
G1 X27.053 Y3.422 E12.24964
G1 X26.685 Y3.583 E12.26968
G1 X25.424 Y4.164 E12.33895
G1 X25.057 Y4.342 E12.3593
G1 X23.459 Y5.165 E12.44898
G1 X22.268 Y5.832 E12.51708
G1 X21.919 Y6.037 E12.53728
G1 X20.434 Y6.956 E12.6244
G1 X19.263 Y7.738 E12.69465
G1 X17.823 Y8.775 E12.78318
G1 X16.442 Y9.854 E12.87062
G1 X16.135 Y10.106 E12.89043
G1 X14.762 Y11.287 E12.98079
G1 X13.783 Y12.193 E13.04734
G1 X12.473 Y13.491 E13.13934
G1 X12.186 Y13.79 E13.16002
G1 X11.281 Y14.77 E13.22657
G1 X10.109 Y16.131 E13.31618
G1 X9.852 Y16.444 E13.33638
G1 X8.781 Y17.815 E13.42318
G1 X7.973 Y18.926 E13.49171
G1 X7.735 Y19.267 E13.51246
G1 X6.955 Y20.436 E13.58257
G1 X6.039 Y21.916 E13.66941
G1 X5.166 Y23.458 E13.75781
G1 X4.971 Y23.822 E13.77841
G1 X4.339 Y25.064 E13.84794
G1 X3.586 Y26.678 E13.93679
G1 X3.422 Y27.052 E13.95717
G1 X2.912 Y28.283 E14.02364
G1 X2.763 Y28.665 E14.0441
G1 X2.148 Y30.356 E14.13387
G1 X1.721 Y31.67 E14.2028
G1 X1.605 Y32.052 E14.22272
G1 X1.131 Y33.758 E14.31106
G1 X0.805 Y35.114 E14.38063
G1 X0.716 Y35.523 E14.40152
G1 X0.459 Y36.822 E14.46758
G1 X0.39 Y37.211 E14.48729
G1 X0.112 Y39.015 E14.57836
G1 X0.00 Y39.994 E14.62752
G1 F1500 E9.62752
G0 F6000 X0.00 Y192.509
G1 F1500 E14.62752
G1 F1200 X0.735 Y194.291 E14.72369
G1 X1.303 Y195.546 E14.79241
G1 X1.512 Y195.982 E14.81653
G1 X2.413 Y197.758 E14.91589
G1 X3.279 Y199.308 E15.00447
G1 X4.264 Y200.922 E15.0988
G1 X5.05 Y202.119 E15.17025
G1 X5.31 Y202.499 E15.19322
G1 X6.411 Y204.022 E15.28698
G1 X7.538 Y205.463 E15.37824
G1 X8.773 Y206.925 E15.47372
G1 X9.75 Y208 E15.5462
G1 X10.069 Y208.337 E15.56935
G1 X11.335 Y209.614 E15.65906
G1 X12.731 Y210.919 E15.7544
G1 X14.134 Y212.133 E15.84696
G1 X15.633 Y213.331 E15.9427
G1 X17.098 Y214.409 E16.03344
G1 X18.319 Y215.246 E16.10729
G1 X19.882 Y216.238 E16.19965
G1 X21.506 Y217.187 E16.29349
G1 X21.902 Y217.406 E16.31607
G1 X23.596 Y218.283 E16.41124
G1 X25.234 Y219.057 E16.50162
G1 X26.893 Y219.763 E16.59157
G1 X27.504 Y220 E16.62427
G1 F1500 E11.62427
G0 F6000 X0.00 Y190.777
G1 F1500 E16.62427
G1 F1200 X0.435 Y191.973 E16.68776
G1 X0.6 Y192.396 E16.71041
G1 X1.282 Y194.044 E16.7994
G1 X1.85 Y195.299 E16.86812
G1 X2.053 Y195.722 E16.89153
G1 X2.937 Y197.465 E16.98903
G1 X3.803 Y199.015 E17.07761
G1 X4.776 Y200.61 E17.17083
G1 X5.551 Y201.789 E17.24122
G1 X5.805 Y202.159 E17.26361
G1 X6.884 Y203.652 E17.35551
G1 X8.011 Y205.093 E17.44678
G1 X9.217 Y206.521 E17.54003
G1 X10.194 Y207.596 E17.6125
G1 X10.505 Y207.925 E17.63509
G1 X11.761 Y209.192 E17.72409
G1 X13.141 Y210.481 E17.8183
G1 X14.509 Y211.664 E17.90853
G1 X16.008 Y212.862 E18.00427
G1 X17.454 Y213.926 E18.09384
G1 X18.658 Y214.751 E18.16665
G1 X20.203 Y215.731 E18.25793
G1 X21.809 Y216.669 E18.35072
G1 X22.192 Y216.88 E18.37254
G1 X23.45 Y217.539 E18.44339
G1 X23.865 Y217.747 E18.46655
G1 X25.49 Y218.514 E18.5562
G1 X27.128 Y219.211 E18.64501
G1 X28.443 Y219.72 E18.71536
G1 X29.245 Y220 E18.75774
G1 F1500 E13.75774
G0 F6000 X0.00 Y188.851
G1 F1500 E18.75774
G1 F1200 X0.517 Y190.444 E18.84129
G1 X0.999 Y191.768 E18.91159
G1 X1.159 Y192.178 E18.93354
G1 X1.829 Y193.797 E19.02096
G1 X2.397 Y195.052 E19.08969
G1 X2.594 Y195.463 E19.11243
G1 X3.461 Y197.172 E19.20803
G1 X4.327 Y198.722 E19.29661
G1 X5.288 Y200.297 E19.38866
G1 X6.052 Y201.46 E19.45808
G1 X6.299 Y201.819 E19.47982
G1 X7.37 Y203.301 E19.57105
G1 X8.483 Y204.723 E19.66114
G1 X9.661 Y206.117 E19.75219
G1 X10.638 Y207.192 E19.82466
G1 X10.941 Y207.513 E19.84669
G1 X12.187 Y208.77 E19.93499
G1 X13.55 Y210.042 E20.028
G1 X14.884 Y211.195 E20.11597
G1 X16.383 Y212.393 E20.2117
G1 X17.81 Y213.443 E20.30009
G1 X18.997 Y214.256 E20.37187
G1 X20.524 Y215.224 E20.46207
G1 X22.099 Y216.143 E20.55305
G1 X22.482 Y216.354 E20.57486
G1 X23.729 Y217.008 E20.64511
G1 X24.134 Y217.211 E20.66771
G1 X25.746 Y217.971 E20.75663
G1 X27.363 Y218.659 E20.8443
G1 X28.659 Y219.16 E20.91362
G1 X29.066 Y219.306 E20.93519
G1 X30.918 Y219.932 E21.03272
G1 X31.146 Y220 E21.04459
G1 F1500 E16.04459
G0 F6000 X0.00 Y186.646
G1 F1500 E21.04459
G1 F1200 X0.399 Y188.105 E21.12005
G1 X0.521 Y188.513 E21.1413
G1 X1.088 Y190.259 E21.23289
G1 X1.563 Y191.563 E21.30213
G1 X1.718 Y191.96 E21.32339
G1 X2.376 Y193.55 E21.40924
G1 X2.944 Y194.805 E21.47796
G1 X3.135 Y195.203 E21.49999
G1 X3.985 Y196.879 E21.59374
G1 X4.851 Y198.429 E21.68232
G1 X5.8 Y199.985 E21.77325
G1 X6.553 Y201.13 E21.84162
G1 X6.793 Y201.479 E21.86275
G1 X7.856 Y202.949 E21.95326
G1 X8.955 Y204.353 E22.04221
G1 X10.119 Y205.729 E22.13213
G1 X11.082 Y206.789 E22.20358
G1 X11.377 Y207.101 E22.225
G1 X12.613 Y208.347 E22.31256
G1 X13.959 Y209.603 E22.40441
G1 X15.276 Y210.741 E22.49124
G1 X16.417 Y211.66 E22.56434
G1 X16.751 Y211.919 E22.58542
G1 X18.166 Y212.96 E22.67306
G1 X19.336 Y213.761 E22.7438
G1 X20.845 Y214.717 E22.83292
G1 X22.389 Y215.617 E22.92209
G1 X22.772 Y215.828 E22.9439
G1 X24.008 Y216.477 E23.01355
G1 X24.403 Y216.675 E23.03559
G1 X26.002 Y217.428 E23.12377
G1 X27.598 Y218.107 E23.2103
G1 X28.875 Y218.6 E23.2786
G1 X29.269 Y218.742 E23.29949
G1 X31.11 Y219.364 E23.39644
G1 X32.391 Y219.745 E23.46311
G1 X33.369 Y220 E23.51354
G1 F1500 E18.51354
G0 F6000 X0.00 Y183.953
G1 F1500 E23.51354
G1 F1200 X0.196 Y184.907 E23.56213
G1 X0.525 Y186.291 E23.6331
G1 X0.978 Y187.947 E23.71875
G1 X1.096 Y188.341 E23.73927
G1 X1.659 Y190.074 E23.83018
G1 X2.127 Y191.358 E23.89836
G1 X2.277 Y191.742 E23.91893
G1 X2.923 Y193.303 E24.00321
G1 X3.491 Y194.558 E24.07194
G1 X3.676 Y194.944 E24.0933
G1 X4.316 Y196.219 E24.16447
G1 X4.516 Y196.6 E24.18594
G1 X5.375 Y198.136 E24.27374
G1 X6.312 Y199.673 E24.36354
G1 X7.054 Y200.8 E24.43086
G1 X7.287 Y201.138 E24.45134
G1 X8.342 Y202.598 E24.54121
G1 X9.427 Y203.983 E24.62899
G1 X10.577 Y205.341 E24.71777
G1 X11.526 Y206.385 E24.78816
G1 X11.813 Y206.688 E24.80898
G1 X13.039 Y207.925 E24.89587
G1 X14.368 Y209.164 E24.98652
G1 X15.668 Y210.287 E25.07222
G1 X16.793 Y211.193 E25.14429
G1 X17.118 Y211.444 E25.16477
G1 X18.522 Y212.477 E25.25174
G1 X19.675 Y213.266 E25.32144
G1 X21.166 Y214.21 E25.40948
G1 X22.691 Y215.098 E25.49752
G1 X23.062 Y215.303 E25.51867
G1 X24.287 Y215.946 E25.58769
G1 X24.659 Y216.132 E25.60844
G1 X26.258 Y216.885 E25.69662
G1 X27.833 Y217.555 E25.78201
G1 X29.091 Y218.04 E25.84927
G1 X29.473 Y218.178 E25.86954
G1 X31.302 Y218.796 E25.96585
G1 X32.562 Y219.17 E26.03143
G1 X34.322 Y219.628 E26.12216
G1 X34.727 Y219.722 E26.1429
G1 X36.051 Y220 E26.2104
G1 F1500 E21.2104
G0 F6000 X0.00 Y180.035
G1 F1500 E26.2104
G1 F1200 X0.16 Y181.334 E26.27569
G1 X0.444 Y183.1 E26.36493
G1 X0.694 Y184.375 E26.42975
G1 X0.782 Y184.779 E26.45038
G1 X1.109 Y186.152 E26.5208
G1 X1.557 Y187.789 E26.60547
G1 X1.671 Y188.169 E26.62526
G1 X2.23 Y189.889 E26.71549
G1 X2.691 Y191.152 E26.78257
G1 X2.836 Y191.524 E26.80249
G1 X3.47 Y193.056 E26.88521
G1 X4.038 Y194.311 E26.95393
G1 X4.217 Y194.685 E26.97462
G1 X4.852 Y195.95 E27.04524
G1 X5.047 Y196.321 E27.06615
G1 X5.899 Y197.843 E27.15317
G1 X6.824 Y199.361 E27.24185
G1 X7.555 Y200.47 E27.30812
G1 X7.781 Y200.798 E27.32799
G1 X8.828 Y202.247 E27.41718
G1 X9.899 Y203.613 E27.50378
G1 X11.035 Y204.953 E27.59142
G1 X11.97 Y205.982 E27.66079
G1 X12.248 Y206.275 E27.68094
G1 X13.465 Y207.502 E27.76716
G1 X14.777 Y208.725 E27.85664
G1 X16.06 Y209.833 E27.94122
G1 X17.169 Y210.725 E28.01222
G1 X17.485 Y210.969 E28.03214
G1 X18.878 Y211.994 E28.11842
G1 X20.014 Y212.771 E28.18709
G1 X21.487 Y213.703 E28.27405
G1 X22.993 Y214.58 E28.36099
G1 X23.352 Y214.778 E28.38145
G1 X24.566 Y215.415 E28.44985
G1 X24.927 Y215.595 E28.46997
G1 X26.514 Y216.342 E28.55748
G1 X28.068 Y217.003 E28.64173
G1 X29.307 Y217.48 E28.70797
G1 X29.677 Y217.614 E28.7276
G1 X31.494 Y218.227 E28.82327
G1 X32.733 Y218.595 E28.88775
G1 X34.473 Y219.047 E28.97744
G1 X34.863 Y219.138 E28.99742
G1 X36.541 Y219.49 E29.08296
G1 X37.884 Y219.724 E29.15097
G1 X38.274 Y219.784 E29.17066
G1 X39.921 Y220 E29.25353
G1 F1500 E24.25353
G0 F6000 X52.585 Y220
G1 F1500 E29.25353
G1 F1200 X53.799 Y218.964 E29.33316
G1 X55.7 Y217.391 E29.45626
G1 X57.625 Y215.89 E29.57804
G1 X59.601 Y214.435 E29.70046
G1 X61.703 Y212.979 E29.82803
G1 X63.658 Y211.706 E29.94442
G1 X65.84 Y210.372 E30.07202
G1 X67.886 Y209.198 E30.1897
G1 X70.119 Y208.001 E30.31611
G1 X72.238 Y206.937 E30.4344
G1 X74.453 Y205.906 E30.55629
G1 X76.817 Y204.884 E30.68478
G1 X79.046 Y203.994 E30.80452
G1 X81.294 Y203.172 E30.92394
G1 X83.713 Y202.362 E31.05121
G1 X85.944 Y201.685 E31.16753
G1 X88.423 Y201.009 E31.29572
G1 X90.737 Y200.449 E31.4145
G1 X93.196 Y199.925 E31.53993
G1 X95.509 Y199.501 E31.65725
G1 X98.055 Y199.108 E31.78578
G1 X100.396 Y198.815 E31.90348
G1 X102.808 Y198.582 E32.02438
G1 X105.286 Y198.414 E32.14829
G1 X107.827 Y198.31 E32.27517
G1 X110.177 Y198.281 E32.39242
G1 X112.704 Y198.324 E32.51851
G1 X115.135 Y198.434 E32.63992
G1 X117.51 Y198.607 E32.75872
G1 X119.995 Y198.859 E32.88333
G1 X122.375 Y199.171 E33.00309
G1 X124.864 Y199.568 E33.12883
G1 X127.304 Y200.026 E33.25269
G1 X129.664 Y200.539 E33.37318
G1 X132.026 Y201.125 E33.49459
G1 X134.418 Y201.79 E33.61846
G1 X136.717 Y202.499 E33.73849
G1 X139.09 Y203.306 E33.86353
G1 X141.294 Y204.124 E33.98082
G1 X143.595 Y205.056 E34.10468
G1 X145.934 Y206.08 E34.23206
G1 X148.149 Y207.126 E34.35427
G1 X150.251 Y208.189 E34.47179
G1 X152.459 Y209.389 E34.59716
G1 X154.595 Y210.628 E34.72036
G1 X156.699 Y211.931 E34.84383
G1 X158.64 Y213.212 E34.95985
G1 X160.682 Y214.639 E35.08414
G1 X162.692 Y216.131 E35.20903
G1 X164.587 Y217.621 E35.32929
G1 X166.524 Y219.241 E35.45527
G1 X167.405 Y220 E35.51329
G1 F1500 E30.51329
G0 F6000 X51.623 Y220
G1 F1500 E35.51329
G1 F1200 X52.028 Y219.687 E35.53882
G1 X53.409 Y218.508 E35.62942
G1 X55.331 Y216.918 E35.75386
G1 X57.269 Y215.407 E35.87647
