;FLAVOR:Marlin
;TIME:2772
;Filament used: 3.08887m
;Layer height: 0.16
;MINX:36.7
;MINY:36.7
;MINZ:0.2
;MAXX:183.3
;MAXY:183.3
;MAXZ:5
;Generated with Cura_SteamEngine 5.2.1
M140 S70
M105
M190 S70
M104 S215
M105
M109 S215
M82 ;absolute extrusion mode
M201 X500.00 Y500.00 Z100.00 E5000.00 ;Setup machine max acceleration
M203 X500.00 Y500.00 Z10.00 E50.00 ;Setup machine max feedrate
M204 P500.00 R1000.00 T500.00 ;Setup Print/Retract/Travel acceleration
M205 X8.00 Y8.00 Z0.40 E5.00 ;Setup Jerk
M220 S100 ;Reset Feedrate
M221 S100 ;Reset Flowrate

G28 ;Home

G92 E0 ;Reset Extruder
G1 Z2.0 F3000 ;Move Z Axis up
G1 X10.1 Y20 Z0.28 F5000.0 ;Move to start position
G1 X10.1 Y200.0 Z0.28 F1500.0 E15 ;Draw the first line
G1 X10.4 Y200.0 Z0.28 F5000.0 ;Move to side a little
G1 X10.4 Y20 Z0.28 F1500.0 E30 ;Draw the second line
G92 E0 ;Reset Extruder
G1 Z2.0 F3000 ;Move Z Axis up

G92 E0
G92 E0
G1 F1500 E-6
;LAYER_COUNT:26
;LAYER:0
M107
G0 F6000 X41.472 Y40.915 Z0.2
;TYPE:SKIRT
G1 F1500 E0
G1 F1200 X42.242 Y40.23 E0.05142
G1 X43.17 Y39.533 E0.10932
G1 X43.589 Y39.246 E0.13466
G1 X44.462 Y38.697 E0.18611
G1 X45.375 Y38.217 E0.23757
G1 X46.588 Y37.709 E0.30318
G1 X47.009 Y37.557 E0.32551
G1 X47.992 Y37.245 E0.37696
G1 X48.996 Y37.01 E0.42841
G1 X49.896 Y36.867 E0.47387
G1 X50.301 Y36.817 E0.49423
G1 X51.699 Y36.719 E0.56415
G1 X52.904 Y36.7 E0.62427
G1 X167.633 Y36.701 E6.34812
G1 X168.29 Y36.71 E6.38091
G1 X169.32 Y36.764 E6.43236
G1 X170.266 Y36.885 E6.47994
G1 X170.643 Y36.947 E6.49901
G1 X171.654 Y37.154 E6.55049
G1 X172.645 Y37.438 E6.60192
G1 X173.202 Y37.636 E6.63141
G1 X173.666 Y37.812 E6.65617
G1 X174.615 Y38.214 E6.70759
G1 X175.531 Y38.69 E6.75909
G1 X176.679 Y39.424 E6.82707
G1 X177.127 Y39.744 E6.85454
G1 X177.943 Y40.376 E6.90603
G1 X178.707 Y41.069 E6.95749
G1 X179.415 Y41.819 E7.00895
G1 X180.19 Y42.795 E7.07113
G1 X180.527 Y43.263 E7.0999
G1 X181.097 Y44.123 E7.15137
G1 X181.598 Y45.024 E7.20281
G1 X182.078 Y46.083 E7.26081
G1 X182.277 Y46.579 E7.28748
G1 X182.623 Y47.55 E7.3389
G1 X182.894 Y48.545 E7.39035
G1 X183.129 Y49.869 E7.45744
G1 X183.179 Y50.266 E7.4774
G1 X183.281 Y51.69 E7.54863
G1 X183.3 Y52.877 E7.60785
G1 X183.299 Y167.633 E13.33305
G1 X183.29 Y168.289 E13.36579
G1 X183.236 Y169.319 E13.41724
G1 X183.116 Y170.26 E13.46457
G1 X183.054 Y170.638 E13.48368
G1 X182.847 Y171.648 E13.53512
G1 X182.563 Y172.64 E13.5866
G1 X182.355 Y173.226 E13.61762
G1 X182.186 Y173.669 E13.64127
G1 X181.782 Y174.617 E13.69269
G1 X181.305 Y175.532 E13.74417
G1 X180.691 Y176.505 E13.80157
G1 X180.368 Y176.971 E13.82985
G1 X179.748 Y177.795 E13.8813
G1 X179.066 Y178.568 E13.93273
G1 X178.326 Y179.287 E13.98421
G1 X177.211 Y180.186 E14.05566
G1 X176.739 Y180.526 E14.08468
G1 X175.879 Y181.096 E14.13616
G1 X174.978 Y181.597 E14.18759
G1 X173.9 Y182.084 E14.24661
G1 X173.377 Y182.293 E14.2747
G1 X172.406 Y182.639 E14.32613
G1 X171.41 Y182.908 E14.3776
G1 X170.397 Y183.099 E14.42903
G1 X169.492 Y183.207 E14.4745
G1 X168.302 Y183.281 E14.53399
G1 X167.096 Y183.3 E14.59416
G1 X52.367 Y183.299 E20.31802
G1 X51.711 Y183.29 E20.35075
G1 X50.681 Y183.236 E20.4022
G1 X49.727 Y183.113 E20.45019
G1 X49.315 Y183.045 E20.47103
G1 X48.305 Y182.838 E20.52246
G1 X47.314 Y182.553 E20.57391
G1 X46.552 Y182.276 E20.61436
G1 X46.141 Y182.112 E20.63643
G1 X45.199 Y181.693 E20.68787
G1 X44.292 Y181.202 E20.73933
G1 X43.482 Y180.682 E20.78735
G1 X43.017 Y180.359 E20.81559
G1 X42.194 Y179.739 E20.867
G1 X41.421 Y179.056 E20.91846
G1 X40.703 Y178.315 E20.96994
G1 X39.81 Y177.205 E21.04101
G1 X39.471 Y176.734 E21.06997
G1 X38.902 Y175.875 E21.12137
G1 X38.401 Y174.973 E21.17285
G1 X37.922 Y173.917 E21.2307
G1 X37.723 Y173.421 E21.25736
G1 X37.377 Y172.45 E21.30879
G1 X37.106 Y171.455 E21.36024
G1 X36.871 Y170.131 E21.42732
G1 X36.821 Y169.734 E21.44729
G1 X36.719 Y168.301 E21.51896
G1 X36.7 Y167.086 E21.57959
G1 X36.701 Y52.52 E27.29531
G1 X36.721 Y51.592 E27.34162
G1 X36.746 Y51.053 E27.36853
G1 X36.834 Y50.025 E27.42001
G1 X37.001 Y49.008 E27.47143
G1 X37.263 Y47.949 E27.52585
G1 X37.36 Y47.616 E27.54316
G1 X37.686 Y46.638 E27.59459
G1 X38.253 Y45.348 E27.66489
G1 X38.491 Y44.876 E27.69126
G1 X38.991 Y43.974 E27.74272
G1 X39.559 Y43.113 E27.79418
G1 X40.437 Y42.016 E27.86428
G1 X40.756 Y41.658 E27.8882
G1 X41.472 Y40.915 E27.93968
G0 F6000 X41.904 Y41.332
G1 F1200 X42.659 Y40.664 E27.98997
G1 X43.509 Y40.028 E28.04294
G1 X43.928 Y39.741 E28.06827
G1 X44.782 Y39.205 E28.11858
G1 X45.675 Y38.739 E28.16883
G1 X46.792 Y38.274 E28.22919
G1 X47.213 Y38.122 E28.25152
G1 X48.174 Y37.817 E28.30182
G1 X49.156 Y37.59 E28.35211
G1 X49.97 Y37.463 E28.39321
G1 X50.375 Y37.413 E28.41357
G1 X51.709 Y37.319 E28.48029
G1 X52.904 Y37.3 E28.53991
G1 X167.625 Y37.301 E34.26337
G1 X168.282 Y37.31 E34.29615
G1 X169.288 Y37.364 E34.34641
G1 X170.169 Y37.477 E34.39072
G1 X170.546 Y37.539 E34.40979
G1 X171.533 Y37.742 E34.46006
G1 X172.501 Y38.023 E34.51035
G1 X172.989 Y38.197 E34.53619
G1 X173.453 Y38.373 E34.56095
G1 X174.38 Y38.767 E34.6112
G1 X175.274 Y39.234 E34.66152
G1 X176.331 Y39.913 E34.7242
G1 X176.779 Y40.233 E34.75167
G1 X177.575 Y40.85 E34.80191
G1 X178.32 Y41.529 E34.8522
G1 X179.008 Y42.265 E34.90247
G1 X179.703 Y43.146 E34.95845
G1 X180.04 Y43.614 E34.98722
G1 X180.596 Y44.454 E35.03748
G1 X181.084 Y45.336 E35.08777
G1 X181.521 Y46.306 E35.14085
G1 X181.72 Y46.802 E35.16751
G1 X182.058 Y47.752 E35.21782
G1 X182.319 Y48.725 E35.26808
G1 X182.533 Y49.944 E35.32982
G1 X182.583 Y50.341 E35.34978
G1 X182.681 Y51.701 E35.41781
G1 X182.7 Y52.877 E35.47649
G1 X182.699 Y167.625 E41.20129
G1 X182.69 Y168.281 E41.23402
G1 X182.636 Y169.288 E41.28433
G1 X182.524 Y170.163 E41.32834
G1 X182.462 Y170.541 E41.34745
G1 X182.259 Y171.528 E41.39773
G1 X181.979 Y172.496 E41.448
G1 X181.795 Y173.012 E41.47533
G1 X181.626 Y173.455 E41.49899
G1 X181.23 Y174.381 E41.54923
G1 X180.761 Y175.274 E41.59955
G1 X180.198 Y176.163 E41.65205
G1 X179.875 Y176.629 E41.68034
G1 X179.268 Y177.434 E41.73064
G1 X178.6 Y178.188 E41.7809
G1 X177.874 Y178.887 E41.83118
G1 X176.86 Y179.699 E41.89599
G1 X176.388 Y180.039 E41.92501
G1 X175.548 Y180.595 E41.97526
G1 X174.666 Y181.083 E42.02555
G1 X173.678 Y181.527 E42.07959
G1 X173.155 Y181.736 E42.10769
G1 X172.205 Y182.073 E42.15798
G1 X171.231 Y182.333 E42.20828
G1 X169.8 Y182.57 E42.28064
G1 X169.428 Y182.61 E42.29931
G1 X168.292 Y182.681 E42.35609
G1 X167.096 Y182.7 E42.41577
G1 X52.375 Y182.699 E48.13922
G1 X51.719 Y182.69 E48.17195
G1 X50.712 Y182.636 E48.22227
G1 X49.825 Y182.521 E48.26689
G1 X49.413 Y182.453 E48.28772
G1 X48.426 Y182.25 E48.33799
G1 X47.458 Y181.969 E48.38828
G1 X46.774 Y181.719 E48.42461
G1 X46.363 Y181.555 E48.44669
G1 X45.443 Y181.144 E48.49696
G1 X44.558 Y180.662 E48.54724
G1 X43.825 Y180.19 E48.59073
G1 X43.36 Y179.867 E48.61898
G1 X42.555 Y179.259 E48.66931
G1 X41.802 Y178.59 E48.71956
G1 X41.104 Y177.863 E48.76984
G1 X40.297 Y176.855 E48.83426
G1 X39.958 Y176.384 E48.86322
G1 X39.402 Y175.543 E48.91351
G1 X38.915 Y174.661 E48.96378
G1 X38.479 Y173.694 E49.0167
G1 X38.28 Y173.198 E49.04336
G1 X37.942 Y172.248 E49.09367
G1 X37.681 Y171.275 E49.14393
G1 X37.467 Y170.056 E49.20567
G1 X37.417 Y169.659 E49.22564
G1 X37.319 Y168.291 E49.29406
G1 X37.3 Y167.086 E49.35419
G1 X37.301 Y52.529 E55.06946
G1 X37.308 Y52.03 E55.09436
G1 X37.346 Y51.081 E55.14174
G1 X37.432 Y50.077 E55.19201
G1 X37.598 Y49.083 E55.24229
G1 X37.839 Y48.117 E55.29196
G1 X37.936 Y47.784 E55.30927
G1 X38.256 Y46.829 E55.35952
G1 X38.789 Y45.618 E55.42553
G1 X39.027 Y45.146 E55.4519
G1 X39.516 Y44.265 E55.50217
G1 X40.074 Y43.425 E55.55248
G1 X40.885 Y42.415 E55.6171
G1 X41.204 Y42.057 E55.64103
G1 X41.904 Y41.332 E55.6913
G0 F6000 X42.336 Y41.749
G1 F1200 X43.075 Y41.1 E55.74037
G1 X43.848 Y40.523 E55.7885
G1 X44.267 Y40.236 E55.81383
G1 X45.101 Y39.714 E55.86292
G1 X45.974 Y39.261 E55.91199
G1 X46.996 Y38.838 E55.96717
G1 X47.417 Y38.686 E55.9895
G1 X48.355 Y38.39 E56.03857
G1 X49.314 Y38.171 E56.08765
G1 X50.043 Y38.058 E56.12445
G1 X50.448 Y38.008 E56.14481
G1 X51.72 Y37.919 E56.20843
G1 X52.904 Y37.9 E56.26751
G1 X167.617 Y37.901 E61.99056
G1 X168.274 Y37.91 E62.02334
G1 X169.256 Y37.964 E62.07241
G1 X170.072 Y38.069 E62.11345
G1 X170.449 Y38.131 E62.13252
G1 X171.412 Y38.33 E62.18158
G1 X172.776 Y38.758 E62.2529
G1 X173.24 Y38.934 E62.27766
G1 X174.145 Y39.319 E62.32672
G1 X175.016 Y39.778 E62.37584
G1 X175.982 Y40.401 E62.43319
G1 X176.43 Y40.721 E62.46066
G1 X177.207 Y41.325 E62.50975
G1 X177.931 Y41.99 E62.5588
G1 X178.6 Y42.711 E62.60787
G1 X179.216 Y43.496 E62.65765
G1 X179.553 Y43.964 E62.68642
G1 X180.095 Y44.785 E62.7355
G1 X180.568 Y45.648 E62.7846
G1 X180.964 Y46.529 E62.83279
G1 X181.163 Y47.025 E62.85946
G1 X181.492 Y47.953 E62.90858
G1 X181.744 Y48.903 E62.95761
G1 X181.938 Y50.019 E63.01412
G1 X181.988 Y50.416 E63.03409
G1 X182.081 Y51.711 E63.09886
G1 X182.1 Y52.877 E63.15704
G1 X182.099 Y167.617 E68.88144
G1 X182.09 Y168.273 E68.91417
G1 X182.036 Y169.255 E68.96324
G1 X181.931 Y170.065 E69.00399
G1 X181.869 Y170.443 E69.0231
G1 X181.671 Y171.407 E69.0722
G1 X181.234 Y172.798 E69.14494
G1 X181.065 Y173.241 E69.16859
G1 X180.678 Y174.145 E69.21765
G1 X180.218 Y175.014 E69.26671
G1 X179.705 Y175.821 E69.31442
G1 X179.382 Y176.287 E69.3427
G1 X178.789 Y177.072 E69.39179
G1 X178.134 Y177.806 E69.44087
G1 X177.422 Y178.485 E69.48995
G1 X176.509 Y179.212 E69.54818
G1 X176.037 Y179.552 E69.5772
G1 X175.216 Y180.094 E69.62628
G1 X174.354 Y180.568 E69.67536
G1 X173.455 Y180.97 E69.72449
G1 X172.932 Y181.179 E69.75259
G1 X172.005 Y181.507 E69.80165
G1 X171.054 Y181.758 E69.85072
G1 X169.736 Y181.974 E69.91735
G1 X169.364 Y182.014 E69.93601
G1 X168.281 Y182.081 E69.99015
G1 X167.096 Y182.1 E70.04928
G1 X52.383 Y182.099 E75.77233
G1 X51.727 Y182.09 E75.80506
G1 X50.745 Y182.036 E75.85413
G1 X49.923 Y181.929 E75.89548
G1 X49.511 Y181.861 E75.91632
G1 X48.547 Y181.662 E75.96542
G1 X47.604 Y181.385 E76.01446
G1 X46.997 Y181.161 E76.04674
G1 X46.586 Y180.997 E76.06882
G1 X45.688 Y180.596 E76.11788
G1 X44.825 Y180.123 E76.16698
G1 X44.167 Y179.697 E76.20609
G1 X43.702 Y179.374 E76.23433
G1 X42.918 Y178.78 E76.28341
G1 X42.184 Y178.125 E76.33249
G1 X41.506 Y177.412 E76.38157
G1 X40.784 Y176.504 E76.43945
G1 X40.445 Y176.033 E76.4684
G1 X39.904 Y175.212 E76.51745
G1 X39.43 Y174.35 E76.56653
G1 X39.036 Y173.471 E76.61459
G1 X38.837 Y172.975 E76.64125
G1 X38.508 Y172.047 E76.69037
G1 X38.256 Y171.097 E76.73941
G1 X38.062 Y169.981 E76.79592
G1 X38.012 Y169.584 E76.81588
G1 X37.919 Y168.281 E76.88106
G1 X37.9 Y167.086 E76.94068
G1 X37.901 Y52.537 E82.65555
G1 X37.908 Y52.038 E82.68045
G1 X37.945 Y51.108 E82.72689
G1 X38.03 Y50.128 E82.77596
G1 X38.195 Y49.159 E82.825
G1 X38.415 Y48.285 E82.86997
G1 X38.512 Y47.952 E82.88727
G1 X38.825 Y47.02 E82.93632
G1 X39.325 Y45.888 E82.99806
G1 X39.563 Y45.416 E83.02443
G1 X40.041 Y44.557 E83.07348
G1 X40.587 Y43.739 E83.12254
G1 X41.333 Y42.814 E83.18183
G1 X41.652 Y42.456 E83.20575
G1 X42.336 Y41.749 E83.25483
G0 F6000 X42.767 Y42.167
G1 F1200 X43.49 Y41.536 E83.30271
G1 X44.187 Y41.018 E83.34603
G1 X44.606 Y40.731 E83.37137
G1 X45.419 Y40.223 E83.4192
G1 X46.272 Y39.784 E83.46706
G1 X47.2 Y39.402 E83.51712
G1 X47.621 Y39.25 E83.53946
G1 X48.535 Y38.963 E83.58725
G1 X49.471 Y38.752 E83.63512
G1 X50.117 Y38.654 E83.66772
G1 X50.522 Y38.604 E83.68808
G1 X51.73 Y38.519 E83.74849
G1 X52.904 Y38.5 E83.80707
G1 X167.609 Y38.501 E89.52973
G1 X168.266 Y38.51 E89.56251
G1 X169.223 Y38.563 E89.61033
G1 X169.974 Y38.661 E89.64811
G1 X170.351 Y38.723 E89.66717
G1 X171.29 Y38.918 E89.71502
G1 X172.564 Y39.319 E89.78165
G1 X173.028 Y39.495 E89.80641
G1 X173.909 Y39.872 E89.85422
G1 X174.756 Y40.321 E89.90205
G1 X175.633 Y40.889 E89.95418
G1 X176.081 Y41.209 E89.98164
G1 X176.838 Y41.798 E90.0295
G1 X177.542 Y42.449 E90.07733
G1 X178.19 Y43.156 E90.12518
G1 X178.729 Y43.847 E90.1689
G1 X179.066 Y44.315 E90.19767
G1 X179.594 Y45.116 E90.24554
G1 X180.053 Y45.958 E90.29338
G1 X180.407 Y46.753 E90.3368
G1 X180.606 Y47.249 E90.36346
G1 X180.926 Y48.153 E90.4113
G1 X181.169 Y49.081 E90.45916
G1 X181.343 Y50.094 E90.51044
G1 X181.393 Y50.491 E90.5304
G1 X181.481 Y51.722 E90.59198
G1 X181.5 Y52.877 E90.64961
G1 X181.499 Y167.609 E96.37361
G1 X181.49 Y168.265 E96.40634
G1 X181.437 Y169.222 E96.45416
G1 X181.339 Y169.968 E96.4917
G1 X181.277 Y170.346 E96.51081
G1 X181.083 Y171.285 E96.55864
G1 X180.674 Y172.584 E96.62659
G1 X180.505 Y173.027 E96.65024
G1 X180.126 Y173.908 E96.69809
G1 X179.675 Y174.754 E96.74592
G1 X179.212 Y175.479 E96.78884
G1 X178.889 Y175.945 E96.81712
G1 X178.31 Y176.71 E96.86499
G1 X177.67 Y177.424 E96.91283
G1 X176.972 Y178.082 E96.96068
G1 X176.159 Y178.725 E97.0124
G1 X175.687 Y179.065 E97.04142
G1 X174.886 Y179.593 E97.08928
G1 X174.044 Y180.052 E97.13713
G1 X173.232 Y180.413 E97.18146
G1 X172.709 Y180.622 E97.20956
G1 X171.805 Y180.94 E97.25737
G1 X170.877 Y181.182 E97.30521
G1 X169.671 Y181.377 E97.36616
G1 X169.299 Y181.417 E97.38483
G1 X168.271 Y181.481 E97.43622
G1 X167.096 Y181.5 E97.49484
G1 X52.391 Y181.499 E103.2175
G1 X51.735 Y181.49 E103.25023
G1 X50.778 Y181.437 E103.29805
G1 X50.02 Y181.337 E103.33619
G1 X49.608 Y181.269 E103.35703
G1 X48.669 Y181.074 E103.40487
G1 X47.75 Y180.801 E103.4527
G1 X47.219 Y180.604 E103.48096
G1 X46.808 Y180.44 E103.50304
G1 X45.933 Y180.048 E103.55087
G1 X45.094 Y179.584 E103.5987
G1 X44.509 Y179.204 E103.63351
G1 X44.044 Y178.881 E103.66175
G1 X43.28 Y178.302 E103.70958
G1 X42.567 Y177.66 E103.75744
G1 X41.91 Y176.962 E103.80527
G1 X41.271 Y176.154 E103.85666
G1 X40.932 Y175.683 E103.88561
G1 X40.405 Y174.882 E103.93345
G1 X39.946 Y174.04 E103.98129
G1 X39.593 Y173.247 E104.0246
G1 X39.394 Y172.751 E104.05126
G1 X39.074 Y171.847 E104.0991
G1 X38.831 Y170.919 E104.14696
G1 X38.657 Y169.906 E104.19824
G1 X38.607 Y169.509 E104.21821
G1 X38.519 Y168.27 E104.28017
G1 X38.5 Y167.086 E104.33925
G1 X38.501 Y52.546 E110.05368
G1 X38.519 Y51.675 E110.09714
G1 X38.544 Y51.136 E110.12406
G1 X38.629 Y50.181 E110.17189
G1 X38.792 Y49.236 E110.21974
G1 X38.991 Y48.453 E110.26004
G1 X39.088 Y48.12 E110.27735
G1 X39.394 Y47.211 E110.3252
G1 X39.861 Y46.158 E110.38267
G1 X40.099 Y45.686 E110.40904
G1 X40.566 Y44.849 E110.45686
G1 X41.101 Y44.053 E110.5047
G1 X41.781 Y43.213 E110.55862
G1 X42.1 Y42.855 E110.58255
G1 X42.767 Y42.167 E110.63035
G0 F6000 X43.198 Y42.585
G1 F1200 X43.904 Y41.973 E110.67697
G1 X44.526 Y41.513 E110.71556
G1 X44.945 Y41.226 E110.7409
G1 X45.737 Y40.732 E110.78747
G1 X46.569 Y40.308 E110.83406
G1 X47.403 Y39.967 E110.87901
G1 X47.824 Y39.815 E110.90134
G1 X48.715 Y39.536 E110.94792
G1 X49.627 Y39.334 E110.99452
G1 X50.19 Y39.249 E111.02293
G1 X50.595 Y39.199 E111.04329
G1 X51.741 Y39.119 E111.1006
G1 X52.904 Y39.1 E111.15863
G1 X167.6 Y39.101 E116.88084
G1 X168.257 Y39.11 E116.91362
G1 X169.189 Y39.163 E116.96019
G1 X169.877 Y39.253 E116.99481
G1 X170.254 Y39.315 E117.01387
G1 X171.168 Y39.506 E117.06046
G1 X172.351 Y39.88 E117.12235
G1 X172.815 Y40.056 E117.14711
G1 X173.673 Y40.424 E117.19369
G1 X174.496 Y40.864 E117.24025
G1 X175.284 Y41.377 E117.28716
G1 X175.732 Y41.697 E117.31463
G1 X176.468 Y42.272 E117.36122
G1 X177.152 Y42.908 E117.40782
G1 X177.779 Y43.599 E117.45437
G1 X178.242 Y44.198 E117.49214
G1 X178.579 Y44.666 E117.52091
G1 X179.092 Y45.446 E117.56749
G1 X179.536 Y46.267 E117.61406
G1 X179.85 Y46.976 E117.65274
G1 X180.049 Y47.472 E117.67941
G1 X180.359 Y48.353 E117.726
G1 X180.593 Y49.257 E117.77259
G1 X180.748 Y50.169 E117.81874
G1 X180.798 Y50.566 E117.8387
G1 X180.881 Y51.733 E117.89707
G1 X180.9 Y52.877 E117.95415
G1 X180.899 Y167.601 E123.67776
G1 X180.89 Y168.257 E123.71049
G1 X180.837 Y169.189 E123.75706
G1 X180.747 Y169.871 E123.79138
G1 X180.685 Y170.249 E123.81049
G1 X180.495 Y171.163 E123.85707
G1 X180.113 Y172.37 E123.92023
G1 X179.944 Y172.813 E123.94388
G1 X179.574 Y173.67 E123.99045
G1 X179.132 Y174.493 E124.03706
G1 X178.718 Y175.137 E124.07526
G1 X178.395 Y175.603 E124.10354
G1 X177.831 Y176.347 E124.15012
G1 X177.205 Y177.04 E124.19671
G1 X176.523 Y177.677 E124.24327
G1 X175.808 Y178.238 E124.28861
