;FLAVOR:Marlin
;TIME:7072
;Filament used: 5.25744m
;Layer height: 0.16
;MINX:72.102
;MINY:75.023
;MINZ:0.2
;MAXX:157.897
;MAXY:151.222
;MAXZ:40
;Generated with Cura_SteamEngine 5.2.1
M140 S70
M105
M190 S70
M104 S215
M105
M109 S215
M82 ;absolute extrusion mode
M201 X500.00 Y500.00 Z100.00 E5000.00 ;Setup machine max acceleration
M203 X500.00 Y500.00 Z10.00 E50.00 ;Setup machine max feedrate
M204 P500.00 R1000.00 T500.00 ;Setup Print/Retract/Travel acceleration
M205 X8.00 Y8.00 Z0.40 E5.00 ;Setup Jerk
M220 S100 ;Reset Feedrate
M221 S100 ;Reset Flowrate

G28 ;Home

G92 E0 ;Reset Extruder
G1 Z2.0 F3000 ;Move Z Axis up
G1 X10.1 Y20 Z0.28 F5000.0 ;Move to start position
G1 X10.1 Y200.0 Z0.28 F1500.0 E15 ;Draw the first line
G1 X10.4 Y200.0 Z0.28 F5000.0 ;Move to side a little
G1 X10.4 Y20 Z0.28 F1500.0 E30 ;Draw the second line
G92 E0 ;Reset Extruder
G1 Z2.0 F3000 ;Move Z Axis up

G92 E0
G92 E0
G1 F1500 E-6
;LAYER_COUNT:219
;LAYER:0
M107
G0 F6000 X76.054 Y79.094 Z0.2
;TYPE:SKIRT
G1 F1500 E0
G1 F1200 X76.814 Y78.398 E0.05141
G1 X78.084 Y77.44 E0.13078
G1 X79.062 Y76.84 E0.18802
G1 X79.98 Y76.37 E0.23948
G1 X80.931 Y75.972 E0.29091
G1 X81.798 Y75.683 E0.3365
G1 X82.122 Y75.587 E0.35336
G1 X83.121 Y75.333 E0.40479
G1 X84.137 Y75.156 E0.45624
G1 X85.663 Y75.041 E0.53259
G1 X86.797 Y75.023 E0.58917
G1 X143.567 Y75.024 E3.42144
G1 X144.251 Y75.034 E3.45557
G1 X145.281 Y75.089 E3.50703
G1 X146.304 Y75.224 E3.55851
G1 X147.649 Y75.527 E3.62729
G1 X148.166 Y75.672 E3.65408
G1 X149.147 Y75.989 E3.70551
G1 X150.101 Y76.381 E3.75697
G1 X151.022 Y76.845 E3.80842
G1 X151.904 Y77.38 E3.85989
G1 X152.742 Y77.981 E3.91133
G1 X153.53 Y78.646 E3.96278
G1 X154.265 Y79.369 E4.01421
G1 X154.942 Y80.148 E4.0657
G1 X155.556 Y80.976 E4.11713
G1 X156.104 Y81.849 E4.16855
G1 X156.583 Y82.763 E4.22004
G1 X156.99 Y83.71 E4.27146
G1 X157.322 Y84.687 E4.32294
G1 X157.578 Y85.686 E4.37439
G1 X157.755 Y86.702 E4.42584
G1 X157.871 Y88.198 E4.5007
G1 X157.897 Y89.57 E4.56917
G1 X157.896 Y136.829 E6.92693
G1 X157.886 Y137.542 E6.9625
G1 X157.831 Y138.571 E7.01391
G1 X157.697 Y139.594 E7.06539
G1 X157.484 Y140.603 E7.11683
G1 X157.171 Y141.661 E7.17188
G1 X157.068 Y141.962 E7.18775
G1 X156.696 Y142.924 E7.23921
G1 X156.251 Y143.855 E7.29069
G1 X155.736 Y144.748 E7.34212
G1 X155.152 Y145.598 E7.39357
G1 X154.505 Y146.401 E7.44502
G1 X153.692 Y147.26 E7.50403
G1 X152.844 Y148.024 E7.56097
G1 X152.026 Y148.653 E7.61245
G1 X151.163 Y149.217 E7.66389
G1 X150.258 Y149.713 E7.71537
G1 X149.408 Y150.102 E7.76201
G1 X148.448 Y150.477 E7.81343
G1 X147.461 Y150.777 E7.86489
G1 X146.454 Y150.999 E7.91634
G1 X145.433 Y151.142 E7.96778
G1 X144.3 Y151.208 E8.0244
G1 X143.32 Y151.222 E8.07329
G1 X86.469 Y151.218 E10.9096
G1 X85.764 Y151.207 E10.94478
G1 X84.734 Y151.151 E10.99624
G1 X83.711 Y151.016 E11.04772
G1 X82.555 Y150.768 E11.10671
G1 X81.461 Y150.441 E11.16367
G1 X80.498 Y150.07 E11.21516
G1 X79.568 Y149.625 E11.2666
G1 X78.674 Y149.11 E11.31807
G1 X77.824 Y148.527 E11.36949
G1 X77.266 Y148.089 E11.40488
G1 X77.013 Y147.879 E11.42129
G1 X76.246 Y147.19 E11.47272
G1 X75.534 Y146.444 E11.52417
G1 X74.883 Y145.644 E11.57563
G1 X74.295 Y144.797 E11.62707
G1 X73.774 Y143.907 E11.67852
G1 X73.324 Y142.979 E11.72998
G1 X72.937 Y141.988 E11.78305
G1 X72.842 Y141.713 E11.79757
G1 X72.543 Y140.726 E11.84902
G1 X72.322 Y139.718 E11.9005
G1 X72.179 Y138.697 E11.95194
G1 X72.115 Y137.618 E12.00587
G1 X72.102 Y136.779 E12.04773
G1 X72.104 Y89.035 E14.42969
G1 X72.114 Y88.35 E14.46387
G1 X72.169 Y87.32 E14.51533
G1 X72.304 Y86.298 E14.56676
G1 X72.518 Y85.289 E14.61821
G1 X72.809 Y84.299 E14.6697
G1 X73.175 Y83.335 E14.72114
G1 X73.616 Y82.403 E14.77258
G1 X74.127 Y81.507 E14.82404
G1 X74.706 Y80.654 E14.87547
G1 X75.35 Y79.848 E14.92695
G1 X76.054 Y79.094 E14.97841
G0 F6000 X76.641 Y79.36
G1 F1200 X77.397 Y78.694 E15.02868
G1 X78.425 Y77.934 E15.09246
G1 X79.376 Y77.351 E15.14811
G1 X80.274 Y76.895 E15.19835
G1 X81.206 Y76.511 E15.24864
G1 X81.968 Y76.258 E15.2887
G1 X82.292 Y76.162 E15.30556
G1 X83.269 Y75.915 E15.35584
G1 X84.262 Y75.745 E15.4061
G1 X85.674 Y75.641 E15.47673
G1 X86.797 Y75.623 E15.53277
G1 X143.559 Y75.624 E18.36464
G1 X144.243 Y75.634 E18.39876
G1 X145.249 Y75.689 E18.44903
G1 X146.248 Y75.823 E18.49932
G1 X147.487 Y76.105 E18.56271
G1 X148.004 Y76.25 E18.5895
G1 X148.962 Y76.56 E18.63973
G1 X149.893 Y76.946 E18.69002
G1 X150.791 Y77.404 E18.74031
G1 X151.65 Y77.932 E18.79061
G1 X152.464 Y78.526 E18.84089
G1 X153.228 Y79.183 E18.89116
G1 X153.938 Y79.898 E18.94143
G1 X154.588 Y80.668 E18.9917
G1 X155.176 Y81.486 E19.04196
G1 X155.697 Y82.349 E19.09225
G1 X156.148 Y83.25 E19.14252
G1 X156.526 Y84.184 E19.19279
G1 X156.829 Y85.145 E19.24306
G1 X157.055 Y86.128 E19.29338
G1 X157.202 Y87.125 E19.34366
G1 X157.271 Y88.211 E19.39795
G1 X157.297 Y89.57 E19.46576
G1 X157.296 Y136.82 E21.82308
G1 X157.286 Y137.533 E21.85865
G1 X157.232 Y138.539 E21.90891
G1 X157.098 Y139.538 E21.9592
G1 X156.885 Y140.523 E22.00948
G1 X156.603 Y141.467 E22.05863
G1 X156.5 Y141.768 E22.0745
G1 X156.136 Y142.708 E22.12479
G1 X155.699 Y143.616 E22.17507
G1 X155.191 Y144.486 E22.22533
G1 X154.616 Y145.313 E22.27558
G1 X153.977 Y146.093 E22.32589
G1 X153.267 Y146.835 E22.37712
G1 X152.442 Y147.578 E22.43251
G1 X151.642 Y148.191 E22.48279
G1 X150.795 Y148.738 E22.5331
G1 X149.908 Y149.216 E22.58337
G1 X149.169 Y149.552 E22.62387
G1 X148.23 Y149.918 E22.67415
G1 X147.265 Y150.208 E22.72442
G1 X146.279 Y150.421 E22.77475
G1 X145.281 Y150.554 E22.82498
G1 X144.291 Y150.608 E22.87444
G1 X143.32 Y150.622 E22.92289
G1 X86.478 Y150.618 E25.75875
G1 X85.773 Y150.607 E25.79392
G1 X84.767 Y150.552 E25.84419
G1 X83.768 Y150.416 E25.89449
G1 X82.701 Y150.186 E25.94894
G1 X81.633 Y149.865 E26.00458
G1 X80.694 Y149.5 E26.05484
G1 X79.786 Y149.062 E26.10514
G1 X78.916 Y148.553 E26.15543
G1 X78.09 Y147.976 E26.20569
G1 X77.397 Y147.417 E26.25011
G1 X76.647 Y146.743 E26.30042
G1 X75.954 Y146.012 E26.35067
G1 X75.321 Y145.228 E26.40095
G1 X74.751 Y144.397 E26.45122
G1 X74.25 Y143.522 E26.50152
G1 X73.819 Y142.611 E26.5518
G1 X73.504 Y141.792 E26.59558
G1 X73.409 Y141.517 E26.6101
G1 X73.118 Y140.552 E26.66038
G1 X72.904 Y139.567 E26.71067
G1 X72.77 Y138.568 E26.76096
G1 X72.715 Y137.606 E26.80903
G1 X72.702 Y136.779 E26.85029
G1 X72.704 Y89.044 E29.2318
G1 X72.714 Y88.359 E29.26598
G1 X72.769 Y87.352 E29.3163
G1 X72.903 Y86.354 E29.36653
G1 X73.116 Y85.369 E29.41681
G1 X73.407 Y84.404 E29.4671
G1 X73.773 Y83.465 E29.51738
G1 X74.212 Y82.558 E29.56765
G1 X74.722 Y81.688 E29.61796
G1 X75.3 Y80.862 E29.66826
G1 X75.94 Y80.085 E29.71848
G1 X76.641 Y79.36 E29.76879
G0 F6000 X77.227 Y79.633
G1 F1200 X77.978 Y78.998 E29.81786
G1 X78.771 Y78.425 E29.86667
G1 X79.689 Y77.864 E29.92034
G1 X80.567 Y77.42 E29.96943
G1 X81.479 Y77.05 E30.01853
G1 X82.139 Y76.834 E30.05318
G1 X82.463 Y76.738 E30.07004
G1 X83.416 Y76.497 E30.11908
G1 X84.386 Y76.334 E30.16815
G1 X85.684 Y76.241 E30.23307
G1 X86.797 Y76.223 E30.28861
G1 X143.55 Y76.224 E33.12003
G1 X144.234 Y76.234 E33.15416
G1 X145.216 Y76.289 E33.20322
G1 X146.191 Y76.423 E33.25232
G1 X147.325 Y76.683 E33.31037
G1 X147.842 Y76.828 E33.33716
G1 X148.777 Y77.131 E33.38619
G1 X149.685 Y77.51 E33.43528
G1 X150.559 Y77.962 E33.48437
G1 X151.393 Y78.483 E33.53343
G1 X152.183 Y79.07 E33.58253
G1 X152.922 Y79.719 E33.6316
G1 X153.606 Y80.426 E33.68068
G1 X154.23 Y81.186 E33.72974
G1 X154.79 Y81.994 E33.77878
G1 X155.283 Y82.846 E33.82789
G1 X155.705 Y83.734 E33.87695
G1 X156.054 Y84.654 E33.92604
G1 X156.327 Y85.599 E33.97511
G1 X156.522 Y86.563 E34.02418
G1 X156.638 Y87.54 E34.07326
G1 X156.671 Y88.223 E34.10738
G1 X156.697 Y89.57 E34.17459
G1 X156.696 Y136.812 E36.53151
G1 X156.686 Y137.525 E36.56708
G1 X156.632 Y138.507 E36.61615
G1 X156.499 Y139.481 E36.66519
G1 X156.287 Y140.442 E36.71429
G1 X156.035 Y141.273 E36.75761
G1 X155.932 Y141.574 E36.77348
G1 X155.576 Y142.49 E36.82251
G1 X155.147 Y143.376 E36.87162
G1 X154.647 Y144.223 E36.92069
G1 X154.08 Y145.027 E36.96978
G1 X153.45 Y145.782 E37.01884
G1 X152.841 Y146.412 E37.06255
G1 X152.04 Y147.132 E37.11628
G1 X151.257 Y147.727 E37.16535
G1 X150.429 Y148.257 E37.21439
G1 X149.163 Y148.9 E37.28524
G1 X148.929 Y149.002 E37.29797
G1 X148.012 Y149.358 E37.34705
G1 X147.069 Y149.639 E37.39614
G1 X146.107 Y149.841 E37.44518
G1 X145.131 Y149.965 E37.49426
G1 X144.282 Y150.009 E37.53668
G1 X143.508 Y150.021 E37.5753
G1 X86.487 Y150.019 E40.42009
G1 X85.782 Y150.008 E40.45526
G1 X84.8 Y149.952 E40.50433
G1 X83.826 Y149.817 E40.55339
G1 X82.847 Y149.604 E40.60338
G1 X81.806 Y149.29 E40.65762
G1 X80.89 Y148.931 E40.70671
G1 X80.006 Y148.499 E40.7558
G1 X79.161 Y147.996 E40.80486
G1 X78.033 Y147.166 E40.87473
G1 X77.78 Y146.956 E40.89113
G1 X77.049 Y146.297 E40.94023
G1 X76.374 Y145.581 E40.98932
G1 X75.76 Y144.813 E41.03838
G1 X75.21 Y143.998 E41.08743
G1 X74.728 Y143.14 E41.13653
G1 X74.317 Y142.246 E41.18562
G1 X74.071 Y141.596 E41.22029
G1 X73.976 Y141.321 E41.23481
G1 X73.693 Y140.379 E41.28388
G1 X73.487 Y139.417 E41.33296
G1 X73.361 Y138.441 E41.38206
G1 X73.315 Y137.595 E41.42433
G1 X73.302 Y136.779 E41.46504
G1 X73.304 Y89.052 E43.84615
G1 X73.314 Y88.367 E43.88033
G1 X73.369 Y87.385 E43.9294
G1 X73.503 Y86.411 E43.97845
G1 X73.715 Y85.45 E44.02755
G1 X74.005 Y84.51 E44.07663
G1 X74.37 Y83.597 E44.12568
G1 X74.809 Y82.716 E44.17479
G1 X75.317 Y81.874 E44.22385
G1 X75.892 Y81.076 E44.27292
G1 X76.53 Y80.328 E44.32197
G1 X77.227 Y79.633 E44.37108
G0 F6000 X77.812 Y79.914
G1 F1200 X78.558 Y79.311 E44.41893
G1 X79.183 Y78.875 E44.45695
G1 X80.002 Y78.376 E44.5048
G1 X80.86 Y77.947 E44.55266
G1 X81.75 Y77.59 E44.6005
G1 X82.309 Y77.409 E44.62981
G1 X82.633 Y77.313 E44.64667
G1 X83.563 Y77.079 E44.69452
G1 X84.509 Y76.923 E44.74235
G1 X85.695 Y76.841 E44.80166
G1 X86.797 Y76.823 E44.85665
G1 X143.541 Y76.824 E47.68762
G1 X144.225 Y76.834 E47.72174
G1 X145.183 Y76.888 E47.76962
G1 X146.132 Y77.022 E47.81743
G1 X147.163 Y77.26 E47.87022
G1 X147.68 Y77.405 E47.89701
G1 X148.591 Y77.702 E47.94481
G1 X149.475 Y78.075 E47.99268
G1 X150.325 Y78.519 E48.04052
G1 X151.134 Y79.033 E48.08834
G1 X151.899 Y79.612 E48.13621
G1 X152.612 Y80.253 E48.18404
G1 X153.269 Y80.952 E48.2319
G1 X153.866 Y81.702 E48.27973
G1 X154.398 Y82.5 E48.32757
G1 X154.862 Y83.339 E48.37541
G1 X155.254 Y84.214 E48.42324
G1 X155.572 Y85.119 E48.4711
G1 X155.814 Y86.047 E48.51895
G1 X155.978 Y86.992 E48.5668
G1 X156.071 Y88.236 E48.62903
G1 X156.097 Y89.57 E48.6956
G1 X156.096 Y136.803 E51.05206
G1 X156.086 Y137.516 E51.08764
G1 X156.032 Y138.474 E51.13551
G1 X155.899 Y139.423 E51.18332
G1 X155.688 Y140.359 E51.23119
G1 X155.468 Y141.078 E51.2687
G1 X155.365 Y141.379 E51.28457
G1 X155.017 Y142.273 E51.33243
G1 X154.595 Y143.134 E51.38027
G1 X154.104 Y143.958 E51.42812
G1 X153.545 Y144.737 E51.47596
G1 X152.924 Y145.468 E51.52381
G1 X152.353 Y146.045 E51.56431
G1 X151.639 Y146.685 E51.61215
G1 X150.874 Y147.263 E51.65998
G1 X150.064 Y147.775 E51.70779
G1 X148.923 Y148.35 E51.77154
G1 X148.689 Y148.452 E51.78427
G1 X147.795 Y148.798 E51.8321
G1 X146.875 Y149.069 E51.87995
G1 X145.936 Y149.262 E51.92777
G1 X144.983 Y149.376 E51.97566
G1 X144.272 Y149.409 E52.01117
G1 X143.498 Y149.421 E52.04979
G1 X86.497 Y149.419 E54.89358
G1 X85.792 Y149.408 E54.92876
G1 X84.834 Y149.353 E54.97663
G1 X83.885 Y149.218 E55.02445
G1 X82.991 Y149.022 E55.07011
G1 X81.979 Y148.715 E55.12287
G1 X81.087 Y148.362 E55.17073
G1 X80.228 Y147.937 E55.21855
G1 X79.407 Y147.441 E55.2664
G1 X78.416 Y146.704 E55.32802
G1 X78.163 Y146.494 E55.34442
G1 X77.451 Y145.851 E55.39228
G1 X76.796 Y145.151 E55.44011
G1 X76.201 Y144.399 E55.48795
G1 X75.67 Y143.6 E55.53581
G1 X75.208 Y142.76 E55.58364
G1 X74.818 Y141.884 E55.63148
G1 X74.543 Y141.125 E55.67176
G1 X74.268 Y140.206 E55.71962
G1 X74.071 Y139.268 E55.76743
G1 X73.952 Y138.316 E55.8153
G1 X73.915 Y137.584 E55.85186
G1 X73.902 Y136.779 E55.89203
G1 X73.904 Y89.061 E58.27269
G1 X73.914 Y88.376 E58.30687
G1 X73.968 Y87.419 E58.35469
G1 X74.102 Y86.469 E58.40256
G1 X74.314 Y85.534 E58.45039
G1 X74.603 Y84.62 E58.49821
G1 X74.968 Y83.733 E58.54607
G1 X75.405 Y82.879 E58.59393
G1 X75.912 Y82.065 E58.64177
G1 X76.485 Y81.296 E58.68961
G1 X77.12 Y80.577 E58.73747
G1 X77.812 Y79.914 E58.78528
G0 F6000 X78.396 Y80.203
G1 F1200 X79.423 Y79.431 E58.84938
G1 X80.315 Y78.889 E58.90146
G1 X81.151 Y78.474 E58.94802
G1 X82.019 Y78.132 E58.99457
G1 X82.803 Y77.888 E59.03553
G1 X83.709 Y77.661 E59.08213
G1 X84.631 Y77.513 E59.12872
G1 X85.706 Y77.441 E59.18247
G1 X86.797 Y77.423 E59.23691
G1 X143.532 Y77.424 E62.06743
G1 X144.216 Y77.434 E62.10155
G1 X145.148 Y77.488 E62.14813
G1 X146.072 Y77.621 E62.1947
G1 X147 Y77.838 E62.24225
G1 X147.517 Y77.983 E62.26904
G1 X148.405 Y78.273 E62.31564
G1 X149.264 Y78.639 E62.36223
G1 X150.089 Y79.076 E62.40881
G1 X150.873 Y79.582 E62.45536
G1 X151.611 Y80.154 E62.50194
G1 X152.298 Y80.787 E62.54855
G1 X152.927 Y81.476 E62.59509
G1 X153.496 Y82.216 E62.64166
G1 X153.999 Y83.003 E62.68826
G1 X154.433 Y83.829 E62.73481
G1 X154.795 Y84.69 E62.78141
G1 X155.081 Y85.579 E62.828
G1 X155.291 Y86.488 E62.87455
G1 X155.422 Y87.413 E62.92115
G1 X155.472 Y88.248 E62.96289
G1 X155.495 Y89.34 E63.01738
G1 X155.496 Y136.795 E65.38492
G1 X155.486 Y137.508 E65.42049
G1 X155.433 Y138.44 E65.46707
G1 X155.3 Y139.364 E65.51364
G1 X155.089 Y140.273 E65.5602
G1 X154.9 Y140.884 E65.5921
G1 X154.797 Y141.185 E65.60798
G1 X154.457 Y142.055 E65.65458
G1 X154.044 Y142.892 E65.70114
G1 X153.561 Y143.691 E65.74772
G1 X153.011 Y144.445 E65.79428
G1 X152.032 Y145.528 E65.86712
G1 X151.239 Y146.237 E65.92019
G1 X150.492 Y146.798 E65.9668
G1 X149.7 Y147.292 E66.01337
G1 X148.683 Y147.8 E66.07008
G1 X148.449 Y147.902 E66.08282
G1 X147.578 Y148.238 E66.12939
G1 X146.682 Y148.498 E66.17594
G1 X145.766 Y148.681 E66.22254
G1 X144.839 Y148.785 E66.26908
G1 X144.263 Y148.809 E66.29784
G1 X143.32 Y148.822 E66.34489
G1 X86.506 Y148.819 E69.17935
G1 X85.801 Y148.808 E69.21453
G1 X84.869 Y148.753 E69.26111
G1 X83.945 Y148.619 E69.30769
G1 X83.136 Y148.439 E69.34904
G1 X82.153 Y148.141 E69.40028
G1 X81.286 Y147.794 E69.44687
G1 X80.452 Y147.375 E69.49344
G1 X79.657 Y146.885 E69.54003
G1 X78.799 Y146.242 E69.59352
G1 X78.546 Y146.032 E69.60993
G1 X77.854 Y145.406 E69.65648
G1 X77.218 Y144.722 E69.70308
G1 X76.643 Y143.987 E69.74963
G1 X76.133 Y143.205 E69.79621
G1 X75.691 Y142.382 E69.84282
G1 X75.205 Y141.204 E69.9064
G1 X75.11 Y140.929 E69.92091
G1 X74.844 Y140.034 E69.96749
G1 X74.654 Y139.12 E70.01407
G1 X74.544 Y138.193 E70.06064
G1 X74.515 Y137.573 E70.09161
G1 X74.502 Y136.779 E70.13122
G1 X74.504 Y89.07 E72.51144
G1 X74.514 Y88.385 E72.54561
G1 X74.568 Y87.453 E72.59219
G1 X74.701 Y86.529 E72.63876
G1 X74.913 Y85.62 E72.68533
G1 X75.201 Y84.732 E72.7319
G1 X75.565 Y83.872 E72.7785
G1 X76.001 Y83.046 E72.82509
G1 X76.506 Y82.261 E72.87166
G1 X77.076 Y81.522 E72.91822
G1 X77.708 Y80.834 E72.96483
G1 X78.396 Y80.203 E73.01141
G0 F6000 X78.978 Y80.502
G1 F1200 X79.767 Y79.924 E73.0602
G1 X80.626 Y79.402 E73.11035
G1 X81.441 Y79.002 E73.15564
G1 X82.65 Y78.559 E73.21988
G1 X82.974 Y78.463 E73.23674
G1 X83.855 Y78.244 E73.28203
G1 X84.751 Y78.103 E73.32728
G1 X85.716 Y78.041 E73.37553
G1 X86.797 Y78.023 E73.42947
G1 X143.524 Y78.024 E76.25959
G1 X144.208 Y78.034 E76.29372
G1 X145.114 Y78.087 E76.33899
G1 X146.011 Y78.22 E76.38423
G1 X146.838 Y78.416 E76.42664
G1 X147.355 Y78.561 E76.45343
G1 X148.218 Y78.844 E76.49874
G1 X149.051 Y79.202 E76.54397
G1 X149.851 Y79.632 E76.58928
G1 X150.609 Y80.131 E76.63456
G1 X151.32 Y80.695 E76.67984
G1 X151.979 Y81.319 E76.72511
G1 X152.58 Y81.998 E76.77035
G1 X153.12 Y82.728 E76.81565
G1 X153.593 Y83.503 E76.86095
G1 X153.996 Y84.316 E76.90622
G1 X154.325 Y85.161 E76.95146
G1 X154.58 Y86.033 E76.99679
G1 X154.756 Y86.923 E77.04205
G1 X154.872 Y88.261 E77.10905
G1 X154.895 Y89.353 E77.16355
G1 X154.896 Y136.786 E79.52999
G1 X154.886 Y137.499 E79.56556
G1 X154.833 Y138.405 E79.61084
G1 X154.701 Y139.303 E79.65612
G1 X154.49 Y140.186 E79.70142
G1 X154.332 Y140.69 E79.72777
G1 X154.229 Y140.991 E79.74364
