;FLAVOR:Marlin
;TIME:7130
;Filament used: 5.05439m
;Layer height: 0.16
;MINX:72.102
;MINY:75.078
;MINZ:0.2
;MAXX:157.897
;MAXY:151.277
;MAXZ:39.92
;Generated with Cura_SteamEngine 5.2.1
M140 S70
M105
M190 S70
M104 S215
M105
M109 S215
M82 ;absolute extrusion mode
M201 X500.00 Y500.00 Z100.00 E5000.00 ;Setup machine max acceleration
M203 X500.00 Y500.00 Z10.00 E50.00 ;Setup machine max feedrate
M204 P500.00 R1000.00 T500.00 ;Setup Print/Retract/Travel acceleration
M205 X8.00 Y8.00 Z0.40 E5.00 ;Setup Jerk
M220 S100 ;Reset Feedrate
M221 S100 ;Reset Flowrate

G28 ;Home

G92 E0 ;Reset Extruder
G1 Z2.0 F3000 ;Move Z Axis up
G1 X10.1 Y20 Z0.28 F5000.0 ;Move to start position
G1 X10.1 Y200.0 Z0.28 F1500.0 E15 ;Draw the first line
G1 X10.4 Y200.0 Z0.28 F5000.0 ;Move to side a little
G1 X10.4 Y20 Z0.28 F1500.0 E30 ;Draw the second line
G92 E0 ;Reset Extruder
G1 Z2.0 F3000 ;Move Z Axis up

G92 E0
G92 E0
G1 F1500 E-6
;LAYER_COUNT:223
;LAYER:0
M107
G0 F6000 X76.062 Y79.083 Z0.2
;TYPE:SKIRT
G1 F1500 E0
G1 F1200 X76.823 Y78.387 E0.05145
G1 X77.635 Y77.752 E0.10288
G1 X78.495 Y77.182 E0.15435
G1 X79.396 Y76.68 E0.20581
G1 X80.333 Y76.249 E0.25726
G1 X81.604 Y75.797 E0.32457
G1 X82.099 Y75.649 E0.35034
G1 X83.098 Y75.392 E0.4018
G1 X84.114 Y75.214 E0.45327
G1 X85.14 Y75.114 E0.50469
G1 X85.686 Y75.094 E0.53195
G1 X86.743 Y75.078 E0.58469
G1 X143.564 Y75.079 E3.4195
G1 X144.26 Y75.089 E3.45423
G1 X145.29 Y75.144 E3.50569
G1 X146.312 Y75.279 E3.55712
G1 X147.749 Y75.607 E3.63066
G1 X148.263 Y75.755 E3.65734
G1 X149.242 Y76.079 E3.70879
G1 X150.194 Y76.477 E3.76027
G1 X151.111 Y76.948 E3.8117
G1 X151.989 Y77.489 E3.86315
G1 X152.823 Y78.096 E3.91462
G1 X153.607 Y78.766 E3.96607
G1 X154.337 Y79.494 E4.0175
G1 X155.008 Y80.277 E4.06895
G1 X155.617 Y81.11 E4.12043
G1 X156.159 Y81.987 E4.17186
G1 X156.632 Y82.904 E4.22334
G1 X157.032 Y83.854 E4.27477
G1 X157.357 Y84.833 E4.32623
G1 X157.606 Y85.834 E4.37769
G1 X157.776 Y86.851 E4.42913
G1 X157.881 Y88.311 E4.50216
G1 X157.897 Y89.364 E4.5547
G1 X157.896 Y136.892 E6.92588
G1 X157.886 Y137.595 E6.96096
G1 X157.831 Y138.625 E7.01242
G1 X157.697 Y139.648 E7.06389
G1 X157.484 Y140.657 E7.11534
G1 X157.18 Y141.686 E7.16887
G1 X157.076 Y141.992 E7.185
G1 X156.706 Y142.955 E7.23646
G1 X156.263 Y143.886 E7.2879
G1 X155.749 Y144.78 E7.33935
G1 X155.168 Y145.632 E7.3908
G1 X154.522 Y146.436 E7.44226
G1 X153.66 Y147.345 E7.50475
G1 X152.808 Y148.107 E7.56178
G1 X151.989 Y148.733 E7.61321
G1 X151.123 Y149.294 E7.66469
G1 X150.217 Y149.786 E7.71612
G1 X149.464 Y150.131 E7.75745
G1 X148.506 Y150.511 E7.80886
G1 X147.52 Y150.815 E7.86034
G1 X146.514 Y151.042 E7.91179
G1 X145.494 Y151.191 E7.96322
G1 X144.298 Y151.263 E8.023
G1 X143.32 Y151.277 E8.07179
G1 X86.469 Y151.273 E10.9081
G1 X85.763 Y151.262 E10.94333
G1 X84.733 Y151.206 E10.99479
G1 X83.711 Y151.071 E11.04622
G1 X82.624 Y150.841 E11.10165
G1 X81.537 Y150.522 E11.15817
G1 X80.572 Y150.157 E11.20964
G1 X79.639 Y149.717 E11.26111
G1 X78.743 Y149.207 E11.31254
G1 X77.889 Y148.629 E11.36399
G1 X77.212 Y148.096 E11.40698
G1 X76.968 Y147.891 E11.42288
G1 X76.204 Y147.198 E11.47434
G1 X75.497 Y146.447 E11.5258
G1 X74.85 Y145.644 E11.57724
G1 X74.267 Y144.793 E11.62871
G1 X73.752 Y143.9 E11.68014
G1 X73.308 Y142.969 E11.7316
G1 X73.063 Y142.36 E11.76435
G1 X72.951 Y142.06 E11.78032
G1 X72.628 Y141.08 E11.8318
G1 X72.382 Y140.079 E11.88323
G1 X72.214 Y139.061 E11.9347
G1 X72.113 Y137.632 E12.00618
G1 X72.102 Y136.873 E12.04405
G1 X72.103 Y89.256 E14.41967
G1 X72.116 Y88.336 E14.46557
G1 X72.171 Y87.306 E14.51703
G1 X72.307 Y86.284 E14.56847
G1 X72.521 Y85.275 E14.61993
G1 X72.813 Y84.286 E14.67138
G1 X73.18 Y83.322 E14.72284
G1 X73.621 Y82.39 E14.77428
G1 X74.133 Y81.494 E14.82576
G1 X74.713 Y80.642 E14.87718
G1 X75.357 Y79.836 E14.92865
G1 X76.062 Y79.083 E14.98012
G0 F6000 X76.649 Y79.35
G1 F1200 X77.405 Y78.683 E15.03041
G1 X78.212 Y78.08 E15.08067
G1 X79.064 Y77.541 E15.13097
G1 X79.956 Y77.073 E15.18123
G1 X80.883 Y76.676 E15.23154
G1 X81.776 Y76.372 E15.2786
G1 X82.271 Y76.224 E15.30438
G1 X83.247 Y75.974 E15.35464
G1 X84.24 Y75.802 E15.40492
G1 X85.696 Y75.694 E15.47776
G1 X86.743 Y75.678 E15.53
G1 X143.555 Y75.679 E18.36436
G1 X144.251 Y75.689 E18.39909
G1 X145.258 Y75.744 E18.44941
G1 X146.257 Y75.878 E18.49969
G1 X147.583 Y76.184 E18.56759
G1 X148.097 Y76.332 E18.59427
G1 X149.054 Y76.649 E18.64457
G1 X149.982 Y77.041 E18.69483
G1 X150.877 Y77.505 E18.74512
G1 X151.731 Y78.039 E18.79537
G1 X152.541 Y78.639 E18.84566
G1 X153.301 Y79.301 E18.89595
G1 X154.006 Y80.021 E18.94622
G1 X154.651 Y80.795 E18.99648
G1 X155.233 Y81.618 E19.04677
G1 X155.748 Y82.484 E19.09704
G1 X156.193 Y83.388 E19.14731
G1 X156.565 Y84.325 E19.19761
G1 X156.861 Y85.288 E19.24787
G1 X157.08 Y86.272 E19.29816
G1 X157.22 Y87.27 E19.34844
G1 X157.281 Y88.321 E19.40096
G1 X157.297 Y89.364 E19.453
G1 X157.296 Y136.884 E21.82379
G1 X157.286 Y137.587 E21.85886
G1 X157.231 Y138.593 E21.90913
G1 X157.097 Y139.592 E21.95941
G1 X156.885 Y140.577 E22.00968
G1 X156.611 Y141.493 E22.05738
G1 X156.507 Y141.799 E22.07351
G1 X156.146 Y142.739 E22.12374
G1 X155.71 Y143.648 E22.17404
G1 X155.204 Y144.52 E22.22434
G1 X154.631 Y145.348 E22.27457
G1 X153.993 Y146.129 E22.32489
G1 X153.238 Y146.919 E22.3794
G1 X152.408 Y147.659 E22.43488
G1 X151.606 Y148.269 E22.48515
G1 X150.757 Y148.813 E22.53546
G1 X149.462 Y149.476 E22.60804
G1 X149.222 Y149.582 E22.62113
G1 X148.285 Y149.953 E22.67141
G1 X147.321 Y150.247 E22.72169
G1 X146.337 Y150.465 E22.77197
G1 X145.339 Y150.604 E22.82224
G1 X144.289 Y150.663 E22.87471
G1 X143.32 Y150.677 E22.92306
G1 X86.478 Y150.673 E25.75892
G1 X85.772 Y150.662 E25.79414
G1 X84.766 Y150.607 E25.84441
G1 X83.767 Y150.472 E25.8947
G1 X82.767 Y150.258 E25.94572
G1 X81.706 Y149.946 E26.0009
G1 X80.764 Y149.586 E26.05121
G1 X79.855 Y149.153 E26.10144
G1 X78.982 Y148.649 E26.15173
G1 X78.152 Y148.077 E26.20202
G1 X77.598 Y147.637 E26.23732
G1 X77.354 Y147.432 E26.25322
G1 X76.608 Y146.753 E26.30354
G1 X75.919 Y146.018 E26.3538
G1 X75.29 Y145.23 E26.40411
G1 X74.726 Y144.395 E26.45438
G1 X74.23 Y143.518 E26.50464
G1 X73.625 Y142.15 E26.57927
G1 X73.513 Y141.85 E26.59525
G1 X73.198 Y140.893 E26.64551
G1 X72.961 Y139.913 E26.69581
G1 X72.801 Y138.918 E26.74609
G1 X72.713 Y137.622 E26.8109
G1 X72.702 Y136.873 E26.84827
G1 X72.704 Y89.061 E29.23362
G1 X72.715 Y88.345 E29.26935
G1 X72.771 Y87.339 E29.31961
G1 X72.906 Y86.34 E29.36991
G1 X73.12 Y85.355 E29.4202
G1 X73.411 Y84.39 E29.47048
G1 X73.778 Y83.452 E29.52073
G1 X74.218 Y82.545 E29.57103
G1 X74.729 Y81.676 E29.62132
G1 X75.306 Y80.851 E29.67155
G1 X75.948 Y80.073 E29.72187
G1 X76.649 Y79.35 E29.77211
G0 F6000 X77.235 Y79.623
G1 F1200 X77.986 Y78.988 E29.82118
G1 X78.787 Y78.416 E29.87028
G1 X79.631 Y77.911 E29.91935
G1 X80.513 Y77.477 E29.9684
G1 X81.428 Y77.115 E30.01749
G1 X81.948 Y76.947 E30.04475
G1 X82.443 Y76.799 E30.07053
G1 X83.396 Y76.556 E30.11959
G1 X84.366 Y76.391 E30.16868
G1 X85.706 Y76.294 E30.23571
G1 X86.743 Y76.278 E30.28745
G1 X143.547 Y76.279 E33.12142
G1 X144.243 Y76.289 E33.15614
G1 X145.225 Y76.343 E33.20521
G1 X146.2 Y76.477 E33.25431
G1 X147.417 Y76.76 E33.31665
G1 X147.931 Y76.908 E33.34333
G1 X148.864 Y77.219 E33.3924
G1 X149.77 Y77.604 E33.44151
G1 X150.64 Y78.061 E33.49054
G1 X151.471 Y78.588 E33.53963
G1 X152.257 Y79.18 E33.58872
G1 X152.991 Y79.835 E33.6378
G1 X153.67 Y80.546 E33.68685
G1 X154.289 Y81.311 E33.73595
G1 X154.844 Y82.123 E33.78502
G1 X155.331 Y82.978 E33.83411
G1 X155.747 Y83.869 E33.88316
G1 X156.089 Y84.791 E33.93223
G1 X156.355 Y85.738 E33.9813
G1 X156.543 Y86.704 E34.0304
G1 X156.653 Y87.681 E34.07945
G1 X156.681 Y88.331 E34.11191
G1 X156.697 Y89.364 E34.16345
G1 X156.696 Y136.875 E36.53378
G1 X156.686 Y137.578 E36.56886
G1 X156.632 Y138.56 E36.61793
G1 X156.498 Y139.535 E36.66703
G1 X156.286 Y140.495 E36.71607
G1 X156.043 Y141.3 E36.75803
G1 X155.939 Y141.606 E36.77415
G1 X155.585 Y142.523 E36.82319
G1 X155.158 Y143.409 E36.87226
G1 X154.66 Y144.258 E36.92136
G1 X154.094 Y145.063 E36.97046
G1 X153.466 Y145.819 E37.01949
G1 X152.814 Y146.494 E37.06631
G1 X152.008 Y147.211 E37.12013
G1 X151.223 Y147.804 E37.16921
G1 X150.393 Y148.331 E37.21827
G1 X149.22 Y148.928 E37.28393
G1 X148.98 Y149.034 E37.29702
G1 X148.064 Y149.394 E37.34612
G1 X147.123 Y149.679 E37.39517
G1 X146.161 Y149.887 E37.44428
G1 X145.186 Y150.015 E37.49334
G1 X144.279 Y150.064 E37.53865
G1 X143.508 Y150.076 E37.57712
G1 X86.487 Y150.074 E40.42191
G1 X85.781 Y150.063 E40.45714
G1 X84.799 Y150.007 E40.50621
G1 X83.825 Y149.872 E40.55527
G1 X82.911 Y149.675 E40.60192
G1 X81.875 Y149.37 E40.6558
G1 X80.957 Y149.016 E40.70488
G1 X80.071 Y148.589 E40.75395
G1 X79.223 Y148.091 E40.80301
G1 X78.418 Y147.526 E40.85208
G1 X77.739 Y146.972 E40.8958
G1 X77.013 Y146.309 E40.94485
G1 X76.342 Y145.59 E40.99392
G1 X75.732 Y144.818 E41.043
G1 X75.187 Y143.999 E41.09208
G1 X74.71 Y143.139 E41.14115
G1 X74.187 Y141.94 E41.20641
G1 X74.075 Y141.64 E41.22239
G1 X73.769 Y140.705 E41.27147
G1 X73.54 Y139.749 E41.32051
G1 X73.389 Y138.777 E41.36959
G1 X73.313 Y137.612 E41.42783
G1 X73.302 Y136.873 E41.46471
G1 X73.304 Y89.07 E43.84961
G1 X73.315 Y88.354 E43.88533
G1 X73.371 Y87.372 E43.9344
G1 X73.505 Y86.398 E43.98345
G1 X73.719 Y85.437 E44.03257
G1 X74.009 Y84.498 E44.0816
G1 X74.375 Y83.585 E44.13068
G1 X74.814 Y82.704 E44.17979
G1 X75.323 Y81.863 E44.22883
G1 X75.899 Y81.065 E44.27793
G1 X76.538 Y80.317 E44.32701
G1 X77.235 Y79.623 E44.37608
G0 F6000 X77.82 Y79.904
G1 F1200 X78.566 Y79.302 E44.42391
G1 X79.359 Y78.763 E44.47174
G1 X80.195 Y78.293 E44.51959
G1 X81.067 Y77.893 E44.56745
G1 X82.12 Y77.522 E44.62315
G1 X82.615 Y77.374 E44.64893
G1 X83.544 Y77.138 E44.69675
G1 X84.49 Y76.98 E44.7446
G1 X85.716 Y76.894 E44.80592
G1 X86.743 Y76.878 E44.85716
G1 X143.538 Y76.879 E47.69067
G1 X144.234 Y76.889 E47.7254
G1 X145.192 Y76.943 E47.77327
G1 X146.141 Y77.076 E47.82108
G1 X147.251 Y77.337 E47.87797
G1 X147.765 Y77.485 E47.90465
G1 X148.675 Y77.789 E47.95252
G1 X149.556 Y78.167 E48.00035
G1 X150.402 Y78.617 E48.04815
G1 X151.209 Y79.136 E48.09602
G1 X151.969 Y79.721 E48.14387
G1 X152.677 Y80.367 E48.19169
G1 X153.33 Y81.07 E48.23956
G1 X153.922 Y81.825 E48.28742
G1 X154.448 Y82.626 E48.33523
G1 X154.906 Y83.469 E48.38309
G1 X155.293 Y84.346 E48.43092
G1 X155.604 Y85.253 E48.47876
G1 X155.84 Y86.183 E48.52662
G1 X155.997 Y87.129 E48.57447
G1 X156.081 Y88.342 E48.63513
G1 X156.097 Y89.364 E48.68612
G1 X156.096 Y136.867 E51.05606
G1 X156.086 Y137.57 E51.09113
G1 X156.032 Y138.527 E51.13895
G1 X155.899 Y139.477 E51.18681
G1 X155.687 Y140.412 E51.23464
G1 X155.475 Y141.107 E51.27089
G1 X155.371 Y141.413 E51.28702
G1 X155.025 Y142.307 E51.33484
G1 X154.606 Y143.169 E51.38266
G1 X154.116 Y143.994 E51.43053
G1 X153.559 Y144.774 E51.47835
G1 X152.939 Y145.506 E51.52621
G1 X152.326 Y146.126 E51.56971
G1 X151.609 Y146.763 E51.61756
G1 X150.842 Y147.338 E51.66538
G1 X150.03 Y147.848 E51.71322
G1 X148.977 Y148.379 E51.77205
G1 X148.737 Y148.485 E51.78514
G1 X147.845 Y148.835 E51.83295
G1 X146.926 Y149.11 E51.88081
G1 X145.987 Y149.308 E51.92868
G1 X145.036 Y149.426 E51.97649
G1 X144.27 Y149.464 E52.01476
G1 X143.499 Y149.476 E52.05323
G1 X86.497 Y149.474 E54.89707
G1 X85.791 Y149.463 E54.93229
G1 X84.833 Y149.408 E54.98017
G1 X83.884 Y149.273 E55.02799
G1 X83.052 Y149.092 E55.07047
G1 X82.045 Y148.794 E55.12286
G1 X81.152 Y148.446 E55.17068
G1 X80.29 Y148.025 E55.21854
G1 X79.467 Y147.534 E55.26635
G1 X78.369 Y146.718 E55.3346
G1 X78.125 Y146.513 E55.3505
G1 X77.418 Y145.866 E55.39831
G1 X76.766 Y145.162 E55.44618
G1 X76.175 Y144.407 E55.49402
G1 X75.65 Y143.605 E55.54184
G1 X75.193 Y142.762 E55.58968
G1 X74.749 Y141.73 E55.64573
G1 X74.637 Y141.43 E55.66171
G1 X74.34 Y140.519 E55.70951
G1 X74.119 Y139.585 E55.7574
G1 X73.977 Y138.637 E55.80522
G1 X73.913 Y137.601 E55.857
G1 X73.902 Y136.873 E55.89333
G1 X73.904 Y89.079 E58.27778
G1 X73.915 Y88.363 E58.31351
G1 X73.97 Y87.406 E58.36133
G1 X74.104 Y86.456 E58.4092
G1 X74.317 Y85.521 E58.45704
G1 X74.607 Y84.607 E58.50488
G1 X74.973 Y83.721 E58.5527
G1 X75.41 Y82.868 E58.60052
G1 X75.918 Y82.054 E58.64839
G1 X76.491 Y81.285 E58.69623
G1 X77.127 Y80.567 E58.74409
G1 X77.82 Y79.904 E58.79194
G0 F6000 X78.403 Y80.194
G1 F1200 X79.143 Y79.625 E58.83851
G1 X79.929 Y79.121 E58.88509
G1 X80.755 Y78.686 E58.93166
G1 X81.616 Y78.323 E58.97828
G1 X82.292 Y78.097 E59.01384
G1 X82.787 Y77.949 E59.03962
G1 X83.692 Y77.72 E59.08619
G1 X84.613 Y77.569 E59.13275
G1 X85.726 Y77.494 E59.18841
G1 X86.743 Y77.478 E59.23915
G1 X143.53 Y77.479 E62.07227
G1 X144.226 Y77.489 E62.10699
G1 X145.158 Y77.543 E62.15357
G1 X146.082 Y77.675 E62.20014
G1 X147.085 Y77.914 E62.25158
G1 X147.599 Y78.062 E62.27826
G1 X148.484 Y78.358 E62.32482
G1 X149.341 Y78.729 E62.37141
G1 X150.163 Y79.172 E62.418
G1 X150.943 Y79.684 E62.46455
G1 X151.678 Y80.261 E62.51116
G1 X152.36 Y80.898 E62.55772
G1 X152.985 Y81.592 E62.60432
G1 X153.548 Y82.336 E62.65087
G1 X154.046 Y83.126 E62.69746
G1 X154.474 Y83.956 E62.74405
G1 X154.83 Y84.819 E62.79062
G1 X155.11 Y85.709 E62.83717
G1 X155.313 Y86.621 E62.88378
G1 X155.438 Y87.546 E62.93035
G1 X155.481 Y88.352 E62.97062
G1 X155.497 Y89.364 E63.02111
G1 X155.496 Y136.858 E65.3906
G1 X155.486 Y137.561 E65.42568
G1 X155.433 Y138.493 E65.47225
G1 X155.3 Y139.417 E65.51882
G1 X155.088 Y140.327 E65.56544
G1 X154.907 Y140.914 E65.59608
G1 X154.803 Y141.22 E65.61221
G1 X154.465 Y142.09 E65.65877
G1 X154.054 Y142.928 E65.70534
G1 X153.573 Y143.728 E65.75191
G1 X153.024 Y144.484 E65.79852
G1 X152.414 Y145.19 E65.84507
G1 X151.909 Y145.694 E65.88067
G1 X151.21 Y146.314 E65.92728
G1 X150.461 Y146.872 E65.97388
G1 X149.668 Y147.363 E66.02041
G1 X148.735 Y147.83 E66.07247
G1 X148.495 Y147.936 E66.08555
G1 X147.625 Y148.276 E66.13216
G1 X146.73 Y148.541 E66.17872
G1 X145.815 Y148.728 E66.22532
G1 X144.888 Y148.836 E66.27188
G1 X144.261 Y148.864 E66.30319
G1 X143.32 Y148.877 E66.35014
G1 X86.506 Y148.874 E69.1846
G1 X85.8 Y148.863 E69.21983
G1 X84.868 Y148.808 E69.26641
G1 X83.944 Y148.674 E69.31299
G1 X83.111 Y148.484 E69.35562
G1 X82.216 Y148.218 E69.4022
G1 X81.347 Y147.877 E69.44877
G1 X80.511 Y147.462 E69.49534
G1 X79.713 Y146.977 E69.54192
G1 X78.755 Y146.259 E69.60165
G1 X78.511 Y146.054 E69.61755
G1 X77.823 Y145.423 E69.66413
G1 X77.191 Y144.736 E69.7107
G1 X76.62 Y143.997 E69.75729
G1 X76.115 Y143.212 E69.80386
G1 X75.678 Y142.387 E69.85044
G1 X75.311 Y141.52 E69.89741
G1 X75.199 Y141.22 E69.91338
G1 X74.911 Y140.333 E69.95991
G1 X74.699 Y139.423 E70.00652
G1 X74.566 Y138.499 E70.0531
G1 X74.513 Y137.591 E70.09848
G1 X74.502 Y136.873 E70.1343
G1 X74.504 Y89.089 E72.51825
G1 X74.515 Y88.373 E72.55398
G1 X74.57 Y87.441 E72.60056
G1 X74.703 Y86.517 E72.64713
G1 X74.916 Y85.607 E72.69376
G1 X75.205 Y84.72 E72.7403
G1 X75.57 Y83.86 E72.78691
G1 X76.006 Y83.035 E72.83347
G1 X76.512 Y82.25 E72.88006
G1 X77.083 Y81.512 E72.92661
G1 X77.715 Y80.824 E72.97322
G1 X78.403 Y80.194 E73.01976
G0 F6000 X78.985 Y80.493
G1 F1200 X79.718 Y79.958 E73.06504
G1 X80.496 Y79.49 E73.11033
G1 X81.312 Y79.092 E73.15563
G1 X82.463 Y78.672 E73.21675
G1 X82.958 Y78.524 E73.24253
G1 X83.839 Y78.302 E73.28786
G1 X84.735 Y78.159 E73.33313
G1 X85.736 Y78.093 E73.38317
G1 X86.57 Y78.079 E73.42479
G1 X143.521 Y78.079 E76.26608
G1 X144.217 Y78.089 E76.30081
G1 X145.123 Y78.142 E76.34609
G1 X146.021 Y78.275 E76.39138
G1 X146.919 Y78.49 E76.43745
G1 X147.433 Y78.638 E76.46413
G1 X148.293 Y78.927 E76.5094
G1 X149.125 Y79.291 E76.5547
G1 X149.921 Y79.727 E76.59998
G1 X150.675 Y80.231 E76.64523
G1 X151.383 Y80.799 E76.69051
G1 X152.037 Y81.428 E76.73578
G1 X152.634 Y82.112 E76.78108
G1 X153.168 Y82.845 E76.82632
G1 X153.636 Y83.623 E76.87162
G1 X154.033 Y84.439 E76.91689
G1 X154.357 Y85.287 E76.96218
G1 X154.605 Y86.16 E77.00746
G1 X154.775 Y87.051 E77.05271
G1 X154.882 Y88.362 E77.11834
G1 X154.896 Y89.19 E77.15965
G1 X154.896 Y136.85 E79.53742
G1 X154.886 Y137.553 E79.5725
G1 X154.833 Y138.458 E79.61772
G1 X154.701 Y139.356 E79.66301
G1 X154.49 Y140.239 E79.7083
G1 X154.235 Y141.026 E79.74957
