;FLAVOR:Marlin
;TIME:7473
;Filament used: 6.42461m
;Layer height: 0.16
;MINX:58.851
;MINY:75.138
;MINZ:0.2
;MAXX:160.704
;MAXY:178.57
;MAXZ:39.92
;Generated with Cura_SteamEngine 5.4.0
M140 S70
M105
M190 S70
M104 S215
M105
M109 S215
M82 ;absolute extrusion mode
M201 X500.00 Y500.00 Z100.00 E5000.00 ;Setup machine max acceleration
M203 X500.00 Y500.00 Z10.00 E50.00 ;Setup machine max feedrate
M204 P500.00 R1000.00 T500.00 ;Setup Print/Retract/Travel acceleration
M205 X8.00 Y8.00 Z0.40 E5.00 ;Setup Jerk
M220 S100 ;Reset Feedrate
M221 S100 ;Reset Flowrate

G28 ;Home

G92 E0 ;Reset Extruder
G1 Z2.0 F3000 ;Move Z Axis up
G1 X10.1 Y20 Z0.28 F5000.0 ;Move to start position
G1 X10.1 Y200.0 Z0.28 F1500.0 E15 ;Draw the first line
G1 X10.4 Y200.0 Z0.28 F5000.0 ;Move to side a little
G1 X10.4 Y20 Z0.28 F1500.0 E30 ;Draw the second line
G92 E0 ;Reset Extruder
G1 Z2.0 F3000 ;Move Z Axis up

G92 E0
G92 E0
G1 F1500 E-5
;LAYER_COUNT:223
;LAYER:0
M107
G0 F6000 X64.59 Y107.969 Z0.2
;TYPE:SKIRT
G1 F1500 E0
G1 F1200 X101.594 Y78.531 E2.35907
G1 X102.402 Y77.912 E2.40985
G1 X103.365 Y77.249 E2.46818
G1 X104.332 Y76.699 E2.52368
G1 X105.197 Y76.293 E2.57135
G1 X106.421 Y75.838 E2.6365
G1 X107.533 Y75.513 E2.6943
G1 X108.421 Y75.329 E2.73954
G1 X109.848 Y75.164 E2.81121
G1 X110.755 Y75.138 E2.85648
G1 X112.084 Y75.214 E2.92289
G1 X113.203 Y75.38 E2.97933
G1 X113.693 Y75.479 E3.00427
G1 X114.676 Y75.725 E3.05483
G1 X115.942 Y76.162 E3.12164
G1 X117.002 Y76.642 E3.1797
G1 X117.845 Y77.11 E3.2278
G1 X119.243 Y78.071 E3.31244
G1 X120.071 Y78.766 E3.36637
G1 X120.98 Y79.671 E3.43036
G1 X121.401 Y80.154 E3.46233
G1 X122.208 Y81.128 E3.52543
G1 X157.284 Y125.219 E6.33631
G1 X157.831 Y125.926 E6.38091
G1 X158.584 Y127.017 E6.44705
G1 X159.196 Y128.112 E6.50963
G1 X159.45 Y128.634 E6.53859
G1 X159.826 Y129.519 E6.58656
G1 X160.239 Y130.787 E6.6531
G1 X160.468 Y131.775 E6.70369
G1 X160.661 Y133.194 E6.77514
G1 X160.704 Y134.475 E6.83908
G1 X160.695 Y134.959 E6.86324
G1 X160.589 Y136.283 E6.9295
G1 X160.403 Y137.381 E6.98506
G1 X160.137 Y138.413 E7.03823
G1 X159.686 Y139.674 E7.10505
G1 X159.188 Y140.744 E7.16393
G1 X158.609 Y141.751 E7.22188
G1 X158.388 Y142.093 E7.24219
G1 X157.718 Y143.03 E7.29966
G1 X156.881 Y144 E7.36358
G1 X155.834 Y144.992 E7.43554
G1 X155.202 Y145.521 E7.47666
G1 X117.731 Y175.329 E9.86545
G1 X117.006 Y175.886 E9.91106
G1 X116.132 Y176.494 E9.96418
G1 X115.168 Y177.051 E10.01973
G1 X113.956 Y177.613 E10.08638
G1 X113.003 Y177.956 E10.13691
G1 X111.878 Y178.258 E10.19502
G1 X110.555 Y178.483 E10.26197
G1 X109.405 Y178.57 E10.31951
G1 X108.497 Y178.568 E10.36481
G1 X107.059 Y178.435 E10.43686
G1 X106.01 Y178.241 E10.49008
G1 X104.885 Y177.931 E10.5483
G1 X103.836 Y177.542 E10.60412
G1 X102.763 Y177.031 E10.66341
G1 X101.397 Y176.203 E10.7431
G1 X100.892 Y175.85 E10.77384
G1 X99.904 Y175.078 E10.8364
G1 X99.124 Y174.353 E10.88953
G1 X98.297 Y173.445 E10.9508
G1 X97.702 Y172.723 E10.99748
G1 X62.364 Y128.302 E13.82938
G1 X61.755 Y127.515 E13.87902
G1 X61.101 Y126.572 E13.93628
G1 X60.546 Y125.606 E13.99186
G1 X60.056 Y124.555 E14.04971
G1 X59.804 Y123.937 E14.08301
G1 X59.426 Y122.867 E14.13962
G1 X59.179 Y121.941 E14.18744
G1 X58.936 Y120.511 E14.2598
G1 X58.851 Y119.351 E14.31783
G1 X58.857 Y118.443 E14.36313
G1 X58.993 Y117.009 E14.435
G1 X59.181 Y116.011 E14.48566
G1 X59.544 Y114.732 E14.55199
G1 X59.943 Y113.692 E14.60757
G1 X60.381 Y112.779 E14.65809
G1 X61.094 Y111.585 E14.72747
G1 X61.719 Y110.725 E14.78051
G1 X62.5 Y109.825 E14.83996
G1 X63.579 Y108.808 E14.91393
G1 X64.59 Y107.969 E14.97948
G0 F6000 X64.964 Y108.439
G1 F1200 X101.959 Y79.007 E17.33801
G1 X102.743 Y78.406 E17.38729
G1 X103.662 Y77.771 E17.44302
G1 X104.629 Y77.221 E17.49852
G1 X105.451 Y76.837 E17.54379
G1 X106.59 Y76.414 E17.6044
G1 X107.655 Y76.101 E17.65978
G1 X108.543 Y75.917 E17.70503
G1 X109.865 Y75.764 E17.77142
G1 X110.772 Y75.738 E17.81669
G1 X111.996 Y75.808 E17.87786
G1 X113.115 Y75.974 E17.93429
G1 X113.549 Y76.061 E17.95638
G1 X114.481 Y76.292 E18.00428
G1 X115.695 Y76.709 E18.06832
G1 X116.711 Y77.167 E18.12392
G1 X117.554 Y77.635 E18.17203
G1 X118.857 Y78.531 E18.25092
G1 X119.685 Y79.226 E18.30485
G1 X120.528 Y80.065 E18.36419
G1 X120.939 Y80.537 E18.39541
G1 X121.738 Y81.502 E18.45792
G1 X156.809 Y125.586 E21.26837
G1 X157.356 Y126.293 E21.31297
G1 X158.06 Y127.31 E21.37468
G1 X158.672 Y128.405 E21.43726
G1 X158.898 Y128.87 E21.46305
G1 X159.255 Y129.705 E21.50836
G1 X159.668 Y130.973 E21.57489
G1 X159.883 Y131.909 E21.6228
G1 X160.061 Y133.214 E21.68851
G1 X160.104 Y134.495 E21.75246
G1 X160.095 Y134.947 E21.77501
G1 X159.997 Y136.183 E21.83687
G1 X159.811 Y137.281 E21.89243
G1 X159.572 Y138.212 E21.94039
G1 X159.142 Y139.422 E22.00445
G1 X158.668 Y140.445 E22.0607
G1 X158.105 Y141.426 E22.11713
G1 X157.899 Y141.745 E22.13608
G1 X157.263 Y142.639 E22.19081
G1 X156.468 Y143.564 E22.25166
G1 X155.421 Y144.556 E22.32362
G1 X154.828 Y145.051 E22.36216
G1 X117.366 Y174.853 E24.75041
G1 X116.663 Y175.393 E24.79464
G1 X115.789 Y176.001 E24.84776
G1 X114.915 Y176.507 E24.89814
G1 X113.753 Y177.048 E24.96209
G1 X112.8 Y177.391 E25.01262
G1 X111.776 Y177.667 E25.06553
G1 X110.509 Y177.885 E25.12967
G1 X109.406 Y177.97 E25.18486
G1 X108.498 Y177.968 E25.23016
G1 X107.168 Y177.845 E25.2968
G1 X106.119 Y177.651 E25.35002
G1 X105.094 Y177.368 E25.40307
G1 X104.045 Y176.979 E25.45889
G1 X103.074 Y176.518 E25.51252
G1 X101.741 Y175.711 E25.59026
G1 X101.236 Y175.358 E25.621
G1 X100.312 Y174.638 E25.67944
G1 X99.568 Y173.949 E25.73003
G1 X98.741 Y173.041 E25.7913
G1 X98.172 Y172.349 E25.836
G1 X62.839 Y127.935 E28.66747
G1 X62.23 Y127.148 E28.71712
G1 X61.594 Y126.23 E28.77283
G1 X61.09 Y125.352 E28.82334
G1 X60.612 Y124.328 E28.87972
G1 X60.36 Y123.71 E28.91302
G1 X60.006 Y122.712 E28.96585
G1 X59.759 Y121.786 E29.01366
G1 X59.534 Y120.466 E29.08047
G1 X59.451 Y119.355 E29.13605
G1 X59.457 Y118.447 E29.18135
G1 X59.583 Y117.12 E29.24785
G1 X59.771 Y116.122 E29.29852
G1 X60.104 Y114.946 E29.3595
G1 X60.484 Y113.952 E29.41259
G1 X60.922 Y113.039 E29.46311
G1 X61.579 Y111.938 E29.52707
G1 X62.204 Y111.078 E29.58011
G1 X62.912 Y110.262 E29.63401
G1 X63.991 Y109.245 E29.70798
G1 X64.964 Y108.439 E29.77102
G0 F6000 X65.338 Y108.909
G1 F1200 X102.324 Y79.483 E32.12901
G1 X103.085 Y78.899 E32.17687
G1 X103.96 Y78.292 E32.23
G1 X104.883 Y77.765 E32.28303
G1 X105.705 Y77.381 E32.32829
G1 X106.76 Y76.989 E32.38444
G1 X107.777 Y76.689 E32.43734
G1 X108.665 Y76.505 E32.48258
G1 X109.882 Y76.364 E32.54371
G1 X110.789 Y76.338 E32.58897
G1 X111.908 Y76.402 E32.64489
G1 X113.027 Y76.568 E32.70133
G1 X113.406 Y76.644 E32.72062
G1 X114.287 Y76.86 E32.76587
G1 X115.449 Y77.256 E32.82712
G1 X116.42 Y77.692 E32.88022
G1 X117.263 Y78.16 E32.92832
G1 X118.471 Y78.991 E33.00147
G1 X119.299 Y79.686 E33.05541
G1 X120.076 Y80.459 E33.11009
G1 X120.477 Y80.919 E33.14053
G1 X121.268 Y81.876 E33.20248
G1 X156.334 Y125.953 E36.0125
G1 X156.881 Y126.66 E36.05709
G1 X157.536 Y127.603 E36.11438
G1 X158.148 Y128.698 E36.17696
G1 X158.346 Y129.106 E36.19959
G1 X158.703 Y129.941 E36.24489
G1 X159.083 Y131.107 E36.30607
G1 X159.298 Y132.043 E36.35399
G1 X159.461 Y133.234 E36.41396
G1 X159.504 Y134.515 E36.47791
G1 X159.495 Y134.934 E36.49882
G1 X159.405 Y136.084 E36.55636
G1 X159.229 Y137.133 E36.60943
G1 X159.006 Y138.012 E36.65467
G1 X158.597 Y139.171 E36.71599
G1 X158.148 Y140.146 E36.76954
G1 X157.6 Y141.101 E36.82448
G1 X157.409 Y141.398 E36.84209
G1 X156.807 Y142.249 E36.8941
G1 X156.055 Y143.128 E36.95181
G1 X155.008 Y144.12 E37.02377
G1 X154.454 Y144.581 E37.05973
G1 X117.001 Y174.377 E39.44744
G1 X116.32 Y174.9 E39.49028
G1 X115.446 Y175.508 E39.5434
G1 X114.615 Y175.987 E39.59125
G1 X113.55 Y176.483 E39.64987
G1 X112.597 Y176.826 E39.7004
G1 X111.673 Y177.076 E39.74815
G1 X110.462 Y177.287 E39.80948
G1 X109.407 Y177.37 E39.86228
G1 X108.499 Y177.368 E39.90758
G1 X107.277 Y177.255 E39.9688
G1 X106.228 Y177.061 E40.02203
G1 X105.303 Y176.805 E40.06991
G1 X104.254 Y176.416 E40.12573
G1 X103.385 Y176.005 E40.17368
G1 X102.052 Y175.198 E40.25143
G1 X101.604 Y174.884 E40.27872
G1 X100.72 Y174.198 E40.33454
G1 X99.976 Y173.509 E40.38513
G1 X99.205 Y172.66 E40.44235
G1 X98.642 Y171.975 E40.48659
G1 X63.313 Y127.568 E43.31766
G1 X62.723 Y126.806 E43.36574
G1 X62.114 Y125.93 E43.41897
G1 X61.634 Y125.098 E43.46689
G1 X61.156 Y124.074 E43.52327
G1 X60.925 Y123.509 E43.55372
G1 X60.586 Y122.557 E43.60414
G1 X60.339 Y121.631 E43.65195
G1 X60.132 Y120.42 E43.71325
G1 X60.051 Y119.359 E43.76633
G1 X60.057 Y118.451 E43.81164
G1 X60.173 Y117.231 E43.87278
G1 X60.361 Y116.233 E43.92344
G1 X60.665 Y115.159 E43.97913
G1 X61.025 Y114.212 E44.02967
G1 X61.463 Y113.299 E44.08019
G1 X62.064 Y112.291 E44.13874
G1 X62.689 Y111.431 E44.19178
G1 X63.324 Y110.699 E44.24013
G1 X64.403 Y109.682 E44.3141
G1 X65.338 Y108.909 E44.37463
G0 F6000 X65.712 Y109.379
G1 F1200 X102.698 Y79.953 E46.73262
G1 X103.428 Y79.391 E46.77858
G1 X104.258 Y78.813 E46.82904
G1 X105.137 Y78.309 E46.8796
G1 X105.959 Y77.925 E46.92486
G1 X106.93 Y77.564 E46.97654
G1 X107.899 Y77.277 E47.02696
G1 X108.787 Y77.093 E47.07221
G1 X109.899 Y76.964 E47.12806
G1 X110.806 Y76.938 E47.17332
G1 X111.873 Y77.001 E47.22665
G1 X112.909 Y77.156 E47.27891
G1 X113.263 Y77.227 E47.29692
G1 X114.144 Y77.443 E47.34218
G1 X115.204 Y77.804 E47.39805
G1 X116.129 Y78.217 E47.44858
G1 X116.972 Y78.685 E47.49669
G1 X118.085 Y79.451 E47.5641
G1 X118.913 Y80.146 E47.61803
G1 X119.652 Y80.884 E47.67013
G1 X120.014 Y81.301 E47.69768
G1 X120.798 Y82.25 E47.7591
G1 X155.859 Y126.32 E50.56869
G1 X156.406 Y127.027 E50.61329
G1 X157.012 Y127.896 E50.66614
G1 X157.624 Y128.991 E50.72872
G1 X157.794 Y129.342 E50.74818
G1 X158.151 Y130.177 E50.79349
G1 X158.498 Y131.241 E50.84932
G1 X158.713 Y132.177 E50.89724
G1 X158.861 Y133.254 E50.95147
G1 X158.904 Y134.535 E51.01542
G1 X158.895 Y134.92 E51.03463
G1 X158.813 Y135.986 E51.08797
G1 X158.647 Y136.985 E51.1385
G1 X158.424 Y137.864 E51.18374
G1 X158.052 Y138.921 E51.23964
G1 X157.627 Y139.848 E51.29052
G1 X157.095 Y140.777 E51.34393
G1 X156.918 Y141.053 E51.36029
G1 X156.35 Y141.86 E51.40952
G1 X155.642 Y142.692 E51.46402
G1 X154.595 Y143.684 E51.53598
G1 X154.08 Y144.111 E51.56936
G1 X116.635 Y173.901 E53.95658
G1 X115.976 Y174.408 E53.99806
G1 X115.146 Y174.988 E54.04858
G1 X114.315 Y175.467 E54.09643
G1 X113.347 Y175.918 E54.14971
G1 X112.394 Y176.261 E54.20024
G1 X111.518 Y176.496 E54.24549
G1 X110.414 Y176.689 E54.3014
G1 X109.408 Y176.77 E54.35176
G1 X108.5 Y176.768 E54.39706
G1 X107.385 Y176.665 E54.45292
G1 X106.387 Y176.482 E54.50354
G1 X105.512 Y176.242 E54.54881
G1 X104.463 Y175.853 E54.60462
G1 X103.643 Y175.463 E54.64993
G1 X102.396 Y174.706 E54.7227
G1 X101.971 Y174.409 E54.74857
G1 X101.127 Y173.757 E54.80178
G1 X100.42 Y173.105 E54.84976
G1 X99.669 Y172.279 E54.90546
G1 X99.112 Y171.601 E54.94923
G1 X63.787 Y127.201 E57.77991
G1 X63.215 Y126.462 E57.82653
G1 X62.634 Y125.63 E57.87716
G1 X62.154 Y124.798 E57.92508
G1 X61.711 Y123.847 E57.97742
G1 X61.49 Y123.307 E58.00653
G1 X61.166 Y122.402 E58.05449
G1 X60.919 Y121.476 E58.1023
G1 X60.73 Y120.373 E58.15813
G1 X60.651 Y119.363 E58.20868
G1 X60.657 Y118.455 E58.25398
G1 X60.763 Y117.342 E58.30976
G1 X60.951 Y116.344 E58.36042
G1 X61.226 Y115.371 E58.41087
G1 X61.566 Y114.472 E58.45882
G1 X62.004 Y113.559 E58.50934
G1 X62.55 Y112.643 E58.56254
G1 X63.144 Y111.823 E58.61306
G1 X63.736 Y111.136 E58.6583
G1 X64.815 Y110.119 E58.73228
G1 X65.712 Y109.379 E58.79029
G0 F6000 X66.086 Y109.849
G1 F1200 X103.072 Y80.423 E61.14829
G1 X103.772 Y79.883 E61.19239
G1 X104.558 Y79.333 E61.24025
G1 X105.391 Y78.853 E61.28822
G1 X106.213 Y78.469 E61.33348
G1 X107.101 Y78.139 E61.38074
G1 X108.021 Y77.865 E61.42864
G1 X108.909 Y77.681 E61.47388
G1 X109.916 Y77.564 E61.52446
G1 X110.823 Y77.538 E61.56973
G1 X111.836 Y77.6 E61.62036
G1 X112.791 Y77.744 E61.66854
G1 X113.12 Y77.81 E61.68528
G1 X114.001 Y78.026 E61.73054
G1 X114.96 Y78.352 E61.78107
G1 X115.838 Y78.742 E61.829
G1 X116.681 Y79.21 E61.87711
G1 X117.699 Y79.911 E61.93877
G1 X118.527 Y80.606 E61.9927
G1 X119.199 Y81.278 E62.04012
G1 X119.551 Y81.683 E62.06689
G1 X120.328 Y82.624 E62.12777
G1 X155.384 Y126.687 E64.93694
G1 X155.931 Y127.394 E64.98153
G1 X156.488 Y128.189 E65.02996
G1 X157.1 Y129.284 E65.09254
G1 X157.242 Y129.578 E65.10883
G1 X157.599 Y130.413 E65.15414
G1 X157.913 Y131.375 E65.20463
G1 X158.128 Y132.311 E65.25254
G1 X158.261 Y133.274 E65.30104
G1 X158.304 Y134.555 E65.36498
G1 X158.295 Y134.905 E65.38245
G1 X158.221 Y135.889 E65.43168
G1 X158.065 Y136.837 E65.47961
G1 X157.842 Y137.716 E65.52486
G1 X157.506 Y138.672 E65.57541
G1 X157.106 Y139.55 E65.62355
G1 X156.589 Y140.454 E65.6755
G1 X156.427 Y140.708 E65.69053
G1 X155.859 Y141.515 E65.73977
G1 X155.229 Y142.257 E65.78833
G1 X154.213 Y143.222 E65.85824
G1 X153.706 Y143.641 E65.89105
G1 X116.261 Y173.431 E68.27827
G1 X115.631 Y173.917 E68.31797
G1 X114.845 Y174.469 E68.36589
G1 X114.06 Y174.924 E68.41115
G1 X113.143 Y175.354 E68.46168
G1 X112.239 Y175.681 E68.50964
G1 X111.363 Y175.916 E68.55489
G1 X110.365 Y176.091 E68.60544
G1 X109.409 Y176.17 E68.6533
G1 X108.501 Y176.168 E68.6986
G1 X107.492 Y176.075 E68.74915
G1 X106.546 Y175.903 E68.79712
G1 X105.671 Y175.663 E68.84239
G1 X104.721 Y175.311 E68.89293
G1 X103.901 Y174.921 E68.93823
G1 X102.74 Y174.214 E69.00605
G1 X102.315 Y173.917 E69.03192
G1 X101.533 Y173.315 E69.08116
G1 X100.864 Y172.701 E69.12646
G1 X100.133 Y171.898 E69.18063
G1 X99.582 Y171.227 E69.22395
G1 X64.261 Y126.834 E72.05423
G1 X63.706 Y126.117 E72.09947
G1 X63.154 Y125.33 E72.14742
G1 X62.674 Y124.498 E72.19535
G1 X62.266 Y123.62 E72.24365
G1 X62.055 Y123.105 E72.27141
G1 X61.731 Y122.2 E72.31937
G1 X61.499 Y121.323 E72.36463
G1 X61.328 Y120.325 E72.41515
G1 X61.251 Y119.367 E72.46309
G1 X61.257 Y118.459 E72.5084
G1 X61.353 Y117.452 E72.55886
G1 X61.529 Y116.506 E72.60687
G1 X61.788 Y115.582 E72.65474
G1 X62.107 Y114.732 E72.70004
G1 X62.545 Y113.819 E72.75056
G1 X63.037 Y112.994 E72.79848
G1 X63.599 Y112.215 E72.8464
G1 X64.191 Y111.528 E72.89165
G1 X65.197 Y110.582 E72.96054
G1 X66.086 Y109.849 E73.01803
G0 F6000 X66.46 Y110.319
G1 F1200 X103.439 Y80.898 E75.37559
G1 X104.117 Y80.374 E75.41834
G1 X104.859 Y79.852 E75.46361
G1 X105.645 Y79.397 E75.50892
G1 X106.467 Y79.013 E75.55418
G1 X107.274 Y78.714 E75.59712
G1 X108.143 Y78.453 E75.64238
G1 X109.031 Y78.269 E75.68763
G1 X109.933 Y78.164 E75.73293
G1 X110.84 Y78.138 E75.7782
G1 X111.746 Y78.193 E75.82348
G1 X112.674 Y78.333 E75.87031
G1 X112.977 Y78.393 E75.88572
G1 X113.858 Y78.609 E75.93097
G1 X114.718 Y78.901 E75.97628
G1 X115.548 Y79.267 E76.02154
G1 X116.342 Y79.705 E76.06678
G1 X117.314 Y80.371 E76.12556
G1 X118.103 Y81.031 E76.17688
G1 X118.746 Y81.672 E76.22218
G1 X119.088 Y82.065 E76.24817
G1 X119.858 Y82.998 E76.30852
G1 X154.91 Y127.055 E79.11733
G1 X155.441 Y127.74 E79.16057
G1 X155.964 Y128.482 E79.20586
G1 X156.576 Y129.577 E79.26844
G1 X156.69 Y129.814 E79.28156
G1 X157.047 Y130.649 E79.32687
G1 X157.329 Y131.511 E79.37212
G1 X157.534 Y132.395 E79.41739
G1 X157.661 Y133.294 E79.46269
G1 X157.704 Y134.575 E79.52663
G1 X157.695 Y134.888 E79.54226
G1 X157.629 Y135.793 E79.58753
G1 X157.483 Y136.689 E79.63282
G1 X157.26 Y137.568 E79.67806
G1 X156.959 Y138.425 E79.72338
G1 X156.585 Y139.252 E79.76866
G1 X156.083 Y140.131 E79.81916
G1 X155.921 Y140.385 E79.83419
G1 X155.4 Y141.128 E79.87946
G1 X154.815 Y141.822 E79.92475
G1 X153.831 Y142.759 E79.99254
G1 X153.332 Y143.171 E80.02482
G1 X115.894 Y172.956 E82.41161
G1 X115.285 Y173.427 E82.45002
G1 X114.544 Y173.95 E82.49527
G1 X113.759 Y174.405 E82.54054
G1 X112.937 Y174.79 E82.58582
G1 X112.084 Y175.101 E82.63112
G1 X111.208 Y175.336 E82.67637
G1 X110.314 Y175.493 E82.72165
G1 X109.41 Y175.57 E82.76692
G1 X108.502 Y175.568 E82.81222
G1 X107.598 Y175.485 E82.85751
G1 X106.705 Y175.324 E82.90278
G1 X105.83 Y175.084 E82.94804
G1 X104.979 Y174.769 E82.99332
G1 X104.159 Y174.379 E83.03862
G1 X103.084 Y173.722 E83.10147
G1 X102.659 Y173.425 E83.12734
G1 X101.939 Y172.873 E83.1726
