;FLAVOR:Marlin
;TIME:22105
;Filament used: 22.1918m
;Layer height: 0.16
;MINX:36.443
;MINY:36.443
;MINZ:0.2
;MAXX:183.557
;MAXY:183.553
;MAXZ:23.88
;Generated with Cura_SteamEngine 5.4.0
M140 S70
M105
M190 S70
M104 S215
M105
M109 S215
M82 ;absolute extrusion mode
M201 X500.00 Y500.00 Z100.00 E5000.00 ;Setup machine max acceleration
M203 X500.00 Y500.00 Z10.00 E50.00 ;Setup machine max feedrate
M204 P500.00 R1000.00 T500.00 ;Setup Print/Retract/Travel acceleration
M205 X8.00 Y8.00 Z0.40 E5.00 ;Setup Jerk
M220 S100 ;Reset Feedrate
M221 S100 ;Reset Flowrate

G28 ;Home

G92 E0 ;Reset Extruder
G1 Z2.0 F3000 ;Move Z Axis up
G1 X10.1 Y20 Z0.28 F5000.0 ;Move to start position
G1 X10.1 Y200.0 Z0.28 F1500.0 E15 ;Draw the first line
G1 X10.4 Y200.0 Z0.28 F5000.0 ;Move to side a little
G1 X10.4 Y20 Z0.28 F1500.0 E30 ;Draw the second line
G92 E0 ;Reset Extruder
G1 Z2.0 F3000 ;Move Z Axis up

G92 E0
G92 E0
G1 F1500 E-5
;LAYER_COUNT:129
;LAYER:0
M107
G0 F6000 X40.843 Y40.336 Z0.2
;TYPE:SKIRT
G1 F1500 E0
G1 F1200 X42.065 Y39.299 E0.07996
G1 X43.177 Y38.535 E0.14727
G1 X44.013 Y38.06 E0.19524
G1 X45.232 Y37.502 E0.26212
G1 X46.36 Y37.107 E0.32175
G1 X47.116 Y36.905 E0.36079
G1 X47.745 Y36.763 E0.39296
G1 X48.7 Y36.592 E0.44137
G1 X50.382 Y36.459 E0.52554
G1 X51.329 Y36.447 E0.57279
G1 X168.754 Y36.443 E6.43115
G1 X169.724 Y36.459 E6.47955
G1 X170.746 Y36.524 E6.53064
G1 X172.247 Y36.763 E6.60647
G1 X172.813 Y36.891 E6.63542
G1 X173.914 Y37.197 E6.69243
G1 X174.96 Y37.585 E6.74809
G1 X176.019 Y38.086 E6.80654
G1 X177.05 Y38.69 E6.86615
G1 X177.834 Y39.234 E6.91376
G1 X178.698 Y39.918 E6.96874
G1 X179.571 Y40.741 E7.02859
G1 X180.52 Y41.828 E7.10058
G1 X181.383 Y43.05 E7.17522
G1 X181.992 Y44.121 E7.23669
G1 X182.498 Y45.235 E7.29773
G1 X182.876 Y46.311 E7.35463
G1 X183.091 Y47.106 E7.39572
G1 X183.217 Y47.641 E7.42314
G1 X183.386 Y48.533 E7.46843
G1 X183.541 Y50.367 E7.56026
G1 X183.552 Y51.149 E7.59927
G1 X183.557 Y168.728 E13.46531
G1 X183.541 Y169.718 E13.51471
G1 X183.47 Y170.796 E13.56861
G1 X183.245 Y172.211 E13.64009
G1 X183.103 Y172.845 E13.67251
G1 X182.828 Y173.849 E13.72444
G1 X182.39 Y175.034 E13.78747
G1 X181.984 Y175.903 E13.83532
G1 X181.256 Y177.15 E13.90736
G1 X180.54 Y178.15 E13.96872
G1 X179.78 Y179.041 E14.02715
G1 X178.948 Y179.864 E14.08553
G1 X177.897 Y180.732 E14.15354
G1 X176.89 Y181.423 E14.21447
G1 X175.967 Y181.95 E14.26749
G1 X174.802 Y182.484 E14.33143
G1 X173.678 Y182.879 E14.39087
G1 X172.898 Y183.09 E14.43118
G1 X172.359 Y183.217 E14.45881
G1 X171.467 Y183.386 E14.5041
G1 X169.622 Y183.541 E14.59648
G1 X168.673 Y183.553 E14.64382
G1 X51.086 Y183.552 E20.51026
G1 X50.252 Y183.537 E20.55188
G1 X49.226 Y183.471 E20.60317
G1 X47.744 Y183.234 E20.67805
G1 X47.08 Y183.085 E20.712
G1 X46.205 Y182.845 E20.75727
G1 X44.859 Y182.344 E20.82892
G1 X44.04 Y181.954 E20.87418
G1 X42.803 Y181.226 E20.94578
G1 X41.933 Y180.6 E20.99926
G1 X41.084 Y179.895 E21.05431
G1 X40.248 Y179.07 E21.11291
G1 X39.353 Y178.008 E21.1822
G1 X38.619 Y176.958 E21.24612
G1 X38.085 Y176.035 E21.29932
G1 X37.523 Y174.82 E21.3661
G1 X37.139 Y173.74 E21.42329
G1 X36.904 Y172.874 E21.46806
G1 X36.776 Y172.311 E21.49686
G1 X36.609 Y171.418 E21.54219
G1 X36.459 Y169.61 E21.6327
G1 X36.447 Y168.641 E21.68104
G1 X36.443 Y51.245 E27.53795
G1 X36.459 Y50.274 E27.5864
G1 X36.53 Y49.195 E27.64035
G1 X36.752 Y47.804 E27.71063
G1 X36.9 Y47.144 E27.74437
G1 X37.154 Y46.218 E27.79228
G1 X37.616 Y44.971 E27.85862
G1 X38.122 Y43.914 E27.91709
G1 X38.7 Y42.934 E27.97385
G1 X39.234 Y42.166 E28.02052
G1 X39.848 Y41.384 E28.07012
G1 X40.843 Y40.336 E28.14222
G0 F6000 X41.232 Y40.793
G1 F1200 X42.406 Y39.793 E28.21916
G1 X43.475 Y39.056 E28.28394
G1 X44.263 Y38.606 E28.32921
G1 X45.482 Y38.048 E28.39609
G1 X46.515 Y37.687 E28.45069
G1 X47.271 Y37.485 E28.48973
G1 X47.851 Y37.354 E28.51939
G1 X48.806 Y37.183 E28.56779
G1 X50.39 Y37.059 E28.64706
G1 X51.329 Y37.047 E28.69391
G1 X168.744 Y37.043 E34.55177
G1 X169.686 Y37.058 E34.59877
G1 X170.708 Y37.123 E34.64986
G1 X172.115 Y37.348 E34.72095
G1 X172.653 Y37.469 E34.74846
G1 X173.705 Y37.76 E34.80292
G1 X174.751 Y38.148 E34.85858
G1 X175.761 Y38.628 E34.91437
G1 X176.708 Y39.183 E34.96913
G1 X177.462 Y39.705 E35.01488
G1 X178.286 Y40.355 E35.06724
G1 X179.159 Y41.178 E35.1271
G1 X180.067 Y42.222 E35.19613
G1 X180.862 Y43.347 E35.26486
G1 X181.446 Y44.37 E35.32362
G1 X181.932 Y45.435 E35.38203
G1 X182.297 Y46.468 E35.43669
G1 X182.507 Y47.243 E35.47675
G1 X182.627 Y47.753 E35.50289
G1 X182.796 Y48.645 E35.54818
G1 X182.941 Y50.376 E35.63484
G1 X182.952 Y51.149 E35.67341
G1 X182.957 Y168.719 E41.539
G1 X182.942 Y169.68 E41.58695
G1 X182.877 Y170.702 E41.63804
G1 X182.652 Y172.117 E41.70952
G1 X182.524 Y172.686 E41.73862
G1 X182.249 Y173.69 E41.79056
G1 X181.846 Y174.78 E41.84853
G1 X181.44 Y175.649 E41.89639
G1 X180.768 Y176.801 E41.96292
G1 X180.083 Y177.761 E42.02176
G1 X179.358 Y178.614 E42.07761
G1 X178.526 Y179.437 E42.136
G1 X177.557 Y180.238 E42.19872
G1 X176.592 Y180.902 E42.25716
G1 X175.669 Y181.429 E42.31019
G1 X174.602 Y181.918 E42.36874
G1 X173.521 Y182.3 E42.42594
G1 X172.761 Y182.506 E42.46523
G1 X172.247 Y182.627 E42.49157
G1 X171.355 Y182.796 E42.53687
G1 X169.614 Y182.941 E42.62403
G1 X168.673 Y182.953 E42.67098
G1 X51.096 Y182.952 E48.53692
G1 X50.289 Y182.938 E48.57718
G1 X49.32 Y182.878 E48.62562
G1 X47.875 Y182.648 E48.69862
G1 X47.239 Y182.506 E48.73113
G1 X46.364 Y182.266 E48.7764
G1 X45.117 Y181.802 E48.84278
G1 X44.298 Y181.412 E48.88803
G1 X43.153 Y180.738 E48.95432
G1 X42.316 Y180.138 E49.0057
G1 X41.467 Y179.433 E49.06075
G1 X40.707 Y178.683 E49.11403
G1 X39.812 Y177.621 E49.18331
G1 X39.111 Y176.615 E49.24449
G1 X38.629 Y175.782 E49.2925
G1 X38.088 Y174.618 E49.35654
G1 X37.718 Y173.582 E49.41142
G1 X37.489 Y172.741 E49.45491
G1 X37.366 Y172.201 E49.48254
G1 X37.199 Y171.308 E49.52786
G1 X37.059 Y169.603 E49.61321
G1 X37.047 Y168.641 E49.66121
G1 X37.043 Y51.255 E55.51762
G1 X37.058 Y50.312 E55.56467
G1 X37.123 Y49.29 E55.61577
G1 X37.345 Y47.899 E55.68604
G1 X37.479 Y47.303 E55.71652
G1 X37.733 Y46.377 E55.76442
G1 X38.157 Y45.23 E55.82543
G1 X38.663 Y44.173 E55.8839
G1 X39.193 Y43.277 E55.93583
G1 X39.727 Y42.509 E55.9825
G1 X40.32 Y41.755 E56.03036
G1 X41.232 Y40.793 E56.09649
G0 F6000 X41.621 Y41.25
G1 F1200 X42.795 Y40.25 E56.17343
G1 X43.773 Y39.577 E56.23266
G1 X44.561 Y39.127 E56.27793
G1 X45.68 Y38.614 E56.33935
G1 X46.67 Y38.267 E56.39168
G1 X47.426 Y38.065 E56.43072
G1 X47.957 Y37.945 E56.45788
G1 X48.912 Y37.774 E56.50629
G1 X50.398 Y37.659 E56.58064
G1 X51.329 Y37.647 E56.6271
G1 X168.735 Y37.643 E62.48451
G1 X169.649 Y37.657 E62.53011
G1 X170.614 Y37.716 E62.57834
G1 X171.984 Y37.934 E62.64755
G1 X172.494 Y38.048 E62.67363
G1 X173.496 Y38.323 E62.72546
G1 X174.542 Y38.711 E62.78112
G1 X175.458 Y39.146 E62.83171
G1 X176.367 Y39.677 E62.88424
G1 X177.091 Y40.177 E62.92813
G1 X177.874 Y40.792 E62.97781
G1 X178.747 Y41.615 E63.03766
G1 X179.613 Y42.615 E63.10366
G1 X180.342 Y43.646 E63.16666
G1 X180.901 Y44.62 E63.22268
G1 X181.367 Y45.636 E63.27845
G1 X181.718 Y46.625 E63.33081
G1 X181.923 Y47.381 E63.36989
G1 X182.037 Y47.865 E63.39469
G1 X182.206 Y48.757 E63.43999
G1 X182.341 Y50.385 E63.52149
G1 X182.352 Y51.149 E63.55961
G1 X182.357 Y168.71 E69.42475
G1 X182.343 Y169.643 E69.4713
G1 X182.284 Y170.608 E69.51954
G1 X182.066 Y171.986 E69.58914
G1 X181.945 Y172.527 E69.6168
G1 X181.67 Y173.531 E69.66873
G1 X181.302 Y174.526 E69.72166
G1 X180.896 Y175.395 E69.76951
G1 X180.279 Y176.453 E69.83062
G1 X179.625 Y177.373 E69.88693
G1 X178.936 Y178.187 E69.94014
G1 X178.104 Y179.01 E69.99852
G1 X177.216 Y179.744 E70.056
G1 X176.294 Y180.381 E70.11191
G1 X175.371 Y180.908 E70.16493
G1 X174.401 Y181.353 E70.21818
G1 X173.364 Y181.721 E70.27307
G1 X172.623 Y181.922 E70.31138
G1 X172.135 Y182.037 E70.33639
G1 X171.243 Y182.206 E70.38169
G1 X169.606 Y182.341 E70.46363
G1 X168.673 Y182.353 E70.51018
G1 X51.106 Y182.352 E76.37563
G1 X50.326 Y182.339 E76.41455
G1 X49.357 Y182.279 E76.46298
G1 X48.005 Y182.062 E76.5313
G1 X47.398 Y181.927 E76.56232
G1 X46.523 Y181.687 E76.60759
G1 X45.375 Y181.26 E76.66869
G1 X44.556 Y180.87 E76.71395
G1 X43.503 Y180.25 E76.77491
G1 X42.666 Y179.65 E76.82629
G1 X41.851 Y178.972 E76.87918
G1 X41.165 Y178.296 E76.92723
G1 X40.304 Y177.277 E76.99379
G1 X39.63 Y176.313 E77.05247
G1 X39.173 Y175.528 E77.09779
G1 X38.653 Y174.415 E77.15908
G1 X38.297 Y173.424 E77.21161
G1 X38.074 Y172.607 E77.25387
G1 X37.956 Y172.091 E77.28027
G1 X37.789 Y171.198 E77.3256
G1 X37.659 Y169.595 E77.40583
G1 X37.647 Y168.641 E77.45343
G1 X37.643 Y51.264 E83.3094
G1 X37.657 Y50.349 E83.35505
G1 X37.716 Y49.384 E83.40328
G1 X37.931 Y48.03 E83.47168
G1 X38.058 Y47.462 E83.50072
G1 X38.312 Y46.536 E83.54862
G1 X38.698 Y45.488 E83.60434
G1 X39.18 Y44.478 E83.66018
G1 X39.686 Y43.619 E83.70991
G1 X40.199 Y42.88 E83.7548
G1 X40.792 Y42.126 E83.80265
G1 X41.621 Y41.25 E83.86282
G0 F6000 X42.011 Y41.706
G1 F1200 X43.136 Y40.744 E83.93667
G1 X44.071 Y40.098 E83.99337
G1 X44.859 Y39.648 E84.03864
G1 X45.879 Y39.18 E84.09463
G1 X46.825 Y38.847 E84.14467
G1 X47.581 Y38.645 E84.18371
G1 X48.063 Y38.536 E84.20836
G1 X49.018 Y38.365 E84.25676
G1 X50.406 Y38.259 E84.32621
G1 X51.329 Y38.247 E84.37227
G1 X168.726 Y38.243 E90.22923
G1 X169.614 Y38.256 E90.27353
G1 X170.52 Y38.309 E90.31881
G1 X171.89 Y38.527 E90.38802
G1 X172.336 Y38.627 E90.41082
G1 X173.288 Y38.886 E90.46005
G1 X174.286 Y39.254 E90.51311
G1 X175.155 Y39.664 E90.56105
G1 X176.064 Y40.195 E90.61357
G1 X176.72 Y40.649 E90.65337
G1 X177.503 Y41.264 E90.70305
G1 X178.293 Y42.008 E90.75719
G1 X179.159 Y43.008 E90.82318
G1 X179.822 Y43.946 E90.88049
G1 X180.356 Y44.871 E90.93378
G1 X180.802 Y45.838 E90.98691
G1 X181.139 Y46.783 E91.03696
G1 X181.339 Y47.518 E91.07496
G1 X181.447 Y47.977 E91.09849
G1 X181.616 Y48.869 E91.14378
G1 X181.741 Y50.394 E91.22012
G1 X181.752 Y51.149 E91.25779
G1 X181.757 Y168.701 E97.12248
G1 X181.744 Y169.608 E97.16774
G1 X181.691 Y170.514 E97.21302
G1 X181.473 Y171.892 E97.28262
G1 X181.366 Y172.368 E97.30696
G1 X181.091 Y173.372 E97.3589
G1 X180.758 Y174.272 E97.40677
G1 X180.352 Y175.141 E97.45462
G1 X179.79 Y176.106 E97.51034
G1 X179.166 Y176.986 E97.56416
G1 X178.513 Y177.761 E97.61472
G1 X177.721 Y178.548 E97.67042
G1 X176.874 Y179.251 E97.72534
G1 X175.996 Y179.86 E97.77865
G1 X175.073 Y180.387 E97.83167
G1 X174.2 Y180.788 E97.8796
G1 X173.207 Y181.142 E97.9322
G1 X172.486 Y181.338 E97.96947
G1 X172.023 Y181.447 E97.9932
G1 X171.131 Y181.616 E98.0385
G1 X169.598 Y181.741 E98.11523
G1 X168.673 Y181.753 E98.16139
G1 X51.116 Y181.752 E104.02633
G1 X50.363 Y181.74 E104.0639
G1 X49.394 Y181.68 E104.11234
G1 X48.101 Y181.47 E104.17769
G1 X47.557 Y181.348 E104.2055
G1 X46.682 Y181.108 E104.25077
G1 X45.633 Y180.718 E104.30661
G1 X44.814 Y180.328 E104.35186
G1 X43.852 Y179.762 E104.40755
G1 X43.049 Y179.188 E104.45679
G1 X42.271 Y178.543 E104.50721
G1 X41.623 Y177.908 E104.55247
G1 X40.795 Y176.932 E104.61633
G1 X40.149 Y176.011 E104.67245
G1 X39.692 Y175.226 E104.71777
G1 X39.217 Y174.211 E104.77368
G1 X38.876 Y173.266 E104.8238
G1 X38.659 Y172.472 E104.86487
G1 X38.546 Y171.981 E104.89
G1 X38.379 Y171.088 E104.93533
G1 X38.259 Y169.587 E105.01045
G1 X38.247 Y168.641 E105.05765
G1 X38.243 Y51.273 E110.91317
G1 X38.256 Y50.384 E110.95752
G1 X38.309 Y49.478 E111.0028
G1 X38.524 Y48.124 E111.0712
G1 X38.637 Y47.621 E111.09692
G1 X38.891 Y46.695 E111.14482
G1 X39.24 Y45.745 E111.19532
G1 X39.697 Y44.782 E111.2485
G1 X40.179 Y43.961 E111.29599
G1 X40.671 Y43.251 E111.33909
G1 X41.264 Y42.497 E111.38695
G1 X42.011 Y41.706 E111.44122
G0 F6000 X42.402 Y42.161
G1 F1200 X43.478 Y41.237 E111.51198
G1 X44.369 Y40.619 E111.56608
G1 X45.157 Y40.169 E111.61135
G1 X46.079 Y39.746 E111.66196
G1 X46.98 Y39.427 E111.70965
G1 X47.736 Y39.225 E111.74869
G1 X48.169 Y39.127 E111.77084
G1 X49.124 Y38.956 E111.81924
G1 X50.414 Y38.859 E111.88378
G1 X51.329 Y38.847 E111.92943
G1 X168.718 Y38.843 E117.78599
G1 X169.579 Y38.855 E117.82895
G1 X170.485 Y38.908 E117.87423
G1 X171.76 Y39.113 E117.93866
G1 X172.178 Y39.206 E117.96002
G1 X173.13 Y39.465 E118.00924
G1 X174.031 Y39.797 E118.05715
G1 X174.853 Y40.183 E118.10246
G1 X175.723 Y40.689 E118.15267
G1 X176.349 Y41.121 E118.19061
G1 X177.132 Y41.736 E118.24029
G1 X177.839 Y42.401 E118.28871
G1 X178.705 Y43.401 E118.35471
G1 X179.331 Y44.291 E118.409
G1 X179.812 Y45.123 E118.45694
G1 X180.237 Y46.041 E118.50741
G1 X180.56 Y46.941 E118.55512
G1 X180.755 Y47.656 E118.59209
G1 X180.857 Y48.089 E118.61428
G1 X181.026 Y48.981 E118.65958
G1 X181.141 Y50.403 E118.73075
G1 X181.152 Y51.149 E118.76798
G1 X181.157 Y168.693 E124.63227
G1 X181.145 Y169.573 E124.67618
G1 X181.092 Y170.479 E124.72145
G1 X180.887 Y171.762 E124.78628
G1 X180.787 Y172.211 E124.80923
G1 X180.528 Y173.164 E124.8585
G1 X180.195 Y174.064 E124.90637
G1 X179.809 Y174.886 E124.95168
G1 X179.3 Y175.76 E125.00214
G1 X178.707 Y176.599 E125.05339
G1 X178.054 Y177.374 E125.10395
G1 X177.337 Y178.087 E125.1544
G1 X176.532 Y178.758 E125.20669
G1 X175.654 Y179.367 E125.26
G1 X174.821 Y179.842 E125.30784
G1 X173.997 Y180.223 E125.35313
G1 X173.049 Y180.563 E125.40337
G1 X172.348 Y180.754 E125.43962
G1 X171.911 Y180.857 E125.46202
G1 X171.019 Y181.026 E125.50731
G1 X169.59 Y181.141 E125.57884
G1 X168.673 Y181.153 E125.62459
G1 X51.125 Y181.152 E131.48908
G1 X50.4 Y181.141 E131.52526
G1 X49.431 Y181.081 E131.5737
G1 X48.199 Y180.878 E131.63599
G1 X47.716 Y180.769 E131.66069
G1 X46.841 Y180.529 E131.70596
G1 X45.891 Y180.176 E131.75652
G1 X45.072 Y179.786 E131.80178
G1 X44.2 Y179.273 E131.85225
G1 X43.431 Y178.725 E131.89936
G1 X42.691 Y178.114 E131.94724
G1 X42.043 Y177.479 E131.9925
G1 X41.286 Y176.587 E132.05087
G1 X40.668 Y175.709 E132.10444
G1 X40.211 Y174.924 E132.14975
G1 X39.781 Y174.007 E132.20028
G1 X39.455 Y173.107 E132.24804
G1 X39.244 Y172.337 E132.28787
G1 X39.136 Y171.871 E132.31173
G1 X38.969 Y170.978 E132.35706
G1 X38.859 Y169.579 E132.42707
G1 X38.847 Y168.641 E132.47387
G1 X38.843 Y51.281 E138.32899
G1 X38.855 Y50.419 E138.372
G1 X38.908 Y49.513 E138.41727
G1 X39.11 Y48.255 E138.48084
G1 X39.216 Y47.78 E138.50512
G1 X39.47 Y46.854 E138.55302
G1 X39.803 Y45.953 E138.60095
G1 X40.215 Y45.085 E138.64888
G1 X40.673 Y44.302 E138.69414
G1 X41.143 Y43.622 E138.73538
G1 X41.736 Y42.868 E138.78324
G1 X42.402 Y42.161 E138.83169
G0 F6000 X42.794 Y42.615
G1 F1200 X43.821 Y41.729 E138.89936
G1 X44.667 Y41.14 E138.95079
G1 X45.455 Y40.69 E138.99606
G1 X46.28 Y40.311 E139.04136
G1 X47.135 Y40.007 E139.08663
G1 X47.87 Y39.81 E139.1246
G1 X48.277 Y39.717 E139.14542
G1 X49.169 Y39.554 E139.19066
G1 X50.422 Y39.459 E139.25335
G1 X51.329 Y39.447 E139.29861
G1 X168.71 Y39.443 E145.15477
G1 X169.544 Y39.454 E145.19638
G1 X170.45 Y39.507 E145.24166
G1 X171.63 Y39.699 E145.30131
G1 X172.048 Y39.792 E145.32267
G1 X172.924 Y40.028 E145.36793
G1 X173.776 Y40.34 E145.4132
G1 X174.598 Y40.726 E145.4585
G1 X175.382 Y41.183 E145.50378
G1 X176.008 Y41.615 E145.54172
G1 X176.722 Y42.174 E145.58696
G1 X177.385 Y42.794 E145.63225
G1 X178.251 Y43.794 E145.69825
G1 X178.839 Y44.635 E145.74945
G1 X179.292 Y45.422 E145.79475
G1 X179.673 Y46.245 E145.83999
G1 X179.981 Y47.099 E145.88529
G1 X180.171 Y47.794 E145.92123
G1 X180.267 Y48.201 E145.9421
G1 X180.436 Y49.093 E145.98739
G1 X180.541 Y50.412 E146.0534
G1 X180.552 Y51.149 E146.09018
G1 X180.557 Y168.685 E151.95407
G1 X180.546 Y169.538 E151.99663
G1 X180.493 Y170.444 E152.04191
G1 X180.301 Y171.632 E152.10195
G1 X180.201 Y172.081 E152.1249
G1 X179.965 Y172.957 E152.17016
G1 X179.652 Y173.809 E152.21544
G1 X179.266 Y174.631 E152.26075
G1 X178.809 Y175.415 E152.30602
G1 X178.248 Y176.212 E152.35465
G1 X177.595 Y176.987 E152.40521
G1 X176.952 Y177.627 E152.45047
G1 X176.189 Y178.266 E152.50012
G1 X175.356 Y178.846 E152.55076
G1 X174.569 Y179.297 E152.59602
G1 X173.745 Y179.678 E152.64131
G1 X172.891 Y179.984 E152.68657
G1 X172.21 Y180.17 E152.72179
G1 X171.799 Y180.267 E152.74285
G1 X170.907 Y180.436 E152.78815
G1 X169.582 Y180.541 E152.85446
G1 X168.673 Y180.553 E152.89981
