;FLAVOR:Marlin
;TIME:24469
;Filament used: 24.488m
;Layer height: 0.16
;MINX:26.369
;MINY:44.369
;MINZ:0.2
;MAXX:193.631
;MAXY:175.631
;MAXZ:23.92
;Generated with Cura_SteamEngine 5.4.0
M140 S70
M105
M190 S70
M104 S215
M105
M109 S215
M82 ;absolute extrusion mode
M201 X500.00 Y500.00 Z100.00 E5000.00 ;Setup machine max acceleration
M203 X500.00 Y500.00 Z10.00 E50.00 ;Setup machine max feedrate
M204 P500.00 R1000.00 T500.00 ;Setup Print/Retract/Travel acceleration
M205 X8.00 Y8.00 Z0.40 E5.00 ;Setup Jerk
M220 S100 ;Reset Feedrate
M221 S100 ;Reset Flowrate

G28 ;Home

G92 E0 ;Reset Extruder
G1 Z2.0 F3000 ;Move Z Axis up
G1 X10.1 Y20 Z0.28 F5000.0 ;Move to start position
G1 X10.1 Y200.0 Z0.28 F1500.0 E15 ;Draw the first line
G1 X10.4 Y200.0 Z0.28 F5000.0 ;Move to side a little
G1 X10.4 Y20 Z0.28 F1500.0 E30 ;Draw the second line
G92 E0 ;Reset Extruder
G1 Z2.0 F3000 ;Move Z Axis up

G92 E0
G92 E0
G1 F1500 E-5
;LAYER_COUNT:129
;LAYER:0
M107
G0 F6000 X32.772 Y46.67 Z0.2
;TYPE:SKIRT
G1 F1500 E0
G1 F1200 X34.011 Y45.948 E0.07154
G1 X34.832 Y45.561 E0.11683
G1 X36.141 Y45.079 E0.18642
G1 X36.801 Y44.891 E0.22066
G1 X37.318 Y44.761 E0.24725
G1 X38.259 Y44.566 E0.2952
G1 X39.405 Y44.425 E0.3528
G1 X40.245 Y44.382 E0.39476
G1 X41.093 Y44.369 E0.43708
G1 X179.02 Y44.374 E7.31828
G1 X179.806 Y44.388 E7.3575
G1 X180.926 Y44.461 E7.4135
G1 X181.639 Y44.558 E7.4494
G1 X182.069 Y44.633 E7.47117
G1 X183.107 Y44.859 E7.52417
G1 X184.236 Y45.206 E7.5831
G1 X184.945 Y45.481 E7.62104
G1 X185.318 Y45.641 E7.64129
G1 X186.302 Y46.117 E7.69582
G1 X187.402 Y46.774 E7.75974
G1 X188.221 Y47.365 E7.81013
G1 X189.104 Y48.12 E7.86809
G1 X189.949 Y48.983 E7.92835
G1 X190.588 Y49.745 E7.97797
G1 X190.807 Y50.033 E7.99602
G1 X191.509 Y51.054 E8.05783
G1 X191.988 Y51.889 E8.10586
G1 X192.548 Y53.099 E8.17238
G1 X192.944 Y54.207 E8.23108
G1 X193.117 Y54.828 E8.26324
G1 X193.245 Y55.337 E8.28943
G1 X193.429 Y56.225 E8.33467
G1 X193.589 Y57.603 E8.40388
G1 X193.618 Y58.235 E8.43544
G1 X193.631 Y59.067 E8.47696
G1 X193.629 Y160.969 E13.56087
G1 X193.615 Y161.782 E13.60144
G1 X193.538 Y162.931 E13.65889
G1 X193.387 Y163.96 E13.71078
G1 X193.123 Y165.178 E13.77295
G1 X192.818 Y166.171 E13.82478
G1 X192.524 Y166.931 E13.86543
G1 X192.342 Y167.353 E13.88836
G1 X191.856 Y168.354 E13.94388
G1 X191.313 Y169.269 E13.99696
G1 X190.534 Y170.349 E14.06339
G1 X189.908 Y171.076 E14.11126
G1 X189.012 Y171.955 E14.17388
G1 X188.309 Y172.542 E14.21957
G1 X187.968 Y172.806 E14.24109
G1 X187.228 Y173.33 E14.28632
G1 X185.989 Y174.052 E14.35787
G1 X185.168 Y174.439 E14.40315
G1 X183.859 Y174.921 E14.47274
G1 X183.199 Y175.109 E14.50698
G1 X182.682 Y175.239 E14.53357
G1 X181.741 Y175.434 E14.58152
G1 X180.595 Y175.575 E14.63912
G1 X179.755 Y175.618 E14.68109
G1 X178.907 Y175.631 E14.7234
G1 X40.98 Y175.626 E21.6046
G1 X40.195 Y175.612 E21.64377
G1 X39.076 Y175.539 E21.69972
G1 X38.389 Y175.447 E21.7343
G1 X37.94 Y175.369 E21.75704
G1 X36.9 Y175.143 E21.81013
G1 X35.767 Y174.795 E21.86927
G1 X35.055 Y174.519 E21.90736
G1 X34.682 Y174.359 E21.92761
G1 X33.698 Y173.883 E21.98215
G1 X32.598 Y173.226 E22.04607
G1 X31.779 Y172.635 E22.09646
G1 X30.856 Y171.844 E22.1571
G1 X30.08 Y171.051 E22.21246
G1 X29.458 Y170.309 E22.26076
G1 X29.194 Y169.968 E22.28228
G1 X28.67 Y169.228 E22.32751
G1 X27.948 Y167.989 E22.39906
G1 X27.561 Y167.168 E22.44434
G1 X27.079 Y165.86 E22.51388
G1 X26.887 Y165.185 E22.5489
G1 X26.763 Y164.689 E22.5744
G1 X26.564 Y163.721 E22.62371
G1 X26.412 Y162.405 E22.6898
G1 X26.381 Y161.739 E22.72306
G1 X26.369 Y160.869 E22.76647
G1 X26.374 Y58.939 E27.85178
G1 X26.388 Y58.18 E27.88965
G1 X26.461 Y57.077 E27.9448
G1 X26.629 Y55.943 E28.00199
G1 X26.842 Y54.954 E28.05247
G1 X27.201 Y53.772 E28.1141
G1 X27.467 Y53.087 E28.15076
G1 X27.658 Y52.647 E28.17469
G1 X28.144 Y51.646 E28.2302
G1 X28.687 Y50.731 E28.28329
G1 X29.466 Y49.651 E28.34972
G1 X30.092 Y48.924 E28.39759
G1 X30.988 Y48.045 E28.46021
G1 X31.691 Y47.458 E28.5059
G1 X32.032 Y47.194 E28.52741
G1 X32.772 Y46.67 E28.57265
G0 F6000 X33.119 Y47.16
G1 F1200 X34.267 Y46.491 E28.63894
G1 X35.088 Y46.104 E28.68422
G1 X36.305 Y45.656 E28.74892
G1 X36.947 Y45.473 E28.78223
G1 X37.44 Y45.349 E28.80759
G1 X38.381 Y45.154 E28.85553
G1 X39.436 Y45.024 E28.90857
G1 X40.254 Y44.982 E28.94943
G1 X41.093 Y44.969 E28.99129
G1 X179.01 Y44.974 E35.872
G1 X179.768 Y44.987 E35.90982
G1 X180.846 Y45.056 E35.96371
G1 X181.537 Y45.149 E35.9985
G1 X181.941 Y45.219 E36.01895
G1 X182.979 Y45.445 E36.07195
G1 X184.019 Y45.766 E36.12625
G1 X184.709 Y46.033 E36.16317
G1 X185.058 Y46.182 E36.1821
G1 X185.995 Y46.633 E36.23398
G1 X187.051 Y47.261 E36.29528
G1 X187.87 Y47.852 E36.34566
G1 X188.675 Y48.54 E36.39849
G1 X189.52 Y49.403 E36.45875
G1 X190.11 Y50.108 E36.50462
G1 X190.329 Y50.396 E36.52267
G1 X190.989 Y51.354 E36.58071
G1 X191.443 Y52.141 E36.62603
G1 X192.003 Y53.351 E36.69255
G1 X192.366 Y54.368 E36.74643
G1 X192.535 Y54.974 E36.77781
G1 X192.657 Y55.459 E36.80276
G1 X192.841 Y56.347 E36.84801
G1 X192.99 Y57.63 E36.91245
G1 X193.018 Y58.244 E36.94311
G1 X193.031 Y59.067 E36.98418
G1 X193.029 Y160.959 E42.06759
G1 X193.016 Y161.743 E42.10671
G1 X192.944 Y162.845 E42.1618
G1 X192.8 Y163.834 E42.21167
G1 X192.549 Y165.002 E42.27127
G1 X192.244 Y165.995 E42.32309
G1 X191.973 Y166.694 E42.3605
G1 X191.802 Y167.091 E42.38206
G1 X191.316 Y168.092 E42.43758
G1 X190.826 Y168.919 E42.48553
G1 X190.079 Y169.957 E42.54934
G1 X189.453 Y170.684 E42.5972
G1 X188.627 Y171.495 E42.65495
G1 X187.941 Y172.068 E42.69954
G1 X187.621 Y172.316 E42.71974
G1 X186.881 Y172.84 E42.76498
G1 X185.733 Y173.509 E42.83127
G1 X184.912 Y173.896 E42.87655
G1 X183.695 Y174.344 E42.94125
G1 X183.053 Y174.527 E42.97456
G1 X182.56 Y174.651 E42.99992
G1 X181.619 Y174.846 E43.04786
G1 X180.564 Y174.976 E43.1009
G1 X179.746 Y175.018 E43.14176
G1 X178.907 Y175.031 E43.18362
G1 X40.99 Y175.026 E50.06433
G1 X40.233 Y175.013 E50.1021
G1 X39.156 Y174.944 E50.15594
G1 X38.469 Y174.852 E50.19052
G1 X38.067 Y174.783 E50.21087
G1 X37.027 Y174.557 E50.26397
G1 X35.984 Y174.236 E50.31841
G1 X35.291 Y173.967 E50.3555
G1 X34.942 Y173.818 E50.37443
G1 X34.005 Y173.367 E50.42631
G1 X32.949 Y172.739 E50.48761
G1 X32.13 Y172.148 E50.538
G1 X31.285 Y171.424 E50.59351
G1 X30.509 Y170.631 E50.64887
G1 X29.932 Y169.941 E50.69374
G1 X29.684 Y169.621 E50.71394
G1 X29.16 Y168.881 E50.75918
G1 X28.491 Y167.733 E50.82547
G1 X28.104 Y166.912 E50.87075
G1 X27.656 Y165.696 E50.9354
G1 X27.469 Y165.039 E50.96948
G1 X27.351 Y164.568 E50.99371
G1 X27.152 Y163.6 E51.04301
G1 X27.011 Y162.377 E51.10443
G1 X26.981 Y161.731 E51.13669
G1 X26.969 Y160.869 E51.1797
G1 X26.974 Y58.95 E56.26446
G1 X26.987 Y58.22 E56.30089
G1 X27.06 Y57.117 E56.35604
G1 X27.216 Y56.069 E56.4089
G1 X27.429 Y55.08 E56.45937
G1 X27.761 Y53.989 E56.51627
G1 X28.018 Y53.325 E56.55179
G1 X28.198 Y52.909 E56.5744
G1 X28.684 Y51.908 E56.62992
G1 X29.174 Y51.081 E56.67787
G1 X29.921 Y50.043 E56.74168
G1 X30.547 Y49.316 E56.78954
G1 X31.373 Y48.505 E56.84729
G1 X32.059 Y47.932 E56.89188
G1 X32.379 Y47.684 E56.91208
G1 X33.119 Y47.16 E56.95732
G0 F6000 X33.466 Y47.65
G1 F1200 X34.523 Y47.034 E57.01836
G1 X35.344 Y46.647 E57.06364
G1 X36.47 Y46.233 E57.12349
G1 X37.094 Y46.055 E57.15586
G1 X37.562 Y45.937 E57.17994
G1 X38.503 Y45.742 E57.22789
G1 X39.508 Y45.62 E57.2784
G1 X40.263 Y45.582 E57.31611
G1 X41.093 Y45.569 E57.35752
G1 X179 Y45.574 E64.23773
G1 X179.73 Y45.586 E64.27416
G1 X180.766 Y45.651 E64.32595
G1 X181.457 Y45.744 E64.36073
G1 X181.814 Y45.805 E64.3788
G1 X182.803 Y46.019 E64.42928
G1 X183.803 Y46.326 E64.48147
G1 X184.473 Y46.585 E64.51731
G1 X184.822 Y46.734 E64.53624
G1 X185.689 Y47.149 E64.58419
G1 X186.7 Y47.748 E64.64282
G1 X187.519 Y48.339 E64.69321
G1 X188.247 Y48.96 E64.74095
G1 X189.06 Y49.788 E64.79884
G1 X189.633 Y50.473 E64.8434
G1 X189.835 Y50.737 E64.85998
G1 X190.469 Y51.654 E64.9156
G1 X190.923 Y52.441 E64.96093
G1 X191.438 Y53.553 E65.02207
G1 X191.788 Y54.53 E65.07384
G1 X191.953 Y55.12 E65.10441
G1 X192.069 Y55.581 E65.12812
G1 X192.253 Y56.469 E65.17337
G1 X192.391 Y57.657 E65.23304
G1 X192.418 Y58.254 E65.26285
G1 X192.431 Y59.067 E65.30342
G1 X192.429 Y160.949 E70.38633
G1 X192.417 Y161.705 E70.42405
G1 X192.35 Y162.759 E70.47674
G1 X192.213 Y163.709 E70.52463
G1 X191.975 Y164.827 E70.58166
G1 X191.684 Y165.779 E70.63132
G1 X191.422 Y166.457 E70.66758
G1 X191.262 Y166.83 E70.68783
G1 X190.799 Y167.787 E70.74087
G1 X190.338 Y168.569 E70.78616
G1 X189.624 Y169.565 E70.8473
G1 X188.998 Y170.292 E70.89516
G1 X188.207 Y171.066 E70.95038
G1 X187.573 Y171.594 E70.99154
G1 X187.274 Y171.826 E71.01042
G1 X186.534 Y172.35 E71.05566
G1 X185.477 Y172.966 E71.11669
G1 X184.656 Y173.353 E71.16198
G1 X183.53 Y173.767 E71.22183
G1 X182.906 Y173.945 E71.2542
G1 X182.438 Y174.063 E71.27828
G1 X181.497 Y174.258 E71.32623
G1 X180.492 Y174.38 E71.37673
G1 X179.737 Y174.418 E71.41445
G1 X178.907 Y174.431 E71.45586
G1 X41 Y174.426 E78.33607
G1 X40.271 Y174.414 E78.37244
G1 X39.236 Y174.349 E78.42418
G1 X38.549 Y174.257 E78.45876
G1 X38.193 Y174.196 E78.47678
G1 X37.203 Y173.983 E78.5273
G1 X36.201 Y173.676 E78.57959
G1 X35.527 Y173.415 E78.61565
G1 X35.178 Y173.266 E78.63458
G1 X34.311 Y172.851 E78.68253
G1 X33.3 Y172.252 E78.74116
G1 X32.481 Y171.661 E78.79155
G1 X31.714 Y171.004 E78.84193
G1 X30.938 Y170.211 E78.89729
G1 X30.406 Y169.573 E78.93873
G1 X30.174 Y169.274 E78.95761
G1 X29.65 Y168.534 E79.00285
G1 X29.034 Y167.477 E79.06389
G1 X28.647 Y166.656 E79.10917
G1 X28.233 Y165.531 E79.16898
G1 X28.051 Y164.893 E79.20207
G1 X27.939 Y164.447 E79.22502
G1 X27.74 Y163.479 E79.27432
G1 X27.61 Y162.349 E79.33107
G1 X27.581 Y161.723 E79.36233
G1 X27.569 Y160.869 E79.40494
G1 X27.574 Y58.96 E84.4892
G1 X27.586 Y58.259 E84.52418
G1 X27.654 Y57.205 E84.57688
G1 X27.803 Y56.195 E84.62781
G1 X28.016 Y55.206 E84.67828
G1 X28.321 Y54.206 E84.73044
G1 X28.578 Y53.542 E84.76596
G1 X28.738 Y53.17 E84.78617
G1 X29.201 Y52.213 E84.83921
G1 X29.662 Y51.431 E84.88449
G1 X30.376 Y50.435 E84.94563
G1 X31.002 Y49.708 E84.9935
G1 X31.793 Y48.934 E85.04871
G1 X32.427 Y48.406 E85.08987
G1 X32.726 Y48.174 E85.10875
G1 X33.466 Y47.65 E85.15399
G0 F6000 X33.813 Y48.14
G1 F1200 X34.779 Y47.577 E85.20977
G1 X35.6 Y47.19 E85.25506
G1 X36.635 Y46.81 E85.31006
G1 X37.241 Y46.637 E85.3415
G1 X37.684 Y46.525 E85.3643
G1 X38.625 Y46.33 E85.41225
G1 X39.579 Y46.216 E85.46018
G1 X40.272 Y46.182 E85.49479
G1 X41.093 Y46.169 E85.53576
G1 X178.991 Y46.174 E92.41552
G1 X179.693 Y46.185 E92.45055
G1 X180.686 Y46.246 E92.50018
G1 X181.357 Y46.336 E92.53396
G1 X181.688 Y46.392 E92.5507
G1 X182.627 Y46.593 E92.59861
G1 X183.627 Y46.9 E92.6508
G1 X184.238 Y47.137 E92.6835
G1 X184.564 Y47.276 E92.70118
G1 X185.384 Y47.666 E92.74648
G1 X186.349 Y48.235 E92.80237
G1 X187.168 Y48.826 E92.85276
G1 X187.857 Y49.416 E92.89801
G1 X188.6 Y50.173 E92.95093
G1 X189.156 Y50.838 E92.99418
G1 X189.358 Y51.102 E93.01076
G1 X189.949 Y51.954 E93.06249
G1 X190.403 Y52.741 E93.10782
G1 X190.873 Y53.756 E93.16362
G1 X191.21 Y54.692 E93.21326
G1 X191.371 Y55.266 E93.243
G1 X191.481 Y55.703 E93.26548
G1 X191.665 Y56.591 E93.31072
G1 X191.792 Y57.684 E93.36562
G1 X191.818 Y58.264 E93.39459
G1 X191.831 Y59.067 E93.43465
G1 X191.829 Y160.94 E98.51712
G1 X191.818 Y161.668 E98.55344
G1 X191.756 Y162.674 E98.60373
G1 X191.626 Y163.585 E98.64964
G1 X191.401 Y164.652 E98.70404
G1 X191.124 Y165.563 E98.75155
G1 X190.862 Y166.241 E98.78781
G1 X190.721 Y166.57 E98.80567
G1 X190.282 Y167.482 E98.85616
G1 X189.821 Y168.264 E98.90145
G1 X189.169 Y169.174 E98.9573
G1 X188.578 Y169.863 E99.00259
G1 X187.787 Y170.637 E99.0578
G1 X187.206 Y171.12 E99.0955
G1 X186.927 Y171.336 E99.1131
G1 X186.187 Y171.86 E99.15834
G1 X185.221 Y172.423 E99.21412
G1 X184.4 Y172.81 E99.2594
G1 X183.365 Y173.19 E99.31441
G1 X182.759 Y173.363 E99.34585
G1 X182.316 Y173.475 E99.36865
G1 X181.375 Y173.67 E99.41659
G1 X180.421 Y173.784 E99.46452
G1 X179.728 Y173.818 E99.49914
G1 X178.907 Y173.831 E99.54011
G1 X41.009 Y173.826 E106.41986
G1 X40.308 Y173.815 E106.45484
G1 X39.315 Y173.754 E106.50448
G1 X38.649 Y173.665 E106.538
G1 X38.318 Y173.609 E106.55475
G1 X37.379 Y173.409 E106.60264
G1 X36.377 Y173.102 E106.65493
G1 X35.762 Y172.863 E106.68785
G1 X35.436 Y172.724 E106.70553
G1 X34.616 Y172.334 E106.75083
G1 X33.651 Y171.765 E106.80672
G1 X32.832 Y171.174 E106.85711
G1 X32.143 Y170.584 E106.90236
G1 X31.367 Y169.791 E106.95772
G1 X30.88 Y169.206 E106.99569
G1 X30.664 Y168.927 E107.01329
G1 X30.14 Y168.187 E107.05853
G1 X29.577 Y167.221 E107.11431
G1 X29.19 Y166.4 E107.1596
G1 X28.81 Y165.366 E107.21456
G1 X28.633 Y164.747 E107.24668
G1 X28.527 Y164.326 E107.26833
G1 X28.328 Y163.358 E107.31764
G1 X28.209 Y162.321 E107.36971
G1 X28.181 Y161.714 E107.40003
G1 X28.169 Y160.869 E107.44219
G1 X28.174 Y58.97 E112.52595
G1 X28.185 Y58.297 E112.55953
G1 X28.248 Y57.292 E112.60977
G1 X28.39 Y56.321 E112.65873
G1 X28.603 Y55.332 E112.7092
G1 X28.881 Y54.423 E112.75663
G1 X29.138 Y53.759 E112.79215
G1 X29.279 Y53.43 E112.81001
G1 X29.718 Y52.518 E112.8605
G1 X30.179 Y51.736 E112.90579
G1 X30.831 Y50.826 E112.96164
G1 X31.422 Y50.137 E113.00693
G1 X32.213 Y49.363 E113.06214
G1 X32.794 Y48.88 E113.09984
G1 X33.073 Y48.664 E113.11744
G1 X33.813 Y48.14 E113.16268
G0 F6000 X34.16 Y48.63
G1 F1200 X35.035 Y48.12 E113.21321
G1 X35.856 Y47.733 E113.25849
G1 X36.799 Y47.387 E113.3086
G1 X37.389 Y47.219 E113.33921
G1 X37.806 Y47.113 E113.36067
G1 X38.747 Y46.918 E113.40862
G1 X39.649 Y46.812 E113.45393
G1 X40.282 Y46.782 E113.48554
G1 X41.093 Y46.769 E113.52601
G1 X178.982 Y46.774 E120.40532
G1 X179.657 Y46.784 E120.439
G1 X180.607 Y46.841 E120.48648
G1 X181.258 Y46.928 E120.51925
G1 X181.562 Y46.979 E120.53463
G1 X182.501 Y47.18 E120.58253
G1 X183.411 Y47.46 E120.63003
G1 X184.003 Y47.689 E120.6617
G1 X184.306 Y47.818 E120.67813
G1 X185.126 Y48.208 E120.72343
G1 X185.999 Y48.722 E120.77398
G1 X186.778 Y49.282 E120.82184
G1 X187.467 Y49.872 E120.86709
G1 X188.14 Y50.558 E120.91504
G1 X188.679 Y51.203 E120.95698
G1 X188.881 Y51.467 E120.97356
G1 X189.429 Y52.254 E121.0214
G1 X189.883 Y53.041 E121.06673
G1 X190.309 Y53.96 E121.11727
G1 X190.632 Y54.854 E121.16469
G1 X190.789 Y55.413 E121.19366
G1 X190.893 Y55.825 E121.21486
G1 X191.077 Y56.713 E121.2601
G1 X191.193 Y57.711 E121.31023
G1 X191.218 Y58.274 E121.33834
G1 X191.231 Y59.067 E121.37791
G1 X191.229 Y160.931 E126.45993
G1 X191.219 Y161.632 E126.4949
G1 X191.162 Y162.589 E126.54273
G1 X191.032 Y163.5 E126.58864
G1 X190.827 Y164.477 E126.63845
G1 X190.55 Y165.388 E126.68595
G1 X190.31 Y166.006 E126.71903
G1 X190.18 Y166.311 E126.73557
G1 X189.765 Y167.177 E126.78348
G1 X189.304 Y167.959 E126.82877
G1 X188.714 Y168.783 E126.87933
G1 X188.123 Y169.472 E126.92462
G1 X187.403 Y170.176 E126.97486
G1 X186.838 Y170.646 E127.01152
G1 X186.58 Y170.846 E127.02781
G1 X185.84 Y171.37 E127.07304
G1 X184.965 Y171.88 E127.12357
G1 X184.144 Y172.267 E127.16886
G1 X183.201 Y172.613 E127.21897
G1 X182.611 Y172.781 E127.24957
G1 X182.194 Y172.887 E127.27104
G1 X181.253 Y173.082 E127.31898
G1 X180.351 Y173.188 E127.36429
G1 X179.718 Y173.218 E127.39591
G1 X178.907 Y173.231 E127.43638
G1 X41.018 Y173.226 E134.31569
G1 X40.344 Y173.216 E134.34932
G1 X39.394 Y173.159 E134.3968
G1 X38.748 Y173.073 E134.42931
G1 X38.443 Y173.022 E134.44474
G1 X37.504 Y172.822 E134.49264
G1 X36.594 Y172.542 E134.54014
G1 X35.997 Y172.311 E134.57207
G1 X35.694 Y172.182 E134.5885
G1 X34.874 Y171.792 E134.6338
G1 X34.001 Y171.278 E134.68435
G1 X33.222 Y170.718 E134.73221
G1 X32.533 Y170.128 E134.77747
G1 X31.828 Y169.407 E134.82778
G1 X31.354 Y168.838 E134.86472
G1 X31.154 Y168.58 E134.88101
G1 X30.63 Y167.84 E134.92625
G1 X30.12 Y166.965 E134.97677
G1 X29.733 Y166.144 E135.02206
G1 X29.387 Y165.201 E135.07217
G1 X29.215 Y164.599 E135.10341
G1 X29.115 Y164.205 E135.12369
G1 X28.916 Y163.237 E135.17299
G1 X28.808 Y162.294 E135.22034
G1 X28.781 Y161.705 E135.24976
G1 X28.769 Y160.869 E135.29147
G1 X28.774 Y58.979 E140.37478
G1 X28.784 Y58.333 E140.40702
G1 X28.842 Y57.378 E140.45475
G1 X28.977 Y56.446 E140.50173
