;FLAVOR:Marlin
;TIME:15713
;Filament used: 13.2748m
;Layer height: 0.16
;MINX:81.339
;MINY:73.584
;MINZ:0.2
;MAXX:138.661
;MAXY:146.416
;MAXZ:49.88
;Generated with Cura_SteamEngine 5.4.0
M140 S70
M105
M190 S70
M104 S215
M105
M109 S215
M82 ;absolute extrusion mode
M201 X500.00 Y500.00 Z100.00 E5000.00 ;Setup machine max acceleration
M203 X500.00 Y500.00 Z10.00 E50.00 ;Setup machine max feedrate
M204 P500.00 R1000.00 T500.00 ;Setup Print/Retract/Travel acceleration
M205 X8.00 Y8.00 Z0.40 E5.00 ;Setup Jerk
M220 S100 ;Reset Feedrate
M221 S100 ;Reset Flowrate

G28 ;Home

G92 E0 ;Reset Extruder
G1 Z2.0 F3000 ;Move Z Axis up
G1 X10.1 Y20 Z0.28 F5000.0 ;Move to start position
G1 X10.1 Y200.0 Z0.28 F1500.0 E15 ;Draw the first line
G1 X10.4 Y200.0 Z0.28 F5000.0 ;Move to side a little
G1 X10.4 Y20 Z0.28 F1500.0 E30 ;Draw the second line
G92 E0 ;Reset Extruder
G1 Z2.0 F3000 ;Move Z Axis up

G92 E0
G92 E0
G1 F1500 E-5
;LAYER_COUNT:290
;LAYER:0
M107
G0 F6000 X85.017 Y78.115 Z0.2
;TYPE:SKIRT
G1 F1500 E0
G1 F1200 X85.531 Y77.593 E0.03655
G1 X85.781 Y77.354 E0.0538
G1 X86.781 Y76.495 E0.11957
G1 X87.722 Y75.821 E0.17732
G1 X88.5 Y75.352 E0.22264
G1 X89.803 Y74.718 E0.29494
G1 X90.856 Y74.325 E0.35101
G1 X91.924 Y74.026 E0.40634
G1 X92.461 Y73.905 E0.4338
G1 X93.526 Y73.722 E0.48772
G1 X94.993 Y73.607 E0.56113
G1 X96.29 Y73.584 E0.62585
G1 X124.19 Y73.586 E2.01778
G1 X124.97 Y73.6 E2.0567
G1 X126.048 Y73.671 E2.1106
G1 X127.44 Y73.892 E2.18092
G1 X128.013 Y74.021 E2.21022
G1 X129.065 Y74.313 E2.26469
G1 X130.232 Y74.749 E2.32684
G1 X131.447 Y75.341 E2.39427
G1 X131.849 Y75.566 E2.41726
G1 X132.775 Y76.148 E2.47182
G1 X133.713 Y76.857 E2.53048
G1 X134.662 Y77.723 E2.59458
G1 X135.45 Y78.584 E2.65281
G1 X136.069 Y79.385 E2.70331
G1 X136.703 Y80.363 E2.76146
G1 X137.326 Y81.555 E2.82856
G1 X137.775 Y82.665 E2.8883
G1 X138.145 Y83.888 E2.95205
G1 X138.313 Y84.583 E2.98772
G1 X138.505 Y85.601 E3.0394
G1 X138.649 Y87.271 E3.12303
G1 X138.661 Y87.958 E3.15731
G1 X138.659 Y131.937 E5.35143
G1 X138.643 Y132.804 E5.39469
G1 X138.579 Y133.813 E5.44513
G1 X138.396 Y135.036 E5.50683
G1 X138.235 Y135.752 E5.54344
G1 X138.108 Y136.241 E5.56865
G1 X137.828 Y137.158 E5.61648
G1 X137.312 Y138.438 E5.68533
G1 X136.875 Y139.293 E5.73324
G1 X136.136 Y140.472 E5.80266
G1 X135.462 Y141.351 E5.85792
G1 X134.716 Y142.179 E5.91352
G1 X133.605 Y143.208 E5.98907
G1 X132.679 Y143.916 E6.04723
G1 X131.872 Y144.435 E6.0951
G1 X130.895 Y144.959 E6.15041
G1 X129.678 Y145.475 E6.21635
G1 X128.702 Y145.795 E6.2676
G1 X128.205 Y145.933 E6.29333
G1 X127.125 Y146.179 E6.34859
G1 X126.178 Y146.318 E6.39635
G1 X124.964 Y146.397 E6.45704
G1 X123.804 Y146.416 E6.51492
G1 X95.812 Y146.414 E7.91145
G1 X95.017 Y146.4 E7.95112
G1 X93.904 Y146.328 E8.00676
G1 X92.901 Y146.18 E8.05734
G1 X92.352 Y146.071 E8.08527
G1 X91.267 Y145.804 E8.14101
G1 X90.306 Y145.482 E8.19158
G1 X89.104 Y144.96 E8.25695
G1 X88.255 Y144.504 E8.30503
G1 X87.868 Y144.273 E8.32752
G1 X86.981 Y143.687 E8.38056
G1 X86.144 Y143.032 E8.43358
G1 X85.133 Y142.076 E8.503
G1 X84.361 Y141.193 E8.56152
G1 X83.703 Y140.297 E8.61698
G1 X83.147 Y139.389 E8.6701
G1 X82.551 Y138.185 E8.73712
G1 X82.129 Y137.079 E8.79618
G1 X81.814 Y135.975 E8.85346
G1 X81.663 Y135.312 E8.88738
G1 X81.479 Y134.246 E8.94135
G1 X81.362 Y132.761 E9.01567
G1 X81.339 Y131.457 E9.08073
G1 X81.341 Y88.049 E11.24637
G1 X81.356 Y87.213 E11.28808
G1 X81.433 Y86.08 E11.34474
G1 X81.633 Y84.824 E11.40819
G1 X81.765 Y84.218 E11.43913
G1 X81.999 Y83.341 E11.48442
G1 X82.473 Y82.037 E11.55364
G1 X82.975 Y80.979 E11.61206
G1 X83.51 Y80.06 E11.66511
G1 X84.181 Y79.104 E11.72338
G1 X85.017 Y78.115 E11.78799
G0 F6000 X85.445 Y78.536
G1 F1200 X85.946 Y78.027 E11.82362
G1 X86.196 Y77.788 E11.84088
G1 X87.131 Y76.982 E11.90247
G1 X88.032 Y76.335 E11.95781
G1 X88.81 Y75.866 E12.00313
G1 X90.014 Y75.28 E12.06993
G1 X91.018 Y74.903 E12.12344
G1 X92.086 Y74.604 E12.17877
G1 X92.564 Y74.496 E12.20322
G1 X93.573 Y74.32 E12.25432
G1 X95.004 Y74.207 E12.32593
G1 X96.29 Y74.184 E12.3901
G1 X124.18 Y74.186 E13.78154
G1 X124.932 Y74.199 E13.81906
G1 X125.954 Y74.264 E13.87015
G1 X127.346 Y74.485 E13.94047
G1 X127.854 Y74.599 E13.96644
G1 X128.856 Y74.875 E14.0183
G1 X129.97 Y75.289 E14.07759
G1 X131.154 Y75.865 E14.14328
G1 X131.556 Y76.09 E14.16626
G1 X132.414 Y76.628 E14.21679
G1 X133.309 Y77.301 E14.27265
G1 X134.22 Y78.129 E14.33407
G1 X134.975 Y78.951 E14.38975
G1 X135.594 Y79.752 E14.44026
G1 X136.172 Y80.642 E14.4932
G1 X136.77 Y81.781 E14.55738
G1 X137.201 Y82.839 E14.61438
G1 X137.562 Y84.029 E14.67642
G1 X137.723 Y84.694 E14.71055
G1 X137.915 Y85.712 E14.76224
G1 X138.049 Y87.282 E14.84085
G1 X138.061 Y87.958 E14.87458
G1 X138.059 Y131.926 E17.06815
G1 X138.044 Y132.766 E17.11007
G1 X137.98 Y133.775 E17.16051
G1 X137.811 Y134.904 E17.21746
G1 X137.654 Y135.602 E17.25316
G1 X137.534 Y136.066 E17.27707
G1 X137.254 Y136.983 E17.3249
G1 X136.777 Y138.166 E17.38854
G1 X136.366 Y138.975 E17.43381
G1 X135.659 Y140.108 E17.50044
G1 X135.016 Y140.949 E17.55325
G1 X134.27 Y141.777 E17.60886
G1 X133.24 Y142.732 E17.67893
G1 X132.354 Y143.411 E17.73462
G1 X131.547 Y143.93 E17.78249
G1 X130.612 Y144.43 E17.83539
G1 X129.491 Y144.905 E17.89613
G1 X128.541 Y145.217 E17.94602
G1 X128.071 Y145.348 E17.97036
G1 X127.038 Y145.585 E18.02323
G1 X126.091 Y145.724 E18.07099
G1 X124.954 Y145.797 E18.12783
G1 X123.804 Y145.816 E18.18521
G1 X95.822 Y145.814 E19.58124
G1 X95.056 Y145.801 E19.61946
G1 X93.943 Y145.729 E19.6751
G1 X93.017 Y145.591 E19.72181
G1 X92.494 Y145.488 E19.74841
G1 X91.458 Y145.235 E19.80161
G1 X90.497 Y144.913 E19.85217
G1 X89.388 Y144.431 E19.9125
G1 X88.562 Y143.988 E19.95926
G1 X88.199 Y143.772 E19.98034
G1 X87.312 Y143.186 E20.03338
G1 X86.515 Y142.56 E20.08394
G1 X85.584 Y141.68 E20.14785
G1 X84.845 Y140.838 E20.20374
G1 X84.187 Y139.942 E20.2592
G1 X83.684 Y139.122 E20.3072
G1 X83.111 Y137.97 E20.37139
G1 X82.706 Y136.914 E20.42781
G1 X82.391 Y135.81 E20.48509
G1 X82.254 Y135.208 E20.51589
G1 X82.077 Y134.198 E20.56705
G1 X81.962 Y132.75 E20.63952
G1 X81.939 Y131.457 E20.70404
G1 X81.941 Y88.059 E22.86917
G1 X81.955 Y87.252 E22.90944
G1 X82.026 Y86.174 E22.96334
G1 X82.226 Y84.918 E23.02679
G1 X82.345 Y84.373 E23.05462
G1 X82.579 Y83.496 E23.0999
G1 X83.016 Y82.293 E23.16376
G1 X83.494 Y81.281 E23.2196
G1 X84.029 Y80.362 E23.27265
G1 X84.64 Y79.491 E23.32573
G1 X85.445 Y78.536 E23.38804
G0 F6000 X85.873 Y78.957
G1 F1200 X86.361 Y78.461 E23.42276
G1 X86.611 Y78.222 E23.44001
G1 X87.482 Y77.469 E23.49745
G1 X88.342 Y76.849 E23.55035
G1 X89.12 Y76.38 E23.59567
G1 X90.225 Y75.842 E23.65698
G1 X91.229 Y75.465 E23.71049
G1 X92.219 Y75.189 E23.76176
G1 X92.669 Y75.087 E23.78478
G1 X93.621 Y74.918 E23.83302
G1 X95.015 Y74.807 E23.90279
G1 X96.29 Y74.784 E23.96641
G1 X124.17 Y74.786 E25.35735
G1 X124.895 Y74.798 E25.39352
G1 X125.86 Y74.857 E25.44176
G1 X127.252 Y75.078 E25.51207
G1 X127.696 Y75.178 E25.53478
G1 X128.648 Y75.438 E25.58402
G1 X129.708 Y75.829 E25.64038
G1 X130.892 Y76.405 E25.70607
G1 X131.238 Y76.599 E25.72586
G1 X132.053 Y77.108 E25.7738
G1 X132.948 Y77.781 E25.82967
G1 X133.779 Y78.535 E25.88565
G1 X134.5 Y79.318 E25.93875
G1 X135.119 Y80.119 E25.98926
G1 X135.668 Y80.968 E26.0397
G1 X136.215 Y82.009 E26.09837
G1 X136.627 Y83.014 E26.15256
G1 X136.979 Y84.171 E26.21289
G1 X137.133 Y84.805 E26.24544
G1 X137.325 Y85.823 E26.29712
G1 X137.449 Y87.293 E26.37072
G1 X137.461 Y87.958 E26.40391
G1 X137.459 Y131.916 E28.59698
G1 X137.445 Y132.728 E28.6375
G1 X137.381 Y133.737 E28.68794
G1 X137.226 Y134.772 E28.74015
G1 X137.073 Y135.452 E28.77492
G1 X136.96 Y135.891 E28.79754
G1 X136.68 Y136.808 E28.84537
G1 X136.242 Y137.894 E28.90379
G1 X135.831 Y138.703 E28.94906
G1 X135.182 Y139.744 E29.01027
G1 X134.57 Y140.547 E29.06064
G1 X133.824 Y141.375 E29.11624
G1 X132.874 Y142.256 E29.18088
G1 X132.029 Y142.906 E29.23407
G1 X131.222 Y143.425 E29.28193
G1 X130.33 Y143.9 E29.33235
G1 X129.304 Y144.335 E29.38795
G1 X128.379 Y144.639 E29.43653
G1 X127.936 Y144.763 E29.45948
G1 X126.951 Y144.991 E29.50992
G1 X126.004 Y145.13 E29.55767
G1 X124.944 Y145.197 E29.61066
G1 X123.804 Y145.216 E29.66754
G1 X95.832 Y145.214 E31.06307
G1 X95.094 Y145.202 E31.0999
G1 X94.031 Y145.135 E31.15304
G1 X93.132 Y145.002 E31.19837
G1 X92.635 Y144.905 E31.22364
G1 X91.649 Y144.666 E31.27425
G1 X90.688 Y144.344 E31.32482
G1 X89.672 Y143.902 E31.3801
G1 X88.846 Y143.459 E31.42686
G1 X88.529 Y143.271 E31.44525
G1 X87.683 Y142.714 E31.49578
G1 X86.886 Y142.088 E31.54634
G1 X86.034 Y141.283 E31.60482
G1 X85.328 Y140.482 E31.65809
G1 X84.698 Y139.627 E31.71107
G1 X84.221 Y138.854 E31.75639
G1 X83.671 Y137.754 E31.81775
G1 X83.283 Y136.749 E31.87149
G1 X82.976 Y135.676 E31.92717
G1 X82.845 Y135.103 E31.9565
G1 X82.675 Y134.15 E32.00479
G1 X82.562 Y132.739 E32.07541
G1 X82.539 Y131.457 E32.13938
G1 X82.541 Y88.069 E34.30402
G1 X82.554 Y87.29 E34.34289
G1 X82.619 Y86.268 E34.39398
G1 X82.819 Y85.012 E34.45743
G1 X82.925 Y84.528 E34.48215
G1 X83.159 Y83.651 E34.52744
G1 X83.559 Y82.548 E34.58597
G1 X84.013 Y81.583 E34.63918
G1 X84.548 Y80.664 E34.69223
G1 X85.131 Y79.836 E34.74275
G1 X85.873 Y78.957 E34.80014
G0 F6000 X86.301 Y79.378
G1 F1200 X86.776 Y78.895 E34.83394
G1 X87.026 Y78.656 E34.85119
G1 X87.833 Y77.955 E34.90452
G1 X88.652 Y77.363 E34.95494
G1 X89.43 Y76.894 E35.00026
G1 X90.437 Y76.403 E35.05616
G1 X91.39 Y76.043 E35.10698
G1 X92.38 Y75.767 E35.15825
G1 X92.774 Y75.678 E35.17841
G1 X93.726 Y75.509 E35.22664
G1 X95.026 Y75.407 E35.2917
G1 X96.29 Y75.384 E35.35477
G1 X124.161 Y75.386 E36.74526
G1 X124.86 Y75.397 E36.78014
G1 X125.766 Y75.45 E36.82542
G1 X127.158 Y75.671 E36.89573
G1 X127.538 Y75.757 E36.91517
G1 X128.49 Y76.017 E36.96441
G1 X129.446 Y76.369 E37.01523
G1 X130.599 Y76.929 E37.07918
G1 X130.921 Y77.109 E37.09759
G1 X131.692 Y77.588 E37.14287
G1 X132.587 Y78.261 E37.19874
G1 X133.338 Y78.942 E37.24932
G1 X134.025 Y79.685 E37.2998
G1 X134.644 Y80.486 E37.35031
G1 X135.137 Y81.248 E37.39558
G1 X135.66 Y82.238 E37.45144
G1 X136.053 Y83.189 E37.50278
G1 X136.405 Y84.346 E37.56312
G1 X136.543 Y84.916 E37.59238
G1 X136.735 Y85.934 E37.64406
G1 X136.849 Y87.304 E37.71265
G1 X136.861 Y87.958 E37.74528
G1 X136.859 Y131.906 E39.93785
G1 X136.846 Y132.69 E39.97697
G1 X136.782 Y133.699 E40.02741
G1 X136.641 Y134.64 E40.07488
G1 X136.492 Y135.303 E40.10879
G1 X136.386 Y135.716 E40.13006
G1 X136.106 Y136.633 E40.17789
G1 X135.707 Y137.622 E40.2311
G1 X135.296 Y138.431 E40.27637
G1 X134.704 Y139.381 E40.33222
G1 X134.124 Y140.145 E40.38007
G1 X133.378 Y140.973 E40.43567
G1 X132.507 Y141.781 E40.49495
G1 X131.704 Y142.401 E40.54556
G1 X130.897 Y142.92 E40.59343
G1 X130.049 Y143.37 E40.64132
G1 X129.117 Y143.765 E40.69182
G1 X128.217 Y144.061 E40.73909
G1 X127.801 Y144.178 E40.76065
G1 X126.816 Y144.406 E40.81109
G1 X125.918 Y144.536 E40.85636
G1 X124.934 Y144.597 E40.90555
G1 X123.804 Y144.616 E40.96193
G1 X95.841 Y144.614 E42.35701
G1 X95.131 Y144.603 E42.39244
G1 X94.119 Y144.541 E42.44302
G1 X93.22 Y144.408 E42.48836
G1 X92.775 Y144.322 E42.51097
G1 X91.84 Y144.097 E42.55895
G1 X90.879 Y143.775 E42.60952
G1 X89.955 Y143.373 E42.65979
G1 X89.152 Y142.943 E42.70523
G1 X88.858 Y142.769 E42.72228
G1 X88.054 Y142.242 E42.77024
G1 X87.257 Y141.616 E42.8208
G1 X86.483 Y140.885 E42.87391
G1 X85.81 Y140.125 E42.92456
G1 X85.209 Y139.312 E42.975
G1 X84.732 Y138.539 E43.02032
G1 X84.23 Y137.537 E43.07623
G1 X83.86 Y136.584 E43.12723
G1 X83.553 Y135.511 E43.18291
G1 X83.436 Y134.998 E43.20916
G1 X83.266 Y134.045 E43.25746
G1 X83.162 Y132.728 E43.32337
G1 X83.139 Y131.457 E43.38679
G1 X83.141 Y88.079 E45.55093
G1 X83.153 Y87.327 E45.58845
G1 X83.212 Y86.362 E45.63668
G1 X83.412 Y85.106 E45.70013
G1 X83.505 Y84.683 E45.72174
G1 X83.739 Y83.806 E45.76703
G1 X84.102 Y82.803 E45.82024
G1 X84.532 Y81.885 E45.87082
G1 X85.067 Y80.966 E45.92387
G1 X85.621 Y80.182 E45.97176
G1 X86.301 Y79.378 E46.0243
G0 F6000 X86.729 Y79.799
G1 F1200 X87.191 Y79.329 E46.05718
G1 X87.441 Y79.09 E46.07443
G1 X88.185 Y78.441 E46.12369
G1 X88.962 Y77.877 E46.17159
G1 X89.74 Y77.408 E46.21691
G1 X90.65 Y76.964 E46.26743
G1 X91.551 Y76.621 E46.31552
G1 X92.541 Y76.345 E46.3668
G1 X92.879 Y76.269 E46.38408
G1 X93.831 Y76.1 E46.43232
G1 X95.037 Y76.007 E46.49267
G1 X96.29 Y75.984 E46.55519
G1 X124.152 Y75.986 E47.94523
G1 X124.825 Y75.996 E47.97881
G1 X125.731 Y76.049 E48.02409
G1 X127.027 Y76.257 E48.08957
G1 X127.38 Y76.336 E48.10762
G1 X128.332 Y76.596 E48.15686
G1 X129.184 Y76.909 E48.20214
G1 X130.337 Y77.469 E48.26609
G1 X130.604 Y77.619 E48.28137
G1 X131.375 Y78.098 E48.32665
G1 X132.185 Y78.706 E48.37718
G1 X132.898 Y79.35 E48.42512
G1 X133.551 Y80.053 E48.47298
G1 X134.14 Y80.812 E48.52092
G1 X134.633 Y81.574 E48.56619
G1 X135.106 Y82.469 E48.6167
G1 X135.479 Y83.364 E48.66507
G1 X135.831 Y84.521 E48.72541
G1 X135.954 Y85.029 E48.75148
G1 X136.137 Y85.984 E48.8
G1 X136.249 Y87.315 E48.86663
G1 X136.261 Y87.958 E48.89872
G1 X136.259 Y131.896 E51.0908
G1 X136.247 Y132.653 E51.12857
G1 X136.188 Y133.611 E51.17645
G1 X136.055 Y134.509 E51.22174
G1 X135.911 Y135.154 E51.25471
G1 X135.812 Y135.541 E51.27464
G1 X135.532 Y136.458 E51.32248
G1 X135.172 Y137.35 E51.37047
G1 X134.761 Y138.159 E51.41574
G1 X134.225 Y139.019 E51.4663
G1 X133.678 Y139.743 E51.51157
G1 X132.932 Y140.571 E51.56717
G1 X132.139 Y141.307 E51.62115
G1 X131.379 Y141.896 E51.66912
G1 X130.572 Y142.415 E51.71698
G1 X129.769 Y142.839 E51.76229
G1 X128.884 Y143.212 E51.8102
G1 X128.054 Y143.484 E51.85378
G1 X127.665 Y143.594 E51.87395
G1 X126.73 Y143.812 E51.92185
G1 X125.832 Y143.942 E51.96711
G1 X124.924 Y143.997 E52.0125
G1 X123.804 Y144.016 E52.06838
G1 X95.85 Y144.014 E53.46301
G1 X95.167 Y144.004 E53.49709
G1 X94.207 Y143.947 E53.54507
G1 X93.308 Y143.814 E53.59041
G1 X92.914 Y143.738 E53.61043
G1 X92.031 Y143.528 E53.65571
G1 X91.07 Y143.206 E53.70627
G1 X90.238 Y142.844 E53.75154
G1 X89.458 Y142.427 E53.79567
G1 X89.186 Y142.266 E53.81144
G1 X88.425 Y141.77 E53.85676
G1 X87.628 Y141.144 E53.90732
G1 X86.931 Y140.486 E53.95514
G1 X86.292 Y139.768 E54.00309
G1 X85.72 Y138.997 E54.05099
G1 X85.243 Y138.224 E54.0963
G1 X84.789 Y137.318 E54.14686
G1 X84.437 Y136.419 E54.19503
G1 X84.13 Y135.346 E54.25071
G1 X84.027 Y134.893 E54.27389
G1 X83.857 Y133.94 E54.32218
G1 X83.762 Y132.717 E54.38338
G1 X83.739 Y131.457 E54.44625
G1 X83.741 Y88.088 E56.60994
G1 X83.752 Y87.362 E56.64617
G1 X83.805 Y86.456 E56.69144
G1 X84.005 Y85.2 E56.7549
G1 X84.085 Y84.838 E56.77339
G1 X84.319 Y83.961 E56.81868
G1 X84.645 Y83.058 E56.86657
G1 X85.075 Y82.14 E56.91715
G1 X85.558 Y81.311 E56.96501
G1 X86.08 Y80.569 E57.01028
G1 X86.729 Y79.799 E57.06052
G0 F6000 X87.157 Y80.22
G1 F1200 X87.606 Y79.763 E57.09248
G1 X87.856 Y79.524 E57.10973
G1 X88.539 Y78.926 E57.15502
G1 X89.272 Y78.391 E57.2003
G1 X90.05 Y77.922 E57.24562
G1 X90.865 Y77.524 E57.29087
G1 X91.712 Y77.199 E57.33613
G1 X92.702 Y76.923 E57.38741
G1 X92.985 Y76.859 E57.40188
G1 X93.878 Y76.698 E57.44715
G1 X95.048 Y76.607 E57.5057
G1 X96.29 Y76.584 E57.56767
G1 X124.144 Y76.586 E58.95732
G1 X124.79 Y76.595 E58.98955
G1 X125.696 Y76.648 E59.03483
G1 X126.896 Y76.843 E59.09548
G1 X127.249 Y76.922 E59.11353
G1 X128.125 Y77.159 E59.1588
G1 X128.977 Y77.472 E59.20409
G1 X130.043 Y77.992 E59.26326
G1 X130.287 Y78.129 E59.27722
G1 X131.058 Y78.608 E59.3225
G1 X131.784 Y79.152 E59.36776
G1 X132.459 Y79.759 E59.41305
G1 X133.078 Y80.422 E59.45831
G1 X133.636 Y81.138 E59.50359
G1 X134.129 Y81.9 E59.54887
G1 X134.553 Y82.702 E59.59413
G1 X134.905 Y83.539 E59.63943
G1 X135.257 Y84.696 E59.69977
G1 X135.365 Y85.144 E59.72276
G1 X135.539 Y86.035 E59.76805
G1 X135.649 Y87.326 E59.83269
G1 X135.661 Y87.958 E59.86423
G1 X135.659 Y131.887 E62.05586
G1 X135.648 Y132.617 E62.09228
G1 X135.594 Y133.523 E62.13756
G1 X135.461 Y134.421 E62.18285
G1 X135.33 Y135.006 E62.21276
G1 X135.238 Y135.367 E62.23135
G1 X134.975 Y136.235 E62.27659
G1 X134.637 Y137.078 E62.32191
G1 X134.226 Y137.887 E62.36718
G1 X133.746 Y138.657 E62.41245
G1 X133.199 Y139.381 E62.45772
G1 X132.523 Y140.132 E62.50813
G1 X131.77 Y140.834 E62.55949
