;FLAVOR:Marlin
;TIME:8840
;Filament used: 6.92668m
;Layer height: 0.16
;MINX:82.829
;MINY:65.279
;MINZ:0.2
;MAXX:142.172
;MAXY:180.776
;MAXZ:10.08
;Generated with Creality Slicer 4.8.2-205
M140 S70
M105
M190 S70
M104 S220
M105
M109 S220
M82 ;absolute extrusion mode

G28 ;Home

G92 E0 ;Reset Extruder
G1 Z2.0 F3000 ;Move Z Axis up
G1 X10.1 Y20 Z0.28 F5000.0 ;Move to start position
G1 X10.1 Y200.0 Z0.28 F1500.0 E15 ;Draw the first line
G1 X10.4 Y200.0 Z0.28 F5000.0 ;Move to side a little
G1 X10.4 Y20 Z0.28 F1500.0 E30 ;Draw the second line
G92 E0 ;Reset Extruder
G1 Z2.0 F3000 ;Move Z Axis up

G92 E0
G92 E0
G1 F1500 E-6
;LAYER_COUNT:55
;LAYER:0
M107
G1 F300 Z0.4
G0 F6000 X86.354 Y70.294 Z0.4
;TYPE:SKIRT
G1 F300 Z0.2
G1 F1500 E0
G1 F1200 X87.059 Y69.542 E0.05143
G1 X87.503 Y69.123 E0.08188
G1 X87.776 Y68.877 E0.10022
G1 X88.568 Y68.216 E0.15168
G1 X89.074 Y67.846 E0.18296
G1 X89.239 Y67.731 E0.19299
G1 X90.107 Y67.174 E0.24445
G1 X91.016 Y66.687 E0.29589
G1 X91.96 Y66.271 E0.34736
G1 X92.661 Y66.017 E0.38456
G1 X92.827 Y65.962 E0.39328
G1 X93.818 Y65.676 E0.44474
G1 X94.828 Y65.467 E0.4962
G1 X95.851 Y65.338 E0.54764
G1 X96.612 Y65.293 E0.58567
G1 X96.846 Y65.286 E0.59735
G1 X97.324 Y65.279 E0.6212
G1 X127.49 Y65.281 E2.12619
G1 X128.174 Y65.291 E2.16032
G1 X129.204 Y65.346 E2.21178
G1 X130.227 Y65.481 E2.26326
G1 X131.236 Y65.695 E2.31472
G1 X132.601 Y66.119 E2.38603
G1 X132.852 Y66.212 E2.39938
G1 X133.804 Y66.607 E2.4508
G1 X134.723 Y67.075 E2.50226
G1 X135.603 Y67.613 E2.55371
G1 X136.439 Y68.218 E2.6052
G1 X136.856 Y68.559 E2.63207
G1 X137.106 Y68.772 E2.64846
G1 X138.046 Y69.655 E2.7128
G1 X138.217 Y69.832 E2.72508
G1 X138.905 Y70.601 E2.77656
G1 X139.81 Y71.835 E2.85291
G1 X139.954 Y72.057 E2.86611
G1 X140.156 Y72.378 E2.88503
G1 X140.659 Y73.278 E2.93647
G1 X141.091 Y74.214 E2.9879
G1 X141.449 Y75.182 E3.03939
G1 X141.818 Y76.553 E3.11022
G1 X141.874 Y76.817 E3.12369
G1 X142.048 Y77.834 E3.17516
G1 X142.156 Y79.157 E3.24139
G1 X142.165 Y79.507 E3.25885
G1 X142.172 Y80.157 E3.29128
G1 X142.166 Y165.956 E7.57181
G1 X142.157 Y166.617 E7.60479
G1 X142.103 Y167.647 E7.65625
G1 X141.969 Y168.67 E7.70772
G1 X141.845 Y169.306 E7.74005
G1 X141.763 Y169.677 E7.75901
G1 X141.501 Y170.675 E7.81049
G1 X141.163 Y171.649 E7.86192
G1 X140.751 Y172.595 E7.9134
G1 X140.266 Y173.505 E7.96485
G1 X139.599 Y174.537 E8.02615
G1 X139.459 Y174.733 E8.03817
G1 X138.827 Y175.549 E8.08966
G1 X138.156 Y176.291 E8.13957
G1 X137.956 Y176.496 E8.15386
G1 X137.208 Y177.205 E8.20528
G1 X136.781 Y177.564 E8.23311
G1 X136.575 Y177.73 E8.24631
G1 X135.748 Y178.346 E8.29775
G1 X134.875 Y178.895 E8.3492
G1 X133.962 Y179.375 E8.40067
G1 X133.19 Y179.715 E8.44275
G1 X132.981 Y179.799 E8.45399
G1 X132.01 Y180.146 E8.50543
G1 X131.015 Y180.417 E8.55688
G1 X130.002 Y180.61 E8.60833
G1 X128.977 Y180.724 E8.65978
G1 X128.265 Y180.756 E8.69534
G1 X127.284 Y180.774 E8.74429
G1 X127.039 Y180.776 E8.75651
G1 X97.701 Y180.773 E10.22019
G1 X96.792 Y180.76 E10.26555
G1 X95.762 Y180.704 E10.31701
G1 X94.74 Y180.568 E10.36845
G1 X93.731 Y180.354 E10.41991
G1 X92.355 Y179.924 E10.49183
G1 X92.135 Y179.842 E10.50354
G1 X91.183 Y179.445 E10.555
G1 X90.265 Y178.975 E10.60646
G1 X89.386 Y178.435 E10.65792
G1 X88.867 Y178.07 E10.68958
G1 X88.361 Y177.68 E10.72145
G1 X88.178 Y177.532 E10.73319
G1 X87.401 Y176.853 E10.78467
G1 X86.655 Y176.088 E10.83798
G1 X86.511 Y175.928 E10.84872
G1 X85.98 Y175.3 E10.88975
G1 X85.853 Y175.14 E10.89994
G1 X85.243 Y174.308 E10.95141
G1 X84.7 Y173.431 E11.00287
G1 X84.227 Y172.515 E11.05431
G1 X83.808 Y171.517 E11.10831
G1 X83.679 Y171.171 E11.12673
G1 X83.356 Y170.192 E11.17816
G1 X83.111 Y169.19 E11.22962
G1 X82.943 Y168.172 E11.2811
G1 X82.876 Y167.493 E11.31514
G1 X82.844 Y166.89 E11.34527
G1 X82.836 Y166.635 E11.35799
G1 X82.829 Y166.217 E11.37885
G1 X82.834 Y80.101 E15.6752
G1 X82.843 Y79.428 E15.70878
G1 X82.897 Y78.398 E15.76023
G1 X83.03 Y77.376 E15.81165
G1 X83.161 Y76.709 E15.84556
G1 X83.236 Y76.373 E15.86274
G1 X83.5 Y75.375 E15.91424
G1 X83.84 Y74.402 E15.96566
G1 X84.254 Y73.457 E16.01714
G1 X84.741 Y72.548 E16.06858
G1 X85.034 Y72.071 E16.09651
G1 X85.09 Y71.984 E16.10167
G1 X85.576 Y71.279 E16.14439
G1 X85.709 Y71.099 E16.15556
G1 X86.354 Y70.294 E16.20702
G0 F6000 X86.822 Y70.67
G1 F1200 X87.513 Y69.936 E16.25732
G1 X87.904 Y69.568 E16.2841
G1 X88.177 Y69.322 E16.30244
G1 X88.952 Y68.678 E16.35271
G1 X89.417 Y68.338 E16.38145
G1 X89.582 Y68.223 E16.39148
G1 X90.431 Y67.68 E16.44176
G1 X91.321 Y67.206 E16.49207
G1 X92.245 Y66.804 E16.54234
G1 X92.85 Y66.586 E16.57443
G1 X93.016 Y66.531 E16.58315
G1 X93.984 Y66.253 E16.6334
G1 X94.972 Y66.052 E16.6837
G1 X95.972 Y65.929 E16.73396
G1 X96.63 Y65.893 E16.76684
G1 X97.122 Y65.881 E16.79139
G1 X97.453 Y65.878 E16.80791
G1 X127.482 Y65.881 E18.30606
G1 X128.166 Y65.891 E18.34019
G1 X129.172 Y65.946 E18.39045
G1 X130.171 Y66.08 E18.44074
G1 X131.156 Y66.293 E18.49102
G1 X132.392 Y66.681 E18.55565
G1 X132.643 Y66.774 E18.569
G1 X133.574 Y67.162 E18.61932
G1 X134.471 Y67.621 E18.66959
G1 X135.328 Y68.151 E18.71987
G1 X136.467 Y69.016 E18.79122
G1 X136.717 Y69.229 E18.80761
G1 X137.615 Y70.072 E18.86905
G1 X137.786 Y70.249 E18.88133
G1 X138.457 Y71.001 E18.93161
G1 X139.307 Y72.162 E19.0034
G1 X139.451 Y72.384 E19.0166
G1 X139.644 Y72.691 E19.03469
G1 X140.135 Y73.571 E19.08497
G1 X140.554 Y74.487 E19.13522
G1 X140.9 Y75.434 E19.18552
G1 X141.231 Y76.678 E19.24975
G1 X141.287 Y76.942 E19.26321
G1 X141.456 Y77.935 E19.31346
G1 X141.557 Y79.176 E19.37558
G1 X141.565 Y79.515 E19.3925
G1 X141.572 Y80.157 E19.42453
G1 X141.566 Y165.948 E23.70466
G1 X141.557 Y166.609 E23.73764
G1 X141.503 Y167.615 E23.7879
G1 X141.37 Y168.614 E23.83818
G1 X141.259 Y169.177 E23.86681
G1 X141.177 Y169.548 E23.88577
G1 X140.92 Y170.522 E23.93602
G1 X140.588 Y171.474 E23.98633
G1 X140.18 Y172.396 E24.03663
G1 X139.701 Y173.282 E24.08688
G1 X139.11 Y174.189 E24.14088
G1 X138.97 Y174.385 E24.1529
G1 X138.353 Y175.181 E24.20315
G1 X137.726 Y175.872 E24.2497
G1 X137.526 Y176.077 E24.26399
G1 X136.795 Y176.77 E24.31424
G1 X136.405 Y177.097 E24.33963
G1 X136.199 Y177.263 E24.35283
G1 X135.39 Y177.864 E24.40311
G1 X134.535 Y178.398 E24.4534
G1 X133.641 Y178.863 E24.50368
G1 X132.966 Y179.158 E24.54043
G1 X132.757 Y179.242 E24.55167
G1 X131.808 Y179.58 E24.60193
G1 X130.835 Y179.842 E24.6522
G1 X129.844 Y180.026 E24.70248
G1 X128.842 Y180.131 E24.75275
G1 X128.254 Y180.156 E24.78211
G1 X127.273 Y180.174 E24.83106
G1 X127.039 Y180.176 E24.84273
G1 X97.701 Y180.173 E26.30641
G1 X96.801 Y180.16 E26.35132
G1 X95.795 Y180.105 E26.40158
G1 X94.796 Y179.969 E26.45188
G1 X93.811 Y179.755 E26.50217
G1 X92.564 Y179.362 E26.5674
G1 X92.344 Y179.28 E26.57912
G1 X91.415 Y178.891 E26.62936
G1 X90.519 Y178.429 E26.67966
G1 X89.278 Y177.627 E26.75337
G1 X89.222 Y177.586 E26.75684
G1 X88.738 Y177.214 E26.78729
G1 X88.555 Y177.066 E26.79903
G1 X87.797 Y176.401 E26.84934
G1 X87.101 Y175.687 E26.89909
G1 X86.957 Y175.527 E26.90983
G1 X86.45 Y174.927 E26.94902
G1 X86.323 Y174.767 E26.95921
G1 X85.728 Y173.953 E27.00951
G1 X85.2 Y173.095 E27.05977
G1 X84.741 Y172.198 E27.11004
G1 X84.37 Y171.308 E27.15815
G1 X84.241 Y170.962 E27.17657
G1 X83.927 Y170.004 E27.22687
G1 X83.689 Y169.025 E27.27713
G1 X83.53 Y168.03 E27.3274
G1 X83.474 Y167.447 E27.35662
G1 X83.443 Y166.871 E27.3854
G1 X83.435 Y166.616 E27.39813
G1 X83.429 Y166.217 E27.41804
G1 X83.434 Y80.109 E31.71398
G1 X83.443 Y79.436 E31.74756
G1 X83.497 Y78.43 E31.79782
G1 X83.63 Y77.431 E31.8481
G1 X83.747 Y76.839 E31.87821
G1 X83.822 Y76.503 E31.89539
G1 X84.08 Y75.529 E31.94566
G1 X84.415 Y74.579 E31.99591
G1 X84.824 Y73.658 E32.04619
G1 X85.538 Y72.396 E32.11853
G1 X85.594 Y72.309 E32.12369
G1 X86.059 Y71.636 E32.1645
G1 X86.192 Y71.456 E32.17567
G1 X86.822 Y70.67 E32.22592
G0 F6000 X87.291 Y71.046
G1 F1200 X88.306 Y70.014 E32.29814
G1 X88.579 Y69.768 E32.31647
G1 X89.336 Y69.14 E32.36554
G1 X89.76 Y68.83 E32.39175
G1 X89.925 Y68.715 E32.40178
G1 X90.755 Y68.186 E32.45088
G1 X91.624 Y67.726 E32.49994
G1 X92.528 Y67.338 E32.54902
G1 X93.038 Y67.156 E32.57603
G1 X93.204 Y67.101 E32.58476
G1 X94.15 Y66.83 E32.63385
G1 X95.114 Y66.636 E32.68291
G1 X96.091 Y66.522 E32.73198
G1 X96.648 Y66.492 E32.75981
G1 X97.128 Y66.481 E32.78377
G1 X97.453 Y66.478 E32.79998
G1 X127.473 Y66.481 E34.29769
G1 X128.157 Y66.491 E34.33181
G1 X129.139 Y66.546 E34.38088
G1 X130.114 Y66.68 E34.42998
G1 X131.074 Y66.892 E34.47903
G1 X132.184 Y67.244 E34.53713
G1 X132.435 Y67.337 E34.55048
G1 X133.343 Y67.716 E34.59957
G1 X134.217 Y68.167 E34.64864
G1 X135.051 Y68.688 E34.6977
G1 X136.078 Y69.473 E34.76219
G1 X136.328 Y69.686 E34.77857
G1 X137.183 Y70.489 E34.83709
G1 X137.354 Y70.666 E34.84937
G1 X138.008 Y71.4 E34.89842
G1 X138.803 Y72.488 E34.96565
G1 X138.947 Y72.71 E34.97885
G1 X139.132 Y73.003 E34.99614
G1 X139.61 Y73.863 E35.04522
G1 X140.017 Y74.758 E35.09427
G1 X140.35 Y75.684 E35.14337
G1 X140.644 Y76.802 E35.20104
G1 X140.7 Y77.066 E35.21451
G1 X140.864 Y78.036 E35.26359
G1 X140.957 Y79.195 E35.3216
G1 X140.965 Y79.522 E35.33792
G1 X140.972 Y80.157 E35.3696
G1 X140.966 Y165.94 E39.64933
G1 X140.957 Y166.601 E39.68231
G1 X140.904 Y167.583 E39.73137
G1 X140.771 Y168.558 E39.78047
G1 X140.673 Y169.047 E39.80535
G1 X140.591 Y169.418 E39.8243
G1 X140.34 Y170.369 E39.87337
G1 X140.012 Y171.297 E39.92248
G1 X139.61 Y172.195 E39.97156
G1 X139.137 Y173.057 E40.02062
G1 X138.622 Y173.84 E40.06737
G1 X138.482 Y174.036 E40.07939
G1 X137.878 Y174.813 E40.12849
G1 X137.297 Y175.453 E40.17162
G1 X137.097 Y175.658 E40.1859
G1 X136.028 Y176.63 E40.25799
G1 X135.822 Y176.796 E40.27119
G1 X135.032 Y177.381 E40.32023
G1 X134.196 Y177.901 E40.36935
G1 X133.322 Y178.351 E40.41839
G1 X132.742 Y178.601 E40.4499
G1 X132.533 Y178.685 E40.46114
G1 X131.606 Y179.015 E40.51023
G1 X130.656 Y179.268 E40.55928
G1 X129.688 Y179.443 E40.60835
G1 X128.243 Y179.556 E40.68067
G1 X127.262 Y179.574 E40.72962
G1 X127.039 Y179.576 E40.74074
G1 X97.512 Y179.572 E42.21385
G1 X96.81 Y179.561 E42.24888
G1 X95.828 Y179.505 E42.29795
G1 X94.854 Y179.37 E42.34701
G1 X93.894 Y179.157 E42.39607
G1 X92.774 Y178.8 E42.45471
G1 X92.554 Y178.718 E42.46643
G1 X91.647 Y178.337 E42.51551
G1 X90.774 Y177.884 E42.56458
G1 X89.632 Y177.143 E42.63249
G1 X89.576 Y177.102 E42.63596
G1 X89.115 Y176.747 E42.66498
G1 X88.932 Y176.599 E42.67673
G1 X88.193 Y175.95 E42.7258
G1 X87.547 Y175.285 E42.77205
G1 X87.403 Y175.125 E42.78279
G1 X86.92 Y174.554 E42.8201
G1 X86.793 Y174.394 E42.83029
G1 X86.213 Y173.599 E42.87939
G1 X85.7 Y172.76 E42.92845
G1 X85.256 Y171.882 E42.97754
G1 X84.932 Y171.098 E43.01986
G1 X84.803 Y170.752 E43.03828
G1 X84.497 Y169.817 E43.08736
G1 X84.269 Y168.86 E43.13644
G1 X84.077 Y167.453 E43.20729
G1 X84.043 Y166.852 E43.23732
G1 X84.035 Y166.597 E43.25005
G1 X84.029 Y166.217 E43.26901
G1 X84.034 Y80.117 E47.56456
G1 X84.043 Y79.444 E47.59814
G1 X84.096 Y78.462 E47.6472
G1 X84.229 Y77.487 E47.69629
G1 X84.333 Y76.97 E47.7226
G1 X84.408 Y76.634 E47.73978
G1 X84.661 Y75.683 E47.78888
G1 X84.99 Y74.757 E47.8379
G1 X85.394 Y73.86 E47.88698
G1 X86.043 Y72.721 E47.95239
G1 X86.099 Y72.634 E47.95755
G1 X86.541 Y71.992 E47.99643
G1 X86.674 Y71.812 E48.0076
G1 X87.291 Y71.046 E48.05667
G0 F6000 X87.758 Y71.422
G1 F1200 X88.708 Y70.46 E48.12412
G1 X88.981 Y70.214 E48.14246
G1 X90.103 Y69.322 E48.21397
G1 X90.268 Y69.207 E48.224
G1 X91.077 Y68.692 E48.27185
G1 X91.926 Y68.247 E48.31967
G1 X93.227 Y67.726 E48.38959
G1 X93.393 Y67.671 E48.39831
G1 X94.315 Y67.407 E48.44616
G1 X95.256 Y67.222 E48.49401
G1 X96.666 Y67.092 E48.56465
G1 X97.133 Y67.081 E48.58796
G1 X97.453 Y67.078 E48.60392
G1 X127.464 Y67.081 E50.10118
G1 X128.148 Y67.091 E50.1353
G1 X129.106 Y67.145 E50.18317
G1 X130.055 Y67.279 E50.23099
G1 X130.99 Y67.491 E50.27882
G1 X131.976 Y67.806 E50.33046
G1 X132.227 Y67.899 E50.34382
G1 X133.111 Y68.27 E50.39165
G1 X133.962 Y68.713 E50.43951
G1 X134.772 Y69.225 E50.48732
G1 X135.689 Y69.929 E50.545
G1 X135.939 Y70.142 E50.56138
G1 X136.752 Y70.906 E50.61704
G1 X136.923 Y71.083 E50.62932
G1 X137.56 Y71.8 E50.67717
G1 X138.3 Y72.815 E50.73984
G1 X138.444 Y73.037 E50.75304
G1 X138.62 Y73.316 E50.7695
G1 X139.085 Y74.155 E50.81735
G1 X139.479 Y75.029 E50.86518
G1 X139.799 Y75.933 E50.91303
G1 X140.057 Y76.927 E50.96426
G1 X140.113 Y77.191 E50.97772
G1 X140.272 Y78.136 E51.02553
G1 X140.357 Y79.214 E51.07948
G1 X140.365 Y79.529 E51.0952
G1 X140.372 Y80.157 E51.12653
G1 X140.366 Y165.932 E55.40587
G1 X140.357 Y166.593 E55.43885
G1 X140.304 Y167.55 E55.48666
G1 X140.087 Y168.918 E55.55577
G1 X140.005 Y169.289 E55.57472
G1 X139.759 Y170.216 E55.62257
G1 X139.437 Y171.119 E55.6704
G1 X139.041 Y171.992 E55.71823
G1 X138.573 Y172.829 E55.76607
G1 X138.134 Y173.491 E55.8057
G1 X137.994 Y173.687 E55.81772
G1 X137.405 Y174.444 E55.86557
G1 X136.867 Y175.034 E55.9054
G1 X136.667 Y175.239 E55.91969
G1 X135.652 Y176.162 E55.98814
G1 X135.446 Y176.328 E56.00134
G1 X134.675 Y176.899 E56.0492
G1 X133.859 Y177.402 E56.09703
G1 X133.004 Y177.836 E56.14486
G1 X132.519 Y178.044 E56.17119
G1 X132.31 Y178.128 E56.18243
G1 X131.406 Y178.449 E56.23029
G1 X130.478 Y178.692 E56.27815
G1 X129.534 Y178.858 E56.32597
G1 X128.232 Y178.956 E56.39111
G1 X127.251 Y178.974 E56.44006
G1 X127.039 Y178.976 E56.45064
G1 X97.522 Y178.972 E57.92324
G1 X96.82 Y178.961 E57.95827
G1 X95.862 Y178.906 E58.00614
G1 X94.913 Y178.771 E58.05397
G1 X93.978 Y178.558 E58.10181
G1 X92.984 Y178.238 E58.15391
G1 X92.764 Y178.156 E58.16562
G1 X91.88 Y177.784 E58.21347
G1 X91.03 Y177.339 E58.26134
G1 X89.987 Y176.659 E58.32345
G1 X89.492 Y176.281 E58.35453
G1 X89.309 Y176.133 E58.36627
G1 X88.59 Y175.499 E58.41409
G1 X87.993 Y174.884 E58.45685
G1 X87.849 Y174.724 E58.46759
G1 X87.39 Y174.181 E58.50307
G1 X87.263 Y174.021 E58.51326
G1 X86.698 Y173.245 E58.56115
G1 X86.2 Y172.426 E58.60897
G1 X85.773 Y171.567 E58.65683
G1 X85.495 Y170.888 E58.69343
G1 X85.366 Y170.542 E58.71185
G1 X85.068 Y169.631 E58.75967
G1 X84.848 Y168.697 E58.80755
G1 X84.675 Y167.407 E58.87248
G1 X84.643 Y166.834 E58.90111
G1 X84.635 Y166.579 E58.91384
G1 X84.629 Y166.217 E58.9319
G1 X84.634 Y80.125 E63.22705
G1 X84.643 Y79.452 E63.26063
G1 X84.696 Y78.495 E63.30845
G1 X84.918 Y77.101 E63.37887
G1 X84.993 Y76.765 E63.39605
G1 X85.241 Y75.838 E63.44392
G1 X85.565 Y74.936 E63.49174
G1 X85.963 Y74.063 E63.5396
G1 X86.547 Y73.046 E63.59811
G1 X86.603 Y72.959 E63.60328
G1 X87.024 Y72.349 E63.64025
G1 X87.157 Y72.169 E63.65142
G1 X87.758 Y71.422 E63.69925
G0 F6000 X88.226 Y71.799
G1 F1200 X89.109 Y70.906 E63.76191
G1 X89.382 Y70.66 E63.78024
G1 X90.446 Y69.815 E63.84803
G1 X90.611 Y69.7 E63.85806
G1 X91.4 Y69.199 E63.90469
G1 X92.228 Y68.768 E63.95126
G1 X93.416 Y68.295 E64.01505
G1 X93.582 Y68.24 E64.02378
G1 X94.48 Y67.985 E64.07035
G1 X95.396 Y67.807 E64.1169
G1 X96.684 Y67.692 E64.18142
G1 X97.139 Y67.681 E64.20413
G1 X97.453 Y67.678 E64.21979
G1 X127.455 Y67.681 E65.7166
G1 X128.139 Y67.691 E65.75073
G1 X129.071 Y67.745 E65.7973
G1 X129.995 Y67.878 E65.84388
G1 X130.905 Y68.09 E65.89049
G1 X131.767 Y68.369 E65.93569
G1 X132.018 Y68.462 E65.94905
G1 X132.879 Y68.824 E65.99565
G1 X133.705 Y69.257 E66.04217
G1 X134.492 Y69.761 E66.0888
G1 X135.3 Y70.386 E66.13976
G1 X135.55 Y70.599 E66.15615
G1 X136.32 Y71.323 E66.20888
G1 X136.491 Y71.5 E66.22116
G1 X137.111 Y72.198 E66.26773
G1 X137.797 Y73.141 E66.32591
G1 X137.941 Y73.363 E66.33911
G1 X138.108 Y73.629 E66.35478
G1 X138.56 Y74.446 E66.40136
G1 X138.941 Y75.298 E66.44793
G1 X139.247 Y76.18 E66.4945
G1 X139.47 Y77.051 E66.53936
G1 X139.526 Y77.315 E66.55282
G1 X139.68 Y78.236 E66.59941
G1 X139.758 Y79.233 E66.6493
G1 X139.765 Y79.537 E66.66447
G1 X139.772 Y80.157 E66.69541
G1 X139.766 Y165.923 E70.97429
G1 X139.757 Y166.584 E71.00727
G1 X139.704 Y167.517 E71.05389
G1 X139.501 Y168.788 E71.11811
G1 X139.419 Y169.159 E71.13706
G1 X139.179 Y170.062 E71.18368
G1 X138.862 Y170.94 E71.23025
G1 X138.471 Y171.788 E71.27684
G1 X138.01 Y172.599 E71.32338
G1 X137.646 Y173.142 E71.35599
G1 X137.506 Y173.338 E71.36801
G1 X136.931 Y174.074 E71.41461
G1 X136.438 Y174.615 E71.45112
