;FLAVOR:Marlin
;TIME:1650
;Filament used: 1.26266m
;Layer height: 0.16
;MINX:88.425
;MINY:86.16
;MINZ:0.2
;MAXX:131.571
;MAXY:133.836
;MAXZ:16.36
;TARGET_MACHINE.NAME:Creality Ender-5
;Generated with Cura_SteamEngine 5.7.1
M140 S70
M105
M190 S70
M104 S215
M105
M109 S215
M82 ;absolute extrusion mode
M201 X500.00 Y500.00 Z100.00 E5000.00 ;Setup machine max acceleration
M203 X500.00 Y500.00 Z10.00 E50.00 ;Setup machine max feedrate
M204 P500.00 R1000.00 T500.00 ;Setup Print/Retract/Travel acceleration
M205 X8.00 Y8.00 Z0.40 E5.00 ;Setup Jerk
M220 S100 ;Reset Feedrate
M221 S100 ;Reset Flowrate

G28 ;Home

G92 E0 ;Reset Extruder
G1 Z2.0 F3000 ;Move Z Axis up
G1 X10.1 Y20 Z0.28 F5000.0 ;Move to start position
G1 X10.1 Y200.0 Z0.28 F1500.0 E15 ;Draw the first line
G1 X10.4 Y200.0 Z0.28 F5000.0 ;Move to side a little
G1 X10.4 Y20 Z0.28 F1500.0 E30 ;Draw the second line
G92 E0 ;Reset Extruder
G1 Z2.0 F3000 ;Move Z Axis up

G92 E0
G92 E0
G1 F1500 E-5
;LAYER_COUNT:83
;LAYER:0
M107
G0 F6000 X92.437 Y90.305 Z0.2
;TYPE:SKIRT
G1 F1500 E0
G1 F1200 X93.093 Y89.678 E0.04527
G1 X94.22 Y88.781 E0.11713
G1 X95.096 Y88.205 E0.16944
G1 X95.933 Y87.741 E0.21718
G1 X96.393 Y87.512 E0.24282
G1 X97.27 Y87.124 E0.29067
G1 X98.526 Y86.693 E0.35691
G1 X99.562 Y86.438 E0.41014
G1 X100.887 Y86.237 E0.477
G1 X102.005 Y86.17 E0.53288
G1 X102.616 Y86.161 E0.56337
G1 X117.489 Y86.16 E1.30538
G1 X118.49 Y86.177 E1.35533
G1 X119.396 Y86.231 E1.40061
G1 X120.824 Y86.445 E1.47265
G1 X121.859 Y86.701 E1.52584
G1 X123.071 Y87.117 E1.58977
G1 X124.128 Y87.59 E1.64755
G1 X124.924 Y88.025 E1.6928
G1 X126.076 Y88.793 E1.76188
G1 X126.866 Y89.427 E1.81241
G1 X127.864 Y90.387 E1.8815
G1 X128.49 Y91.107 E1.9291
G1 X129.163 Y92.01 E1.98529
G1 X129.712 Y92.863 E2.03589
G1 X130.326 Y94.031 E2.10173
G1 X130.68 Y94.867 E2.14702
G1 X131.118 Y96.236 E2.21873
G1 X131.319 Y97.12 E2.26396
G1 X131.512 Y98.524 E2.33466
G1 X131.559 Y99.412 E2.37903
G1 X131.568 Y100.016 E2.40917
G1 X131.571 Y119.7 E3.3912
G1 X131.555 Y120.72 E3.4421
G1 X131.498 Y121.679 E3.49003
G1 X131.293 Y123.047 E3.55904
G1 X131.03 Y124.123 E3.6143
G1 X130.728 Y125.035 E3.66223
G1 X130.148 Y126.364 E3.73457
G1 X129.635 Y127.293 E3.78752
G1 X129.017 Y128.223 E3.84323
G1 X128.189 Y129.252 E3.90912
G1 X127.471 Y130 E3.96085
G1 X126.609 Y130.777 E4.01875
G1 X125.762 Y131.422 E4.07186
G1 X124.777 Y132.047 E4.13006
G1 X123.59 Y132.655 E4.1966
G1 X122.701 Y133.017 E4.24449
G1 X121.382 Y133.424 E4.31335
G1 X120.495 Y133.615 E4.35862
G1 X119.109 Y133.788 E4.4283
G1 X118.37 Y133.824 E4.46522
G1 X117.581 Y133.836 E4.50458
G1 X102.358 Y133.834 E5.26406
G1 X101.527 Y133.819 E5.30553
G1 X100.569 Y133.761 E5.35341
G1 X99.195 Y133.555 E5.42273
G1 X98.158 Y133.299 E5.47601
G1 X97.05 Y132.924 E5.53437
G1 X95.882 Y132.406 E5.59812
G1 X94.87 Y131.843 E5.65589
G1 X94.114 Y131.34 E5.7012
G1 X92.992 Y130.441 E5.77293
G1 X92.232 Y129.708 E5.8256
G1 X91.484 Y128.878 E5.88135
G1 X90.839 Y128.031 E5.93446
G1 X90.214 Y127.046 E5.99266
G1 X89.606 Y125.859 E6.0592
G1 X89.244 Y124.97 E6.10709
G1 X88.837 Y123.651 E6.17595
G1 X88.646 Y122.764 E6.22122
G1 X88.473 Y121.38 E6.29081
G1 X88.436 Y120.629 E6.32832
G1 X88.426 Y119.983 E6.36055
G1 X88.425 Y100.607 E7.32722
G1 X88.442 Y99.542 E7.38036
G1 X88.5 Y98.585 E7.4282
G1 X88.703 Y97.221 E7.497
G1 X88.943 Y96.236 E7.54758
G1 X89.334 Y95.069 E7.60898
G1 X89.854 Y93.897 E7.67295
G1 X90.423 Y92.876 E7.73126
G1 X91.054 Y91.941 E7.78754
G1 X91.57 Y91.281 E7.82933
G1 X92.437 Y90.305 E7.89446
G0 F6000 X92.852 Y90.739
G1 F1200 X93.508 Y90.112 E7.93974
G1 X94.55 Y89.282 E8.0062
G1 X95.387 Y88.73 E8.05622
G1 X96.224 Y88.266 E8.10397
G1 X96.636 Y88.061 E8.12692
G1 X97.513 Y87.673 E8.17477
G1 X98.669 Y87.276 E8.23575
G1 X99.705 Y87.021 E8.28898
G1 X100.923 Y86.836 E8.35044
G1 X102.014 Y86.77 E8.40497
G1 X102.616 Y86.761 E8.43501
G1 X117.479 Y86.76 E9.17653
G1 X118.454 Y86.776 E9.22517
G1 X119.36 Y86.83 E9.27046
G1 X120.681 Y87.028 E9.3371
G1 X121.665 Y87.269 E9.38764
G1 X122.827 Y87.665 E9.44889
G1 X123.84 Y88.117 E9.50423
G1 X124.636 Y88.552 E9.54948
G1 X125.7 Y89.261 E9.61327
G1 X126.49 Y89.895 E9.66381
G1 X127.411 Y90.781 E9.72757
G1 X128.037 Y91.501 E9.77517
G1 X128.658 Y92.335 E9.82704
G1 X129.207 Y93.188 E9.87765
G1 X129.773 Y94.265 E9.93835
G1 X130.127 Y95.101 E9.98364
G1 X130.533 Y96.369 E10.05007
G1 X130.734 Y97.253 E10.0953
G1 X130.913 Y98.556 E10.16092
G1 X130.959 Y99.421 E10.20413
G1 X130.968 Y100.016 E10.23382
G1 X130.971 Y119.691 E11.21541
G1 X130.956 Y120.684 E11.26496
G1 X130.899 Y121.643 E11.31288
G1 X130.71 Y122.905 E11.37655
G1 X130.46 Y123.934 E11.42938
G1 X130.158 Y124.846 E11.47731
G1 X129.622 Y126.075 E11.5442
G1 X129.135 Y126.961 E11.59464
G1 X128.517 Y127.891 E11.65035
G1 X127.755 Y128.837 E11.71095
G1 X127.069 Y129.554 E11.76046
G1 X126.207 Y130.331 E11.81836
G1 X125.399 Y130.944 E11.86896
G1 X124.503 Y131.513 E11.92191
G1 X123.364 Y132.099 E11.98581
G1 X122.475 Y132.461 E12.0337
G1 X121.256 Y132.837 E12.09735
G1 X120.369 Y133.028 E12.14261
G1 X119.08 Y133.189 E12.20742
G1 X118.361 Y133.224 E12.24333
G1 X117.581 Y133.236 E12.28225
G1 X102.368 Y133.234 E13.04123
G1 X101.563 Y133.22 E13.0814
G1 X100.605 Y133.162 E13.12928
G1 X99.339 Y132.972 E13.19315
G1 X98.302 Y132.716 E13.24644
G1 X97.243 Y132.356 E13.30224
G1 X96.173 Y131.881 E13.36065
G1 X95.202 Y131.343 E13.41603
G1 X94.446 Y130.84 E13.46134
G1 X93.408 Y130.009 E13.52767
G1 X92.678 Y129.306 E13.57823
G1 X91.93 Y128.476 E13.63398
G1 X91.317 Y127.668 E13.68458
G1 X90.748 Y126.772 E13.73753
G1 X90.162 Y125.633 E13.80144
G1 X89.8 Y124.744 E13.84932
G1 X89.424 Y123.525 E13.91297
G1 X89.233 Y122.638 E13.95823
G1 X89.072 Y121.35 E14.02299
G1 X89.036 Y120.62 E14.05946
G1 X89.026 Y119.983 E14.09124
G1 X89.025 Y100.616 E15.05746
G1 X89.041 Y99.578 E15.10926
G1 X89.099 Y98.621 E15.15709
G1 X89.286 Y97.362 E15.22059
G1 X89.512 Y96.427 E15.26858
G1 X89.903 Y95.26 E15.32998
G1 X90.379 Y94.188 E15.3885
G1 X90.921 Y93.211 E15.44424
G1 X91.527 Y92.311 E15.49837
G1 X92.043 Y91.651 E15.54017
G1 X92.852 Y90.739 E15.60099
G0 F6000 X93.267 Y91.173
G1 F1200 X93.923 Y90.546 E15.64626
G1 X94.881 Y89.782 E15.7074
G1 X95.678 Y89.255 E15.75507
G1 X96.515 Y88.791 E15.80281
G1 X96.879 Y88.61 E15.82309
G1 X97.756 Y88.222 E15.87094
G1 X98.812 Y87.859 E15.92665
G1 X99.848 Y87.604 E15.97988
G1 X100.96 Y87.435 E16.03599
G1 X102.023 Y87.37 E16.08912
G1 X102.616 Y87.361 E16.11871
G1 X117.47 Y87.36 E16.85978
G1 X118.418 Y87.375 E16.90708
G1 X119.324 Y87.429 E16.95236
G1 X120.538 Y87.611 E17.01361
G1 X121.522 Y87.852 E17.06415
G1 X122.583 Y88.213 E17.12006
G1 X123.552 Y88.644 E17.17297
G1 X124.348 Y89.079 E17.21823
G1 X125.324 Y89.729 E17.27673
G1 X126.114 Y90.363 E17.32727
G1 X126.958 Y91.175 E17.3857
G1 X127.584 Y91.895 E17.4333
G1 X128.153 Y92.66 E17.48086
G1 X128.702 Y93.513 E17.53147
G1 X129.22 Y94.499 E17.58704
G1 X129.574 Y95.335 E17.63233
G1 X129.948 Y96.502 E17.69347
G1 X130.149 Y97.386 E17.7387
G1 X130.314 Y98.588 E17.79923
G1 X130.359 Y99.43 E17.8413
G1 X130.368 Y100.016 E17.87054
G1 X130.371 Y119.682 E18.85168
G1 X130.357 Y120.648 E18.89988
G1 X130.3 Y121.607 E18.94781
G1 X130.127 Y122.764 E19.00617
G1 X129.89 Y123.745 E19.05652
G1 X129.588 Y124.657 E19.10445
G1 X129.096 Y125.786 E19.16589
G1 X128.609 Y126.672 E19.21633
G1 X128.018 Y127.558 E19.26947
G1 X127.321 Y128.423 E19.32489
G1 X126.666 Y129.109 E19.37221
G1 X125.844 Y129.853 E19.42752
G1 X125.036 Y130.466 E19.47812
G1 X124.228 Y130.98 E19.5259
G1 X123.138 Y131.543 E19.5871
G1 X122.249 Y131.905 E19.63499
G1 X121.13 Y132.25 E19.69341
G1 X120.243 Y132.441 E19.73868
G1 X119.051 Y132.59 E19.79861
G1 X118.352 Y132.624 E19.83353
G1 X117.581 Y132.636 E19.872
G1 X102.378 Y132.634 E20.63048
G1 X101.599 Y132.621 E20.66935
G1 X100.641 Y132.563 E20.71723
G1 X99.481 Y132.389 E20.77575
G1 X98.495 Y132.148 E20.82639
G1 X97.436 Y131.788 E20.88219
G1 X96.463 Y131.356 E20.9353
G1 X95.534 Y130.843 E20.98825
G1 X94.778 Y130.34 E21.03355
G1 X93.824 Y129.576 E21.09453
G1 X93.123 Y128.903 E21.14301
G1 X92.408 Y128.113 E21.19617
G1 X91.795 Y127.305 E21.24677
G1 X91.281 Y126.497 E21.29454
G1 X90.718 Y125.407 E21.35575
G1 X90.356 Y124.518 E21.40364
G1 X90.011 Y123.399 E21.46206
G1 X89.82 Y122.512 E21.50733
G1 X89.671 Y121.32 E21.56726
G1 X89.636 Y120.61 E21.60272
G1 X89.626 Y119.983 E21.63401
G1 X89.625 Y100.625 E22.59978
G1 X89.64 Y99.614 E22.65023
G1 X89.698 Y98.657 E22.69806
G1 X89.87 Y97.501 E22.75637
G1 X90.081 Y96.618 E22.80166
G1 X90.472 Y95.451 E22.86306
G1 X90.904 Y94.478 E22.91618
G1 X91.419 Y93.546 E22.9693
G1 X92 Y92.681 E23.02129
G1 X92.516 Y92.021 E23.06308
G1 X93.267 Y91.173 E23.1196
G0 F6000 X93.682 Y91.607
G1 F1200 X94.338 Y90.98 E23.16487
G1 X95.213 Y90.282 E23.22071
G1 X95.969 Y89.78 E23.26599
G1 X96.806 Y89.316 E23.31373
G1 X97.122 Y89.159 E23.33134
G1 X97.999 Y88.771 E23.37918
G1 X98.955 Y88.442 E23.42962
G1 X99.991 Y88.187 E23.48285
G1 X100.997 Y88.034 E23.53362
G1 X102.032 Y87.97 E23.58535
G1 X102.616 Y87.961 E23.61449
G1 X117.461 Y87.96 E24.35511
G1 X118.382 Y87.974 E24.40106
G1 X119.288 Y88.028 E24.44634
G1 X120.395 Y88.194 E24.50219
G1 X121.379 Y88.435 E24.55273
G1 X122.34 Y88.762 E24.60338
G1 X123.264 Y89.171 E24.65379
G1 X124.06 Y89.606 E24.69905
G1 X124.948 Y90.197 E24.75226
G1 X125.738 Y90.831 E24.8028
G1 X126.506 Y91.57 E24.85597
G1 X127.103 Y92.254 E24.90127
G1 X127.648 Y92.985 E24.94676
G1 X128.197 Y93.838 E24.99737
G1 X128.667 Y94.733 E25.0478
G1 X129.021 Y95.569 E25.09309
G1 X129.363 Y96.635 E25.14895
G1 X129.564 Y97.519 E25.19418
G1 X129.715 Y98.62 E25.24962
G1 X129.759 Y99.439 E25.29054
G1 X129.768 Y100.016 E25.31933
G1 X129.771 Y119.674 E26.30007
G1 X129.758 Y120.612 E26.34687
G1 X129.701 Y121.571 E26.3948
G1 X129.544 Y122.624 E26.44792
G1 X129.32 Y123.556 E26.49574
G1 X129.018 Y124.468 E26.54367
G1 X128.57 Y125.497 E26.59966
G1 X128.083 Y126.383 E26.6501
G1 X127.55 Y127.182 E26.69802
G1 X126.886 Y128.009 E26.75093
G1 X126.262 Y128.665 E26.7961
G1 X125.481 Y129.375 E26.84876
G1 X124.673 Y129.988 E26.89936
G1 X123.907 Y130.473 E26.94459
G1 X122.912 Y130.987 E27.00046
G1 X122.023 Y131.349 E27.04835
G1 X121.004 Y131.663 E27.10155
G1 X120.117 Y131.854 E27.14681
G1 X119.022 Y131.991 E27.20187
G1 X118.343 Y132.024 E27.23578
G1 X117.581 Y132.036 E27.27381
G1 X102.388 Y132.034 E28.03179
G1 X101.635 Y132.022 E28.06936
G1 X100.677 Y131.964 E28.11724
G1 X99.622 Y131.806 E28.17046
G1 X98.687 Y131.58 E28.21845
G1 X97.678 Y131.239 E28.27159
G1 X96.752 Y130.83 E28.32209
G1 X95.866 Y130.343 E28.37253
G1 X95.11 Y129.84 E28.41784
G1 X94.239 Y129.142 E28.47352
G1 X93.567 Y128.499 E28.51992
G1 X92.886 Y127.75 E28.57043
G1 X92.273 Y126.942 E28.62103
G1 X91.788 Y126.176 E28.66626
G1 X91.274 Y125.181 E28.72213
G1 X90.912 Y124.292 E28.77002
G1 X90.598 Y123.273 E28.82322
G1 X90.407 Y122.386 E28.86849
G1 X90.27 Y121.291 E28.92354
G1 X90.236 Y120.6 E28.95806
G1 X90.226 Y119.983 E28.98884
G1 X90.225 Y100.634 E29.95417
G1 X90.239 Y99.65 E30.00327
G1 X90.297 Y98.693 E30.0511
G1 X90.454 Y97.64 E30.10421
G1 X90.665 Y96.757 E30.14951
G1 X91.021 Y95.693 E30.20548
G1 X91.43 Y94.767 E30.25599
G1 X91.918 Y93.88 E30.30649
G1 X92.473 Y93.051 E30.35627
G1 X92.989 Y92.391 E30.39806
G1 X93.682 Y91.607 E30.45027
G0 F6000 X94.097 Y92.041
G1 F1200 X94.753 Y91.414 E30.49554
G1 X95.545 Y90.782 E30.54609
G1 X96.301 Y90.28 E30.59137
G1 X97.073 Y89.853 E30.63538
G1 X97.365 Y89.708 E30.65165
G1 X98.242 Y89.32 E30.69949
G1 X99.1 Y89.024 E30.74477
G1 X100.083 Y88.78 E30.7953
G1 X101.035 Y88.633 E30.84336
G1 X102.041 Y88.57 E30.89365
G1 X102.616 Y88.561 E30.92234
G1 X117.452 Y88.56 E31.66251
G1 X118.346 Y88.573 E31.70712
G1 X119.252 Y88.627 E31.7524
G1 X120.254 Y88.777 E31.80294
G1 X121.187 Y89.003 E31.85084
G1 X122.098 Y89.311 E31.89881
G1 X122.976 Y89.698 E31.94668
G1 X123.772 Y90.133 E31.99194
G1 X124.572 Y90.665 E32.03987
G1 X125.362 Y91.299 E32.09041
G1 X126.054 Y91.965 E32.13832
G1 X126.651 Y92.649 E32.18362
G1 X127.144 Y93.311 E32.2248
G1 X127.666 Y94.118 E32.27275
G1 X128.114 Y94.967 E32.32064
G1 X128.468 Y95.803 E32.36593
G1 X128.778 Y96.768 E32.4165
G1 X128.979 Y97.652 E32.46173
G1 X129.116 Y98.652 E32.51209
G1 X129.159 Y99.449 E32.55191
G1 X129.168 Y100.016 E32.5802
G1 X129.171 Y119.666 E33.56054
G1 X129.159 Y120.576 E33.60594
G1 X129.102 Y121.535 E33.65387
G1 X128.96 Y122.485 E33.7018
G1 X128.75 Y123.367 E33.74703
G1 X128.448 Y124.279 E33.79496
G1 X128.044 Y125.209 E33.84554
G1 X127.583 Y126.051 E33.89344
G1 X127.081 Y126.807 E33.93871
G1 X126.45 Y127.596 E33.98911
G1 X125.857 Y128.222 E34.03213
G1 X125.117 Y128.898 E34.08214
G1 X124.352 Y129.481 E34.13012
G1 X123.586 Y129.966 E34.17536
G1 X122.686 Y130.431 E34.2259
G1 X121.797 Y130.793 E34.27378
G1 X120.878 Y131.076 E34.32176
G1 X119.991 Y131.267 E34.36703
G1 X118.993 Y131.392 E34.4172
G1 X118.333 Y131.424 E34.45017
G1 X117.581 Y131.436 E34.48769
G1 X102.397 Y131.434 E35.24523
G1 X101.671 Y131.423 E35.28145
G1 X100.713 Y131.365 E35.32933
G1 X99.763 Y131.223 E35.37726
G1 X98.828 Y130.997 E35.42525
G1 X97.919 Y130.69 E35.47311
G1 X97.04 Y130.304 E35.52101
G1 X96.198 Y129.843 E35.5689
G1 X95.442 Y129.34 E35.6142
G1 X94.653 Y128.708 E35.66464
G1 X94.01 Y128.095 E35.70896
G1 X93.363 Y127.386 E35.75684
G1 X92.78 Y126.621 E35.80483
G1 X92.295 Y125.855 E35.85006
G1 X91.83 Y124.955 E35.9006
G1 X91.468 Y124.066 E35.94849
G1 X91.185 Y123.147 E35.99647
G1 X90.994 Y122.26 E36.04173
G1 X90.869 Y121.262 E36.09191
G1 X90.836 Y120.59 E36.12548
G1 X90.826 Y119.983 E36.15577
G1 X90.825 Y100.642 E37.12069
G1 X90.838 Y99.686 E37.16839
G1 X90.896 Y98.729 E37.21622
G1 X91.038 Y97.779 E37.26415
G1 X91.249 Y96.896 E37.30944
G1 X91.57 Y95.934 E37.36004
G1 X91.956 Y95.055 E37.40793
G1 X92.417 Y94.213 E37.45582
G1 X92.946 Y93.421 E37.50334
G1 X93.462 Y92.761 E37.54514
G1 X94.097 Y92.041 E37.59303
G0 F6000 X94.512 Y92.475
G1 F1200 X95.168 Y91.848 E37.6383
G1 X95.877 Y91.282 E37.68356
G1 X96.633 Y90.78 E37.72884
G1 X97.341 Y90.39 E37.76917
G1 X97.609 Y90.256 E37.78412
G1 X98.438 Y89.887 E37.82939
G1 X99.296 Y89.591 E37.87467
G1 X100.176 Y89.373 E37.9199
G1 X101.073 Y89.232 E37.9652
G1 X102.051 Y89.17 E38.01409
G1 X102.616 Y89.161 E38.04228
G1 X117.444 Y89.16 E38.78205
G1 X118.31 Y89.172 E38.82526
G1 X119.216 Y89.226 E38.87054
G1 X120.114 Y89.36 E38.91584
G1 X120.996 Y89.572 E38.9611
G1 X121.857 Y89.861 E39.00641
G1 X122.688 Y90.225 E39.05167
G1 X123.484 Y90.66 E39.09692
G1 X124.239 Y91.164 E39.14221
G1 X124.947 Y91.732 E39.1875
G1 X125.602 Y92.36 E39.23277
G1 X126.199 Y93.044 E39.27806
G1 X126.641 Y93.638 E39.315
G1 X127.136 Y94.399 E39.36029
G1 X127.561 Y95.201 E39.40558
G1 X127.915 Y96.037 E39.45087
G1 X128.193 Y96.901 E39.49615
G1 X128.394 Y97.785 E39.54138
G1 X128.517 Y98.685 E39.5867
G1 X128.559 Y99.459 E39.62537
G1 X128.568 Y100.016 E39.65316
G1 X128.571 Y119.659 E40.63316
G1 X128.56 Y120.542 E40.67721
G1 X128.508 Y121.448 E40.72249
G1 X128.376 Y122.346 E40.76777
G1 X128.166 Y123.228 E40.813
G1 X127.879 Y124.089 E40.85828
G1 X127.517 Y124.922 E40.9036
G1 X127.083 Y125.719 E40.94887
G1 X126.581 Y126.475 E40.99415
G1 X126.014 Y127.183 E41.0394
G1 X125.421 Y127.809 E41.08242
G1 X124.752 Y128.422 E41.12769
G1 X124.031 Y128.974 E41.17299
G1 X123.265 Y129.459 E41.21822
G1 X122.458 Y129.876 E41.26354
G1 X121.619 Y130.22 E41.30878
G1 X120.752 Y130.489 E41.35407
G1 X119.865 Y130.68 E41.39934
G1 X118.964 Y130.793 E41.44464
G1 X118.323 Y130.824 E41.47666
G1 X117.581 Y130.836 E41.51368
G1 X102.406 Y130.834 E42.27077
G1 X101.706 Y130.824 E42.30569
G1 X100.8 Y130.771 E42.35097
G1 X99.902 Y130.639 E42.39625
G1 X99.019 Y130.428 E42.44155
G1 X98.159 Y130.14 E42.48679
G1 X97.327 Y129.777 E42.53208
G1 X96.53 Y129.343 E42.57736
G1 X95.774 Y128.84 E42.62266
G1 X95.066 Y128.273 E42.66791
G1 X94.452 Y127.69 E42.71015
G1 X93.839 Y127.021 E42.75542
G1 X93.287 Y126.3 E42.80073
G1 X92.802 Y125.534 E42.84596
G1 X92.385 Y124.727 E42.89128
G1 X92.041 Y123.888 E42.93652
G1 X91.772 Y123.021 E42.9818
G1 X91.581 Y122.134 E43.02707
G1 X91.468 Y121.233 E43.07238
G1 X91.436 Y120.58 E43.10499
G1 X91.426 Y119.983 E43.13478
G1 X91.425 Y100.65 E44.09931
G1 X91.437 Y99.721 E44.14566
G1 X91.49 Y98.816 E44.19089
