;FLAVOR:Marlin
;TIME:7648
;Filament used: 5.402m
;Layer height: 0.16
;MINX:67.226
;MINY:54.792
;MINZ:0.2
;MAXX:155.872
;MAXY:149.115
;MAXZ:34.92
;Generated with Creality Slicer 4.8.2-205
M140 S70
M105
M190 S70
M104 S215
M105
M109 S215
M82 ;absolute extrusion mode

G28 ;Home

G92 E0 ;Reset Extruder
G1 Z2.0 F3000 ;Move Z Axis up
G1 X10.1 Y20 Z0.28 F5000.0 ;Move to start position
G1 X10.1 Y200.0 Z0.28 F1500.0 E15 ;Draw the first line
G1 X10.4 Y200.0 Z0.28 F5000.0 ;Move to side a little
G1 X10.4 Y20 Z0.28 F1500.0 E30 ;Draw the second line
G92 E0 ;Reset Extruder
G1 Z2.0 F3000 ;Move Z Axis up

G92 E0
G92 E0
G1 F1500 E-5
;LAYER_COUNT:199
;LAYER:0
M107
G0 F6000 X79.293 Y60.22 Z0.2
;TYPE:SKIRT
G1 F1500 E0
G1 F1200 X79.936 Y59.413 E0.05148
G1 X80.639 Y58.659 E0.10291
G1 X81.399 Y57.962 E0.15436
G1 X82.21 Y57.325 E0.20581
G1 X83.069 Y56.753 E0.25729
G1 X83.969 Y56.25 E0.30873
G1 X84.905 Y55.818 E0.36016
G1 X85.872 Y55.46 E0.41161
G1 X86.864 Y55.177 E0.46307
G1 X87.875 Y54.973 E0.51453
G1 X88.899 Y54.847 E0.566
G1 X89.637 Y54.806 E0.60288
G1 X89.961 Y54.797 E0.61905
G1 X90.33 Y54.792 E0.63746
G1 X109.293 Y54.792 E1.58353
G1 X110.186 Y54.803 E1.62808
G1 X111.216 Y54.858 E1.67954
G1 X112.238 Y54.992 E1.73097
G1 X113.247 Y55.205 E1.78242
G1 X114.237 Y55.496 E1.8339
G1 X115.201 Y55.862 E1.88534
G1 X116.307 Y56.394 E1.94657
G1 X117.308 Y56.935 E2.00334
G1 X117.98 Y57.31 E2.04173
G1 X120.185 Y58.459 E2.16578
G1 X122.394 Y59.53 E2.28826
G1 X124.592 Y60.522 E2.40856
G1 X126.875 Y61.475 E2.53199
G1 X129.196 Y62.367 E2.65604
G1 X131.48 Y63.172 E2.77686
G1 X133.804 Y63.917 E2.89862
G1 X136.157 Y64.6 E3.02085
G1 X139.206 Y65.38 E3.17787
G1 X139.328 Y65.409 E3.18412
G1 X140.112 Y65.621 E3.22464
G1 X140.636 Y65.78 E3.25196
G1 X141.61 Y66.117 E3.30338
G1 X142.556 Y66.529 E3.35486
G1 X143.208 Y66.867 E3.3915
G1 X143.606 Y67.087 E3.41419
G1 X144.489 Y67.62 E3.46564
G1 X145.327 Y68.221 E3.51709
G1 X145.759 Y68.57 E3.5448
G1 X145.869 Y68.663 E3.55199
G1 X146.318 Y69.061 E3.58192
G1 X146.48 Y69.211 E3.59294
G1 X147.209 Y69.94 E3.64437
G1 X148.061 Y70.959 E3.71064
G1 X148.307 Y71.285 E3.73101
G1 X148.895 Y72.131 E3.78241
G1 X149.417 Y73.021 E3.83389
G1 X149.723 Y73.63 E3.86789
G1 X149.909 Y74.025 E3.88967
G1 X150.312 Y74.974 E3.94111
G1 X150.64 Y75.952 E3.99258
G1 X150.829 Y76.673 E4.02976
G1 X150.918 Y77.055 E4.04933
G1 X151.113 Y78.068 E4.1008
G1 X151.21 Y78.868 E4.141
G1 X151.454 Y81.551 E4.27541
G1 X151.748 Y84.001 E4.39852
G1 X152.107 Y86.416 E4.52033
G1 X152.537 Y88.832 E4.64276
G1 X153.032 Y91.226 E4.76472
G1 X153.591 Y93.593 E4.88606
G1 X154.219 Y95.943 E5.00741
G1 X155.221 Y99.255 E5.18005
G1 X155.499 Y100.248 E5.23149
G1 X155.699 Y101.26 E5.28296
G1 X155.82 Y102.284 E5.3344
G1 X155.856 Y102.932 E5.36678
G1 X155.866 Y103.263 E5.3833
G1 X155.872 Y103.664 E5.40331
G1 X155.872 Y117.811 E6.10911
G1 X155.862 Y118.52 E6.14448
G1 X155.807 Y119.549 E6.19589
G1 X155.673 Y120.572 E6.24736
G1 X155.46 Y121.581 E6.29881
G1 X155.041 Y122.934 E6.36948
G1 X154.838 Y123.485 E6.39877
G1 X153.989 Y125.891 E6.52606
G1 X153.246 Y128.206 E6.64736
G1 X152.547 Y130.61 E6.77226
G1 X151.937 Y132.958 E6.8933
G1 X151.385 Y135.357 E7.01611
G1 X151.009 Y137.193 E7.10961
G1 X150.77 Y138.196 E7.16105
G1 X150.498 Y139.055 E7.206
G1 X150.367 Y139.425 E7.22559
G1 X149.986 Y140.383 E7.27702
G1 X149.531 Y141.309 E7.3285
G1 X148.944 Y142.291 E7.38557
G1 X148.712 Y142.644 E7.40665
G1 X148.113 Y143.483 E7.45808
G1 X147.45 Y144.273 E7.50953
G1 X146.82 Y144.923 E7.55469
G1 X146.767 Y144.974 E7.55836
G1 X146.167 Y145.516 E7.5987
G1 X145.965 Y145.688 E7.61194
G1 X145.155 Y146.326 E7.66338
G1 X144.297 Y146.899 E7.71485
G1 X143.595 Y147.301 E7.75521
G1 X143.334 Y147.44 E7.76996
G1 X142.405 Y147.889 E7.82144
G1 X141.445 Y148.265 E7.87288
G1 X140.522 Y148.548 E7.92104
G1 X140.1 Y148.661 E7.94284
G1 X139.094 Y148.889 E7.9943
G1 X138.074 Y149.039 E8.04574
G1 X137.158 Y149.105 E8.09156
G1 X137.078 Y149.108 E8.09555
G1 X136.37 Y149.115 E8.13087
G1 X136.117 Y149.111 E8.1435
G1 X135.087 Y149.055 E8.19496
G1 X133.739 Y148.859 E8.26292
G1 X133.613 Y148.834 E8.26933
G1 X132.827 Y148.653 E8.30957
G1 X132.602 Y148.594 E8.32117
G1 X131.616 Y148.294 E8.37259
G1 X130.655 Y147.918 E8.42407
G1 X129.821 Y147.519 E8.4702
G1 X129.549 Y147.377 E8.48551
G1 X128.654 Y146.865 E8.53695
G1 X127.801 Y146.284 E8.58844
G1 X127.129 Y145.754 E8.63114
G1 X126.797 Y145.474 E8.65281
G1 X126.035 Y144.779 E8.70426
G1 X125.33 Y144.027 E8.75569
G1 X124.637 Y143.158 E8.81114
G1 X124.588 Y143.091 E8.81528
G1 X124.265 Y142.63 E8.84336
G1 X124.124 Y142.419 E8.85602
G1 X123.584 Y141.54 E8.90749
G1 X123.028 Y140.431 E8.96938
G1 X122.777 Y139.862 E9.00041
G1 X122.063 Y138.196 E9.09084
G1 X121.042 Y135.989 E9.21216
G1 X119.948 Y133.788 E9.33478
G1 X118.794 Y131.622 E9.45723
G1 X117.582 Y129.495 E9.57936
G1 X116.308 Y127.4 E9.70169
G1 X114.98 Y125.347 E9.82367
G1 X113.58 Y123.313 E9.94687
G1 X112.131 Y121.331 E10.06936
G1 X110.658 Y119.43 E10.18934
G1 X109.062 Y117.487 E10.31478
G1 X107.48 Y115.667 E10.43509
G1 X105.82 Y113.865 E10.55732
G1 X104.098 Y112.099 E10.68038
G1 X102.326 Y110.378 E10.80362
G1 X100.543 Y108.744 E10.92428
G1 X98.68 Y107.132 E11.04719
G1 X96.767 Y105.569 E11.17043
G1 X94.839 Y104.081 E11.29194
G1 X92.856 Y102.64 E11.41423
G1 X90.841 Y101.261 E11.53605
G1 X88.76 Y99.921 E11.65953
G1 X86.665 Y98.653 E11.78171
G1 X84.548 Y97.454 E11.90309
G1 X82.355 Y96.292 E12.02691
G1 X80.221 Y95.238 E12.14565
G1 X76.849 Y93.713 E12.33028
G1 X76.078 Y93.383 E12.37213
G1 X75.147 Y92.941 E12.42354
G1 X74.067 Y92.31 E12.48595
G1 X73.97 Y92.247 E12.49172
G1 X73.489 Y91.919 E12.52076
G1 X73.283 Y91.772 E12.53339
G1 X72.467 Y91.141 E12.58485
G1 X71.464 Y90.209 E12.65316
G1 X71.398 Y90.141 E12.65789
G1 X70.835 Y89.523 E12.69959
G1 X70.705 Y89.371 E12.70957
G1 X70.065 Y88.561 E12.76108
G1 X69.49 Y87.705 E12.81252
G1 X69.173 Y87.162 E12.84389
G1 X68.964 Y86.784 E12.86544
G1 X68.5 Y85.862 E12.91694
G1 X68.109 Y84.908 E12.96837
G1 X67.695 Y83.552 E13.03911
G1 X67.624 Y83.266 E13.05381
G1 X67.414 Y82.257 E13.10523
G1 X67.284 Y81.234 E13.15667
G1 X67.236 Y80.379 E13.1994
G1 X67.226 Y79.96 E13.22031
G1 X67.241 Y78.929 E13.27175
G1 X67.336 Y77.902 E13.32321
G1 X67.546 Y76.723 E13.38295
G1 X67.681 Y76.166 E13.41155
G1 X67.751 Y75.901 E13.42522
G1 X68.053 Y74.915 E13.47667
G1 X68.43 Y73.955 E13.52812
G1 X68.653 Y73.473 E13.55462
G1 X68.691 Y73.395 E13.55895
G1 X68.96 Y72.873 E13.58825
G1 X69.061 Y72.687 E13.5988
G1 X69.588 Y71.801 E13.65024
G1 X70.182 Y70.958 E13.70169
G1 X70.595 Y70.444 E13.73458
G1 X70.897 Y70.087 E13.75791
G1 X71.464 Y69.458 E13.80016
G1 X71.878 Y69.027 E13.82997
G1 X73.583 Y67.202 E13.95458
G1 X75.225 Y65.343 E14.07832
G1 X76.768 Y63.491 E14.19858
G1 X78.329 Y61.506 E14.32457
G1 X79.169 Y60.389 E14.3943
G1 X79.293 Y60.22 E14.40475
G0 F6000 X79.776 Y60.575
G1 F1200 X80.405 Y59.788 E14.45502
G1 X81.094 Y59.053 E14.50528
G1 X81.84 Y58.374 E14.5556
G1 X82.637 Y57.758 E14.60586
G1 X83.48 Y57.206 E14.65613
G1 X84.365 Y56.723 E14.70643
G1 X85.285 Y56.311 E14.75672
G1 X86.234 Y55.974 E14.80697
G1 X87.208 Y55.713 E14.85727
G1 X88.199 Y55.53 E14.90755
G1 X89.653 Y55.406 E14.98035
G1 X89.977 Y55.397 E14.99652
G1 X90.33 Y55.392 E15.01414
G1 X109.293 Y55.392 E15.96021
G1 X110.177 Y55.403 E16.00431
G1 X111.184 Y55.458 E16.05463
G1 X112.183 Y55.591 E16.10491
G1 X113.168 Y55.804 E16.15518
G1 X114.133 Y56.094 E16.20545
G1 X115.072 Y56.46 E16.25573
G1 X116.022 Y56.922 E16.30844
G1 X117.016 Y57.459 E16.3648
G1 X117.735 Y57.86 E16.40588
G1 X119.872 Y58.974 E16.52611
G1 X122.139 Y60.074 E16.65182
G1 X124.368 Y61.079 E16.77381
G1 X126.64 Y62.027 E16.89663
G1 X128.993 Y62.931 E17.02238
G1 X131.277 Y63.737 E17.14322
G1 X133.633 Y64.492 E17.26665
G1 X135.994 Y65.177 E17.3893
G1 X139.189 Y65.993 E17.55381
G1 X139.938 Y66.195 E17.59252
G1 X140.462 Y66.354 E17.61984
G1 X141.414 Y66.685 E17.67012
G1 X142.336 Y67.09 E17.72036
G1 X142.918 Y67.392 E17.75307
G1 X143.316 Y67.612 E17.77576
G1 X144.178 Y68.134 E17.82604
G1 X145.372 Y69.029 E17.90048
G1 X145.482 Y69.122 E17.90767
G1 X145.91 Y69.501 E17.93619
G1 X146.072 Y69.651 E17.94721
G1 X146.784 Y70.365 E17.99751
G1 X147.582 Y71.32 E18.0596
G1 X147.828 Y71.646 E18.07998
G1 X148.402 Y72.474 E18.13024
G1 X148.909 Y73.345 E18.18052
G1 X149.18 Y73.886 E18.21071
G1 X149.366 Y74.281 E18.23249
G1 X149.759 Y75.209 E18.28277
G1 X150.077 Y76.165 E18.33304
G1 X150.245 Y76.809 E18.36624
G1 X150.334 Y77.191 E18.38581
G1 X150.523 Y78.181 E18.43609
G1 X150.613 Y78.923 E18.47338
G1 X150.86 Y81.643 E18.60964
G1 X151.15 Y84.056 E18.73089
G1 X151.512 Y86.493 E18.85381
G1 X151.948 Y88.947 E18.97816
G1 X152.452 Y91.382 E19.10221
G1 X153.009 Y93.74 E19.22309
G1 X153.647 Y96.127 E19.34636
G1 X154.621 Y99.349 E19.51429
G1 X154.65 Y99.439 E19.51901
G1 X154.921 Y100.41 E19.5693
G1 X155.114 Y101.399 E19.61958
G1 X155.228 Y102.4 E19.66984
G1 X155.256 Y102.95 E19.69731
G1 X155.266 Y103.281 E19.71384
G1 X155.272 Y103.664 E19.73295
G1 X155.272 Y117.802 E20.43829
G1 X155.262 Y118.511 E20.47367
G1 X155.208 Y119.517 E20.52393
G1 X155.074 Y120.516 E20.57422
G1 X154.861 Y121.501 E20.6245
G1 X154.478 Y122.727 E20.68858
G1 X154.271 Y123.289 E20.71846
G1 X153.424 Y125.688 E20.84538
G1 X152.657 Y128.077 E20.97056
G1 X151.974 Y130.428 E21.0927
G1 X151.362 Y132.784 E21.21415
G1 X150.79 Y135.267 E21.34127
G1 X150.42 Y137.076 E21.43339
G1 X150.186 Y138.057 E21.4837
G1 X149.933 Y138.855 E21.52547
G1 X149.802 Y139.225 E21.54505
G1 X149.428 Y140.161 E21.59534
G1 X148.981 Y141.064 E21.64561
G1 X148.443 Y141.961 E21.69779
G1 X148.211 Y142.314 E21.71886
G1 X147.625 Y143.134 E21.76915
G1 X146.975 Y143.904 E21.81942
G1 X146.404 Y144.49 E21.86024
G1 X146.351 Y144.541 E21.86391
G1 X145.778 Y145.06 E21.90248
G1 X145.576 Y145.232 E21.91572
G1 X144.784 Y145.854 E21.96596
G1 X143.944 Y146.412 E22.01627
G1 X143.313 Y146.771 E22.05249
G1 X143.052 Y146.91 E22.06724
G1 X142.144 Y147.348 E22.11754
G1 X141.205 Y147.713 E22.1678
G1 X140.367 Y147.969 E22.21151
G1 X139.945 Y148.082 E22.23331
G1 X138.962 Y148.304 E22.28359
G1 X137.964 Y148.447 E22.33388
G1 X137.136 Y148.505 E22.3753
G1 X137.056 Y148.508 E22.37929
G1 X136.379 Y148.515 E22.41307
G1 X136.126 Y148.511 E22.42569
G1 X135.12 Y148.456 E22.47596
G1 X133.855 Y148.27 E22.53974
G1 X133.729 Y148.245 E22.54615
G1 X132.98 Y148.073 E22.58449
G1 X132.755 Y148.014 E22.5961
G1 X131.791 Y147.72 E22.64638
G1 X130.853 Y147.35 E22.69669
G1 X130.099 Y146.987 E22.73844
G1 X129.827 Y146.845 E22.75374
G1 X128.952 Y146.344 E22.80405
G1 X128.121 Y145.774 E22.85432
G1 X127.516 Y145.295 E22.89282
G1 X127.184 Y145.015 E22.91449
G1 X126.44 Y144.336 E22.96474
G1 X125.753 Y143.599 E23.01501
G1 X125.121 Y142.804 E23.06567
G1 X125.072 Y142.737 E23.06982
G1 X124.764 Y142.296 E23.09665
G1 X124.623 Y142.085 E23.10931
G1 X124.096 Y141.226 E23.15959
G1 X123.577 Y140.187 E23.21753
G1 X123.328 Y139.625 E23.2482
G1 X122.612 Y137.953 E23.33894
G1 X121.594 Y135.753 E23.45988
G1 X120.471 Y133.493 E23.58579
G1 X119.316 Y131.326 E23.7083
G1 X118.117 Y129.221 E23.82916
G1 X116.803 Y127.06 E23.95534
G1 X115.479 Y125.013 E24.07696
G1 X114.082 Y122.984 E24.19986
G1 X112.614 Y120.975 E24.324
G1 X111.107 Y119.03 E24.44676
G1 X109.538 Y117.12 E24.57007
G1 X107.915 Y115.254 E24.69346
G1 X106.249 Y113.445 E24.81615
G1 X104.522 Y111.674 E24.93956
G1 X102.761 Y109.964 E25.06202
G1 X100.934 Y108.288 E25.18572
G1 X99.047 Y106.656 E25.31018
G1 X97.165 Y105.118 E25.43144
G1 X95.193 Y103.597 E25.55569
G1 X93.199 Y102.148 E25.67866
G1 X91.156 Y100.749 E25.8022
G1 X89.087 Y99.417 E25.92496
G1 X86.973 Y98.138 E26.04823
G1 X84.815 Y96.916 E26.17196
G1 X82.661 Y95.774 E26.29359
G1 X80.466 Y94.69 E26.41572
G1 X77.125 Y93.179 E26.59866
G1 X76.314 Y92.832 E26.64267
G1 X75.404 Y92.399 E26.69295
G1 X74.394 Y91.807 E26.75135
G1 X74.297 Y91.744 E26.75712
G1 X73.837 Y91.431 E26.78488
G1 X73.631 Y91.284 E26.79751
G1 X72.835 Y90.666 E26.84779
G1 X71.895 Y89.791 E26.91186
G1 X71.829 Y89.723 E26.91658
G1 X71.29 Y89.133 E26.95645
G1 X71.16 Y88.981 E26.96643
G1 X70.536 Y88.189 E27.01673
G1 X69.977 Y87.351 E27.06699
G1 X69.698 Y86.871 E27.09469
G1 X69.489 Y86.493 E27.11624
G1 X69.036 Y85.593 E27.16651
G1 X68.657 Y84.659 E27.21679
G1 X68.277 Y83.408 E27.28202
G1 X68.206 Y83.122 E27.29672
G1 X68.002 Y82.135 E27.34701
G1 X67.877 Y81.135 E27.39729
G1 X67.836 Y80.365 E27.43576
G1 X67.826 Y79.946 E27.45667
G1 X67.842 Y78.938 E27.50696
G1 X67.937 Y77.935 E27.55722
G1 X68.132 Y76.855 E27.61198
G1 X68.261 Y76.32 E27.63943
G1 X68.331 Y76.055 E27.65311
G1 X68.627 Y75.091 E27.70342
G1 X69.193 Y73.736 E27.77668
G1 X69.231 Y73.658 E27.78101
G1 X69.487 Y73.16 E27.80894
G1 X69.588 Y72.974 E27.8195
G1 X70.104 Y72.108 E27.8698
G1 X70.687 Y71.286 E27.92007
G1 X71.053 Y70.832 E27.94917
G1 X71.355 Y70.475 E27.9725
G1 X71.897 Y69.874 E28.01287
G1 X72.287 Y69.469 E28.04092
G1 X74.028 Y67.605 E28.16817
G1 X75.679 Y65.735 E28.29263
G1 X77.225 Y63.88 E28.4131
G1 X78.816 Y61.856 E28.54154
G1 X79.616 Y60.792 E28.60795
G1 X79.776 Y60.575 E28.62141
G0 F6000 X80.259 Y60.931
G1 F1200 X80.874 Y60.163 E28.67049
G1 X81.549 Y59.447 E28.71958
G1 X82.28 Y58.789 E28.76865
G1 X83.062 Y58.192 E28.81774
G1 X83.89 Y57.661 E28.86681
G1 X84.758 Y57.198 E28.91589
G1 X85.661 Y56.808 E28.96496
G1 X86.593 Y56.492 E29.01406
G1 X87.547 Y56.254 E29.06312
G1 X88.517 Y56.093 E29.11217
G1 X89.67 Y56.006 E29.16986
G1 X89.994 Y55.997 E29.18603
G1 X90.33 Y55.992 E29.20279
G1 X109.293 Y55.992 E30.14886
G1 X110.169 Y56.003 E30.19257
G1 X111.151 Y56.057 E30.24164
G1 X112.126 Y56.191 E30.29074
G1 X113.086 Y56.403 E30.33978
G1 X114.026 Y56.693 E30.38886
G1 X114.94 Y57.058 E30.43796
G1 X115.737 Y57.45 E30.48227
G1 X116.724 Y57.983 E30.53824
G1 X117.448 Y58.387 E30.5796
G1 X119.615 Y59.516 E30.70151
G1 X121.884 Y60.617 E30.82733
G1 X124.13 Y61.63 E30.95025
G1 X126.404 Y62.579 E31.07319
G1 X128.8 Y63.5 E31.20125
G1 X131.094 Y64.309 E31.32261
G1 X133.462 Y65.068 E31.44667
G1 X135.809 Y65.749 E31.56859
G1 X138.936 Y66.549 E31.72962
G1 X139.05 Y66.576 E31.73547
G1 X139.763 Y66.769 E31.77232
G1 X140.287 Y66.928 E31.79964
G1 X141.216 Y67.252 E31.84872
G1 X142.116 Y67.65 E31.89782
G1 X142.628 Y67.917 E31.92663
G1 X143.026 Y68.137 E31.94931
G1 X143.867 Y68.648 E31.99841
G1 X144.984 Y69.487 E32.06811
G1 X145.094 Y69.58 E32.07529
G1 X145.503 Y69.941 E32.10251
G1 X145.665 Y70.091 E32.11352
G1 X146.359 Y70.789 E32.16263
G1 X147.103 Y71.682 E32.22062
G1 X147.349 Y72.008 E32.241
G1 X147.909 Y72.816 E32.29004
G1 X148.401 Y73.668 E32.33913
G1 X148.637 Y74.141 E32.3655
G1 X148.823 Y74.536 E32.38728
G1 X149.206 Y75.442 E32.43635
G1 X149.513 Y76.377 E32.48545
G1 X149.66 Y76.945 E32.51472
G1 X149.749 Y77.327 E32.53429
G1 X149.933 Y78.294 E32.5834
G1 X150.015 Y78.977 E32.61772
G1 X150.26 Y81.668 E32.75253
G1 X150.557 Y84.141 E32.8768
G1 X150.926 Y86.628 E33.00223
G1 X151.361 Y89.07 E33.12598
G1 X151.862 Y91.496 E33.24957
G1 X152.422 Y93.863 E33.37092
G1 X153.073 Y96.303 E33.49691
G1 X154.05 Y99.534 E33.66531
G1 X154.079 Y99.623 E33.66998
G1 X154.342 Y100.571 E33.71906
G1 X154.528 Y101.537 E33.76814
G1 X154.656 Y102.969 E33.83987
G1 X154.666 Y103.3 E33.85639
G1 X154.672 Y103.664 E33.87455
G1 X154.672 Y117.794 E34.5795
G1 X154.662 Y118.503 E34.61488
G1 X154.608 Y119.485 E34.66394
G1 X154.475 Y120.459 E34.71299
G1 X154.262 Y121.42 E34.7621
G1 X153.915 Y122.519 E34.81959
G1 X153.735 Y123.006 E34.8455
G1 X152.85 Y125.515 E34.97823
G1 X152.086 Y127.895 E35.10294
G1 X151.4 Y130.256 E35.2256
G1 X150.772 Y132.669 E35.34999
G1 X150.204 Y135.138 E35.47639
G1 X149.879 Y136.722 E35.55706
G1 X149.832 Y136.96 E35.56917
G1 X149.602 Y137.917 E35.61827
G1 X149.367 Y138.654 E35.65686
G1 X149.236 Y139.024 E35.67645
G1 X148.87 Y139.938 E35.72557
G1 X148.432 Y140.818 E35.77461
G1 X147.942 Y141.632 E35.82201
G1 X147.71 Y141.985 E35.84308
G1 X147.136 Y142.784 E35.89216
G1 X146.5 Y143.534 E35.94122
G1 X145.988 Y144.058 E35.97777
G1 X145.935 Y144.109 E35.98144
G1 X145.389 Y144.603 E36.01818
G1 X145.187 Y144.775 E36.03142
G1 X144.413 Y145.381 E36.08046
G1 X143.592 Y145.923 E36.12954
G1 X143.031 Y146.242 E36.16174
G1 X142.77 Y146.381 E36.17649
G1 X141.883 Y146.808 E36.2256
